assets/preview/luts/cc_4k.cube
# Recriado de uma referência do usuário (2026-08-17) medindo o vídeo.
# Filtro original: "4K" (CapCut). Curva por canal + saturação 1.06x.
TITLE "4K"
LUT_3D_SIZE 9
DOMAIN_MIN 0.0 0.0 0.0
DOMAIN_MAX 1.0 1.0 1.0
0.000000 0.000000 0.000000
0.096209 0.000000 0.000000
0.242765 0.000000 0.000000
0.387409 0.000000 0.000000
0.530931 0.000000 0.000000
0.673656 0.000000 0.000000
0.815762 0.000000 0.000000
0.957362 0.000000 0.000000
1.000000 0.000000 0.000000
0.000000 0.093438 0.000000
0.092266 0.092266 0.000000
0.238823 0.090481 0.000000
0.383467 0.088720 0.000000
0.526989 0.086971 0.000000
0.669714 0.085233 0.000000
0.811820 0.083502 0.000000
0.953420 0.081777 0.000000
1.000000 0.080682 0.000000
0.000000 0.235775 0.000000
0.086261 0.234603 0.000000
0.232818 0.232818 0.000000
0.377461 0.231056 0.000000
0.520984 0.229308 0.000000
0.663709 0.227569 0.000000
0.805815 0.225838 0.000000
0.947414 0.224113 0.000000
1.000000 0.223019 0.000000
0.000000 0.376253 0.000000
0.080334 0.375081 0.000000
0.226891 0.373296 0.000000
0.371534 0.371534 0.000000
0.515057 0.369786 0.000000
0.657782 0.368048 0.000000
0.799888 0.366317 0.000000
0.941487 0.364592 0.000000
1.000000 0.363497 0.000000
0.000000 0.515643 0.000000
0.074453 0.514471 0.000000
0.221010 0.512686 0.000000
0.365653 0.510924 0.000000
0.509176 0.509176 0.000000
0.651901 0.507437 0.000000
0.794007 0.505706 0.000000
0.935606 0.503982 0.000000
1.000000 0.502887 0.000000
0.000000 0.654258 0.000000
0.068605 0.653086 0.000000
0.215161 0.651301 0.000000
0.359805 0.649539 0.000000
0.503328 0.647791 0.000000
0.646053 0.646053 0.000000
0.788158 0.644322 0.000000
0.929758 0.642597 0.000000
1.000000 0.641502 0.000000
0.000000 0.792272 0.000000
0.062782 0.791100 0.000000
0.209338 0.789315 0.000000
0.353982 0.787553 0.000000
0.497505 0.785805 0.000000
0.640230 0.784066 0.000000
0.782335 0.782335 0.000000
0.923935 0.780611 0.000000
1.000000 0.779516 0.000000
0.000000 0.929794 0.000000
0.056980 0.928622 0.000000
0.203536 0.926837 0.000000
0.348180 0.925075 0.000000
0.491702 0.923327 0.000000
0.634427 0.921588 0.000000
0.776533 0.919858 0.000000
0.918133 0.918133 0.000000
1.000000 0.917038 0.000000
0.000000 1.000000 0.000000
0.053297 1.000000 0.000000
0.199853 1.000000 0.000000
0.344497 1.000000 0.000000
0.488019 1.000000 0.000000
0.630744 1.000000 0.000000
0.772850 1.000000 0.000000
0.914450 1.000000 0.000000
1.000000 1.000000 0.000000
0.000000 0.000000 0.096983
0.095811 0.000000 0.095811
0.242367 0.000000 0.094026
0.387011 0.000000 0.092264
0.530533 0.000000 0.090516
0.673258 0.000000 0.088777
0.815364 0.000000 0.087046
0.956964 0.000000 0.085321
1.000000 0.000000 0.084227
0.000000 0.093040 0.093040
0.091869 0.091869 0.091869
0.238425 0.090083 0.090083
0.383069 0.088322 0.088322
0.526591 0.086573 0.086573
0.669316 0.084835 0.084835
0.811422 0.083104 0.083104
0.953022 0.081379 0.081379
1.000000 0.080284 0.080284
0.000000 0.235377 0.087035
0.085863 0.234205 0.085863
0.232420 0.232420 0.084078
0.377063 0.230658 0.082316
0.520586 0.228910 0.080568
0.663311 0.227171 0.078830
0.805417 0.225440 0.077099
0.947016 0.223715 0.075374
1.000000 0.222621 0.074279
0.000000 0.375855 0.081108
0.079936 0.374683 0.079936
0.226493 0.372898 0.078151
0.371136 0.371136 0.076389
0.514659 0.369388 0.074641
0.657384 0.367650 0.072903
0.799490 0.365919 0.071172
0.941089 0.364194 0.069447
1.000000 0.363099 0.068352
0.000000 0.515245 0.075227
0.074055 0.514073 0.074055
0.220612 0.512288 0.072270
0.365255 0.510526 0.070508
0.508778 0.508778 0.068760
0.651503 0.507039 0.067022
0.793609 0.505309 0.065291
0.935208 0.503584 0.063566
1.000000 0.502489 0.062471
0.000000 0.653860 0.069379
0.068207 0.652688 0.068207
0.214763 0.650903 0.066422
0.359407 0.649141 0.064660
0.502930 0.647393 0.062912
0.645655 0.645655 0.061173
0.787760 0.643924 0.059442
0.929360 0.642199 0.057718
1.000000 0.641104 0.056623
0.000000 0.791874 0.063556
0.062384 0.790702 0.062384
0.208940 0.788917 0.060599
0.353584 0.787155 0.058837
0.497107 0.785407 0.057089
0.639832 0.783668 0.055350
0.781937 0.781937 0.053619
0.923537 0.780213 0.051895
1.000000 0.779118 0.050800
0.000000 0.929396 0.057754
0.056582 0.928224 0.056582
0.203138 0.926439 0.054797
0.347782 0.924677 0.053035
0.491304 0.922929 0.051287
0.634029 0.921191 0.049548
0.776135 0.919460 0.047817
0.917735 0.917735 0.046093
1.000000 0.916640 0.044998
0.000000 1.000000 0.054071
0.052899 1.000000 0.052899
0.199455 1.000000 0.051114
0.344099 1.000000 0.049352
0.487621 1.000000 0.047604
0.630346 1.000000 0.045865
0.772452 1.000000 0.044134
0.914052 1.000000 0.042409
1.000000 1.000000 0.041315
0.000000 0.000000 0.244718
0.095205 0.000000 0.243546
0.241761 0.000000 0.241761
0.386405 0.000000 0.239999
0.529927 0.000000 0.238251
0.672652 0.000000 0.236513
0.814758 0.000000 0.234782
0.956358 0.000000 0.233057
1.000000 0.000000 0.231962
0.000000 0.092434 0.240776
0.091262 0.091262 0.239604
0.237819 0.089477 0.237819
0.382462 0.087715 0.236057
0.525985 0.085967 0.234309
0.668710 0.084229 0.232570
0.810816 0.082498 0.230839
0.952415 0.080773 0.229115
1.000000 0.079678 0.228020
0.000000 0.234770 0.234770
0.085257 0.233599 0.233599
0.231813 0.231813 0.231813
0.376457 0.230052 0.230052
0.519980 0.228303 0.228303
0.662705 0.226565 0.226565
0.804810 0.224834 0.224834
0.946410 0.223109 0.223109
1.000000 0.222014 0.222014
0.000000 0.375249 0.228843
0.079330 0.374077 0.227672
0.225886 0.372292 0.225886
0.370530 0.370530 0.224125
0.514053 0.368782 0.222376
0.656778 0.367044 0.220638
0.798883 0.365313 0.218907
0.940483 0.363588 0.217182
1.000000 0.362493 0.216087
0.000000 0.514639 0.222962
0.073449 0.513467 0.221791
0.220005 0.511682 0.220005
0.364649 0.509920 0.218244
0.508172 0.508172 0.216495
0.650897 0.506433 0.214757
0.793002 0.504702 0.213026
0.934602 0.502978 0.211301
1.000000 0.501883 0.210206
0.000000 0.653254 0.217114
0.067601 0.652082 0.215942
0.214157 0.650297 0.214157
0.358801 0.648535 0.212395
0.502323 0.646787 0.210647
0.645048 0.645048 0.208909
0.787154 0.643317 0.207178
0.928754 0.641593 0.205453
1.000000 0.640498 0.204358
0.000000 0.791268 0.211291
0.061778 0.790096 0.210119
0.208334 0.788311 0.208334
0.352978 0.786549 0.206572
0.496500 0.784801 0.204824
0.639225 0.783062 0.203086
0.781331 0.781331 0.201355
0.922931 0.779606 0.199630
1.000000 0.778512 0.198535
0.000000 0.928790 0.205489
0.055976 0.927618 0.204317
0.202532 0.925833 0.202532
0.347176 0.924071 0.200770
0.490698 0.922323 0.199022
0.633423 0.920584 0.197284
0.775529 0.918853 0.195553
0.917129 0.917129 0.193828
1.000000 0.916034 0.192733
0.000000 1.000000 0.201806
0.052293 1.000000 0.200634
0.198849 1.000000 0.198849
0.343493 1.000000 0.197087
0.487015 1.000000 0.195339
0.629740 1.000000 0.193601
0.771846 1.000000 0.191870
0.913446 1.000000 0.190145
1.000000 1.000000 0.189050
0.000000 0.000000 0.390525
0.094606 0.000000 0.389353
0.241163 0.000000 0.387568
0.385806 0.000000 0.385806
0.529329 0.000000 0.384058
0.672054 0.000000 0.382320
0.814160 0.000000 0.380589
0.955759 0.000000 0.378864
1.000000 0.000000 0.377769
0.000000 0.091836 0.386583
0.090664 0.090664 0.385411
0.237220 0.088879 0.383626
0.381864 0.087117 0.381864
0.525387 0.085369 0.380116
0.668112 0.083630 0.378377
0.810217 0.081899 0.376647
0.951817 0.080175 0.374922
1.000000 0.079080 0.373827
0.000000 0.234172 0.380578
0.084659 0.233000 0.379406
0.231215 0.231215 0.377621
0.375859 0.229453 0.375859
0.519381 0.227705 0.374111
0.662106 0.225967 0.372372
0.804212 0.224236 0.370641
0.945812 0.222511 0.368916
1.000000 0.221416 0.367822
0.000000 0.374651 0.374651
0.078732 0.373479 0.373479
0.225288 0.371694 0.371694
0.369932 0.369932 0.369932
0.513454 0.368184 0.368184
0.656179 0.366445 0.366445
0.798285 0.364714 0.364714
0.939885 0.362990 0.362990
1.000000 0.361895 0.361895
0.000000 0.514040 0.368770
0.072851 0.512868 0.367598
0.219407 0.511083 0.365813
0.364051 0.509322 0.364051
0.507573 0.507573 0.362303
0.650298 0.505835 0.360564
0.792404 0.504104 0.358833
0.934004 0.502379 0.357109
1.000000 0.501284 0.356014
0.000000 0.652655 0.362921
0.067002 0.651484 0.361750
0.213559 0.649698 0.359964
0.358203 0.647937 0.358203
0.501725 0.646188 0.356454
0.644450 0.644450 0.354716
0.786556 0.642719 0.352985
0.928155 0.640994 0.351260
1.000000 0.639899 0.350165
0.000000 0.790669 0.357098
0.061179 0.789497 0.355927
0.207736 0.787712 0.354141
0.352380 0.785950 0.352380
0.495902 0.784202 0.350631
0.638627 0.782464 0.348893
0.780733 0.780733 0.347162
0.922332 0.779008 0.345437
1.000000 0.777913 0.344342
0.000000 0.928191 0.351296
0.055377 0.927020 0.350124
0.201934 0.925234 0.348339
0.346577 0.923473 0.346577
0.490100 0.921724 0.344829
0.632825 0.919986 0.343091
0.774931 0.918255 0.341360
0.916530 0.916530 0.339635
1.000000 0.915435 0.338540
0.000000 1.000000 0.347613
0.051694 1.000000 0.346441
0.198251 1.000000 0.344656
0.342894 1.000000 0.342894
0.486417 1.000000 0.341146
0.629142 1.000000 0.339408
0.771248 1.000000 0.337677
0.912847 1.000000 0.335952
1.000000 1.000000 0.334857
0.000000 0.000000 0.535202
0.094013 0.000000 0.534030
0.240569 0.000000 0.532245
0.385213 0.000000 0.530483
0.528735 0.000000 0.528735
0.671460 0.000000 0.526997
0.813566 0.000000 0.525266
0.955166 0.000000 0.523541
1.000000 0.000000 0.522446
0.000000 0.091242 0.531260
0.090070 0.090070 0.530088
0.236627 0.088285 0.528303
0.381270 0.086523 0.526541
0.524793 0.084775 0.524793
0.667518 0.083037 0.523054
0.809624 0.081306 0.521324
0.951223 0.079581 0.519599
1.000000 0.078486 0.518504
0.000000 0.233578 0.525255
0.084065 0.232407 0.524083
0.230621 0.230621 0.522298
0.375265 0.228860 0.520536
0.518788 0.227111 0.518788
0.661513 0.225373 0.517049
0.803618 0.223642 0.515318
0.945218 0.221917 0.513593
1.000000 0.220822 0.512499
0.000000 0.374057 0.519328
0.078138 0.372885 0.518156
0.224694 0.371100 0.516371
0.369338 0.369338 0.514609
0.512861 0.367590 0.512861
0.655586 0.365851 0.511122
0.797691 0.364121 0.509391
0.939291 0.362396 0.507666
1.000000 0.361301 0.506572
0.000000 0.513447 0.513447
0.072257 0.512275 0.512275
0.218813 0.510490 0.510490
0.363457 0.508728 0.508728
0.506980 0.506980 0.506980
0.649705 0.505241 0.505241
0.791810 0.503510 0.503510
0.933410 0.501785 0.501785
1.000000 0.500691 0.500691
0.000000 0.652062 0.507598
0.066409 0.650890 0.506426
0.212965 0.649105 0.504641
0.357609 0.647343 0.502880
0.501131 0.645595 0.501131
0.643856 0.643856 0.499393
0.785962 0.642125 0.497662
0.927562 0.640401 0.495937
1.000000 0.639306 0.494842
0.000000 0.790076 0.501775
0.060586 0.788904 0.500604
0.207142 0.787119 0.498818
0.351786 0.785357 0.497057
0.495308 0.783608 0.495308
0.638033 0.781870 0.493570
0.780139 0.780139 0.491839
0.921739 0.778414 0.490114
1.000000 0.777320 0.489019
0.000000 0.927598 0.495973
0.054784 0.926426 0.494801
0.201340 0.924641 0.493016
0.345984 0.922879 0.491254
0.489506 0.921131 0.489506
0.632231 0.919392 0.487768
0.774337 0.917661 0.486037
0.915937 0.915937 0.484312
1.000000 0.914842 0.483217
0.000000 1.000000 0.492290
0.051101 1.000000 0.491118
0.197657 1.000000 0.489333
0.342301 1.000000 0.487571
0.485823 1.000000 0.485823
0.628548 1.000000 0.484085
0.770654 1.000000 0.482354
0.912254 1.000000 0.480629
1.000000 1.000000 0.479534
0.000000 0.000000 0.679075
0.093422 0.000000 0.677903
0.239979 0.000000 0.676118
0.384622 0.000000 0.674356
0.528145 0.000000 0.672608
0.670870 0.000000 0.670870
0.812975 0.000000 0.669139
0.954575 0.000000 0.667414
1.000000 0.000000 0.666319
0.000000 0.090652 0.675133
0.089480 0.089480 0.673961
0.236036 0.087695 0.672176
0.380680 0.085933 0.670414
0.524203 0.084185 0.668666
0.666927 0.082446 0.666927
0.809033 0.080715 0.665197
0.950633 0.078991 0.663472
1.000000 0.077896 0.662377
0.000000 0.232988 0.669128
0.083475 0.231816 0.667956
0.230031 0.230031 0.666171
0.374675 0.228269 0.664409
0.518197 0.226521 0.662661
0.660922 0.224783 0.660922
0.803028 0.223052 0.659191
0.944628 0.221327 0.657466
1.000000 0.220232 0.656372
0.000000 0.373467 0.663201
0.077548 0.372295 0.662029
0.224104 0.370510 0.660244
0.368748 0.368748 0.658482
0.512270 0.367000 0.656734
0.654995 0.365261 0.654995
0.797101 0.363530 0.653264
0.938701 0.361805 0.651540
1.000000 0.360711 0.650445
0.000000 0.512856 0.657320
0.071667 0.511684 0.656148
0.218223 0.509899 0.654363
0.362867 0.508137 0.652601
0.506389 0.506389 0.650853
0.649114 0.504651 0.649114
0.791220 0.502920 0.647383
0.932820 0.501195 0.645659
1.000000 0.500100 0.644564
0.000000 0.651471 0.651471
0.065818 0.650300 0.650300
0.212375 0.648514 0.648514
0.357018 0.646753 0.646753
0.500541 0.645004 0.645004
0.643266 0.643266 0.643266
0.785372 0.641535 0.641535
0.926971 0.639810 0.639810
1.000000 0.638715 0.638715
0.000000 0.789485 0.645648
0.059995 0.788313 0.644477
0.206552 0.786528 0.642691
0.351195 0.784766 0.640930
0.494718 0.783018 0.639181
0.637443 0.781280 0.637443
0.779549 0.779549 0.635712
0.921148 0.777824 0.633987
1.000000 0.776729 0.632892
0.000000 0.927007 0.639846
0.054193 0.925835 0.638674
0.200750 0.924050 0.636889
0.345393 0.922289 0.635127
0.488916 0.920540 0.633379
0.631641 0.918802 0.631641
0.773746 0.917071 0.629910
0.915346 0.915346 0.628185
1.000000 0.914251 0.627090
0.000000 1.000000 0.636163
0.050510 1.000000 0.634991
0.197067 1.000000 0.633206
0.341710 1.000000 0.631444
0.485233 1.000000 0.629696
0.627958 1.000000 0.627958
0.770063 1.000000 0.626227
0.911663 1.000000 0.624502
1.000000 1.000000 0.623407
0.000000 0.000000 0.822324
0.092834 0.000000 0.821152
0.239391 0.000000 0.819367
0.384034 0.000000 0.817605
0.527557 0.000000 0.815857
0.670282 0.000000 0.814119
0.812388 0.000000 0.812388
0.953987 0.000000 0.810663
1.000000 0.000000 0.809568
0.000000 0.090064 0.818382
0.088892 0.088892 0.817210
0.235448 0.087107 0.815425
0.380092 0.085345 0.813663
0.523615 0.083597 0.811915
0.666340 0.081858 0.810176
0.808445 0.080127 0.808445
0.950045 0.078403 0.806721
1.000000 0.077308 0.805626
0.000000 0.232400 0.812376
0.082887 0.231228 0.811205
0.229443 0.229443 0.809419
0.374087 0.227681 0.807658
0.517609 0.225933 0.805909
0.660334 0.224195 0.804171
0.802440 0.222464 0.802440
0.944040 0.220739 0.800715
1.000000 0.219644 0.799620
0.000000 0.372879 0.806450
0.076960 0.371707 0.805278
0.223516 0.369922 0.803493
0.368160 0.368160 0.801731
0.511682 0.366412 0.799983
0.654407 0.364673 0.798244
0.796513 0.362942 0.796513
0.938113 0.361218 0.794788
1.000000 0.360123 0.793694
0.000000 0.512268 0.800569
0.071079 0.511097 0.799397
0.217635 0.509311 0.797612
0.362279 0.507550 0.795850
0.505801 0.505801 0.794102
0.648526 0.504063 0.792363
0.790632 0.502332 0.790632
0.932232 0.500607 0.788907
1.000000 0.499512 0.787813
0.000000 0.650884 0.794720
0.065230 0.649712 0.793548
0.211787 0.647927 0.791763
0.356431 0.646165 0.790001
0.499953 0.644417 0.788253
0.642678 0.642678 0.786515
0.784784 0.640947 0.784784
0.926383 0.639222 0.783059
1.000000 0.638128 0.781964
0.000000 0.788897 0.788897
0.059408 0.787725 0.787725
0.205964 0.785940 0.785940
0.350608 0.784178 0.784178
0.494130 0.782430 0.782430
0.636855 0.780692 0.780692
0.778961 0.778961 0.778961
0.920561 0.777236 0.777236
1.000000 0.776141 0.776141
0.000000 0.926420 0.783095
0.053605 0.925248 0.781923
0.200162 0.923463 0.780138
0.344805 0.921701 0.778376
0.488328 0.919953 0.776628
0.631053 0.918214 0.774890
0.773159 0.916483 0.773159
0.914758 0.914758 0.771434
1.000000 0.913664 0.770339
0.000000 1.000000 0.779412
0.049922 1.000000 0.778240
0.196479 1.000000 0.776455
0.341122 1.000000 0.774693
0.484645 1.000000 0.772945
0.627370 1.000000 0.771207
0.769476 1.000000 0.769476
0.911075 1.000000 0.767751
1.000000 1.000000 0.766656
0.000000 0.000000 0.965063
0.092249 0.000000 0.963891
0.238805 0.000000 0.962106
0.383449 0.000000 0.960344
0.526971 0.000000 0.958596
0.669696 0.000000 0.956857
0.811802 0.000000 0.955126
0.953402 0.000000 0.953402
1.000000 0.000000 0.952307
0.000000 0.089478 0.961121
0.088306 0.088306 0.959949
0.234863 0.086521 0.958163
0.379506 0.084759 0.956402
0.523029 0.083011 0.954653
0.665754 0.081273 0.952915
0.807860 0.079542 0.951184
0.949459 0.077817 0.949459
1.000000 0.076722 0.948365
0.000000 0.231814 0.955115
0.082301 0.230643 0.953943
0.228857 0.228857 0.952158
0.373501 0.227096 0.950396
0.517024 0.225347 0.948648
0.659749 0.223609 0.946910
0.801854 0.221878 0.945179
0.943454 0.220153 0.943454
1.000000 0.219058 0.942359
0.000000 0.372293 0.949188
0.076374 0.371121 0.948016
0.222931 0.369336 0.946231
0.367574 0.367574 0.944469
0.511097 0.365826 0.942721
0.653822 0.364088 0.940983
0.795927 0.362357 0.939252
0.937527 0.360632 0.937527
1.000000 0.359537 0.936432
0.000000 0.511683 0.943307
0.070493 0.510511 0.942135
0.217050 0.508726 0.940350
0.361693 0.506964 0.938588
0.505216 0.505216 0.936840
0.647941 0.503477 0.935102
0.790046 0.501746 0.933371
0.931646 0.500022 0.931646
1.000000 0.498927 0.930551
0.000000 0.650298 0.937459
0.064645 0.649126 0.936287
0.211201 0.647341 0.934502
0.355845 0.645579 0.932740
0.499367 0.643831 0.930992
0.642092 0.642092 0.929253
0.784198 0.640361 0.927523
0.925798 0.638637 0.925798
1.000000 0.637542 0.924703
0.000000 0.788312 0.931636
0.058822 0.787140 0.930464
0.205378 0.785355 0.928679
0.350022 0.783593 0.926917
0.493544 0.781845 0.925169
0.636269 0.780106 0.923431
0.778375 0.778375 0.921700
0.919975 0.776650 0.919975
1.000000 0.775556 0.918880
0.000000 0.925834 0.925834
0.053020 0.924662 0.924662
0.199576 0.922877 0.922877
0.344220 0.921115 0.921115
0.487742 0.919367 0.919367
0.630467 0.917628 0.917628
0.772573 0.915897 0.915897
0.914173 0.914173 0.914173
1.000000 0.913078 0.913078
0.000000 1.000000 0.922151
0.049337 1.000000 0.920979
0.195893 1.000000 0.919194
0.340537 1.000000 0.917432
0.484059 1.000000 0.915684
0.626784 1.000000 0.913945
0.768890 1.000000 0.912214
0.910490 1.000000 0.910490
1.000000 1.000000 0.909395
0.000000 0.000000 1.000000
0.091877 0.000000 1.000000
0.238433 0.000000 1.000000
0.383077 0.000000 1.000000
0.526599 0.000000 1.000000
0.669324 0.000000 1.000000
0.811430 0.000000 1.000000
0.953030 0.000000 1.000000
1.000000 0.000000 1.000000
0.000000 0.089106 1.000000
0.087934 0.087934 1.000000
0.234491 0.086149 1.000000
0.379135 0.084388 1.000000
0.522657 0.082639 1.000000
0.665382 0.080901 1.000000
0.807488 0.079170 1.000000
0.949088 0.077445 1.000000
1.000000 0.076350 1.000000
0.000000 0.231443 1.000000
0.081929 0.230271 1.000000
0.228486 0.228486 1.000000
0.373129 0.226724 1.000000
0.516652 0.224976 1.000000
0.659377 0.223237 1.000000
0.801483 0.221506 1.000000
0.943082 0.219781 1.000000
1.000000 0.218687 1.000000
0.000000 0.371921 1.000000
0.076002 0.370749 1.000000
0.222559 0.368964 1.000000
0.367202 0.367202 1.000000
0.510725 0.365454 1.000000
0.653450 0.363716 1.000000
0.795556 0.361985 1.000000
0.937155 0.360260 1.000000
1.000000 0.359165 1.000000
0.000000 0.511311 1.000000
0.070121 0.510139 1.000000
0.216678 0.508354 1.000000
0.361321 0.506592 1.000000
0.504844 0.504844 1.000000
0.647569 0.503105 1.000000
0.789675 0.501374 1.000000
0.931274 0.499650 1.000000
1.000000 0.498555 1.000000
0.000000 0.649926 1.000000
0.064273 0.648754 1.000000
0.210829 0.646969 1.000000
0.355473 0.645207 1.000000
0.498996 0.643459 1.000000
0.641721 0.641721 1.000000
0.783826 0.639990 1.000000
0.925426 0.638265 1.000000
1.000000 0.637170 1.000000
0.000000 0.787940 1.000000
0.058450 0.786768 1.000000
0.205006 0.784983 1.000000
0.349650 0.783221 1.000000
0.493173 0.781473 1.000000
0.635898 0.779734 1.000000
0.778003 0.778003 1.000000
0.919603 0.776279 1.000000
1.000000 0.775184 1.000000
0.000000 0.925462 1.000000
0.052648 0.924290 1.000000
0.199204 0.922505 1.000000
0.343848 0.920743 1.000000
0.487370 0.918995 1.000000
0.630095 0.917256 1.000000
0.772201 0.915526 1.000000
0.913801 0.913801 1.000000
1.000000 0.912706 1.000000
0.000000 1.000000 1.000000
0.048965 1.000000 1.000000
0.195521 1.000000 1.000000
0.340165 1.000000 1.000000
0.483687 1.000000 1.000000
0.626412 1.000000 1.000000
0.768518 1.000000 1.000000
0.910118 1.000000 1.000000
1.000000 1.000000 1.000000
