assets/preview/luts/cc_4k.cube
# Recriado de uma referência do usuário (2026-08-17) medindo o vídeo.
# Filtro original: "4K" (CapCut). Curva por canal + saturação 1.06x.
TITLE "4K"
LUT_3D_SIZE 33
DOMAIN_MIN 0.0 0.0 0.0
DOMAIN_MAX 1.0 1.0 1.0
0.000000 0.000000 0.000000
0.000000 0.000000 0.000000
0.021261 0.000000 0.000000
0.058998 0.000000 0.000000
0.096209 0.000000 0.000000
0.133120 0.000000 0.000000
0.169821 0.000000 0.000000
0.206359 0.000000 0.000000
0.242765 0.000000 0.000000
0.279060 0.000000 0.000000
0.315258 0.000000 0.000000
0.351371 0.000000 0.000000
0.387409 0.000000 0.000000
0.423378 0.000000 0.000000
0.459285 0.000000 0.000000
0.495135 0.000000 0.000000
0.530931 0.000000 0.000000
0.566679 0.000000 0.000000
0.602380 0.000000 0.000000
0.638039 0.000000 0.000000
0.673656 0.000000 0.000000
0.709236 0.000000 0.000000
0.744779 0.000000 0.000000
0.780287 0.000000 0.000000
0.815762 0.000000 0.000000
0.851206 0.000000 0.000000
0.886620 0.000000 0.000000
0.922005 0.000000 0.000000
0.957362 0.000000 0.000000
0.992692 0.000000 0.000000
1.000000 0.000000 0.000000
1.000000 0.000000 0.000000
1.000000 0.000000 0.000000
0.000000 0.000000 0.000000
0.000000 0.000000 0.000000
0.021261 0.000000 0.000000
0.058998 0.000000 0.000000
0.096209 0.000000 0.000000
0.133120 0.000000 0.000000
0.169821 0.000000 0.000000
0.206359 0.000000 0.000000
0.242765 0.000000 0.000000
0.279060 0.000000 0.000000
0.315258 0.000000 0.000000
0.351371 0.000000 0.000000
0.387409 0.000000 0.000000
0.423378 0.000000 0.000000
0.459285 0.000000 0.000000
0.495135 0.000000 0.000000
0.530931 0.000000 0.000000
0.566679 0.000000 0.000000
0.602380 0.000000 0.000000
0.638039 0.000000 0.000000
0.673656 0.000000 0.000000
0.709236 0.000000 0.000000
0.744779 0.000000 0.000000
0.780287 0.000000 0.000000
0.815762 0.000000 0.000000
0.851206 0.000000 0.000000
0.886620 0.000000 0.000000
0.922005 0.000000 0.000000
0.957362 0.000000 0.000000
0.992692 0.000000 0.000000
1.000000 0.000000 0.000000
1.000000 0.000000 0.000000
1.000000 0.000000 0.000000
0.000000 0.020648 0.000000
0.000000 0.020648 0.000000
0.020389 0.020389 0.000000
0.058127 0.019930 0.000000
0.095338 0.019476 0.000000
0.132249 0.019027 0.000000
0.168950 0.018580 0.000000
0.205488 0.018135 0.000000
0.241894 0.017691 0.000000
0.278189 0.017249 0.000000
0.314387 0.016808 0.000000
0.350500 0.016368 0.000000
0.386538 0.015930 0.000000
0.422507 0.015491 0.000000
0.458414 0.015054 0.000000
0.494264 0.014617 0.000000
0.530060 0.014181 0.000000
0.565808 0.013746 0.000000
0.601509 0.013311 0.000000
0.637168 0.012877 0.000000
0.672785 0.012443 0.000000
0.708364 0.012009 0.000000
0.743907 0.011577 0.000000
0.779416 0.011144 0.000000
0.814891 0.010712 0.000000
0.850335 0.010280 0.000000
0.885749 0.009849 0.000000
0.921133 0.009418 0.000000
0.956491 0.008987 0.000000
0.991821 0.008557 0.000000
1.000000 0.008127 0.000000
1.000000 0.007892 0.000000
1.000000 0.007892 0.000000
0.000000 0.057299 0.000000
0.000000 0.057299 0.000000
0.018843 0.057040 0.000000
0.056581 0.056581 0.000000
0.093791 0.056127 0.000000
0.130703 0.055678 0.000000
0.167403 0.055231 0.000000
0.203942 0.054786 0.000000
0.240348 0.054342 0.000000
0.276642 0.053900 0.000000
0.312840 0.053459 0.000000
0.348954 0.053019 0.000000
0.384991 0.052580 0.000000
0.420961 0.052142 0.000000
0.456868 0.051705 0.000000
0.492717 0.051268 0.000000
0.528514 0.050832 0.000000
0.564261 0.050397 0.000000
0.599963 0.049962 0.000000
0.635621 0.049528 0.000000
0.671239 0.049094 0.000000
0.706818 0.048660 0.000000
0.742361 0.048227 0.000000
0.777869 0.047795 0.000000
0.813345 0.047363 0.000000
0.848788 0.046931 0.000000
0.884202 0.046500 0.000000
0.919587 0.046069 0.000000
0.954944 0.045638 0.000000
0.990275 0.045208 0.000000
1.000000 0.044778 0.000000
1.000000 0.044543 0.000000
1.000000 0.044543 0.000000
0.000000 0.093438 0.000000
0.000000 0.093438 0.000000
0.017318 0.093179 0.000000
0.055056 0.092720 0.000000
0.092266 0.092266 0.000000
0.129178 0.091817 0.000000
0.165879 0.091370 0.000000
0.202417 0.090925 0.000000
0.238823 0.090481 0.000000
0.275117 0.090039 0.000000
0.311316 0.089598 0.000000
0.347429 0.089158 0.000000
0.383467 0.088720 0.000000
0.419436 0.088281 0.000000
0.455343 0.087844 0.000000
0.491192 0.087407 0.000000
0.526989 0.086971 0.000000
0.562737 0.086536 0.000000
0.598438 0.086101 0.000000
0.634096 0.085667 0.000000
0.669714 0.085233 0.000000
0.705293 0.084800 0.000000
0.740836 0.084367 0.000000
0.776345 0.083934 0.000000
0.811820 0.083502 0.000000
0.847264 0.083070 0.000000
0.882677 0.082639 0.000000
0.918062 0.082208 0.000000
0.953420 0.081777 0.000000
0.988750 0.081347 0.000000
1.000000 0.080917 0.000000
1.000000 0.080682 0.000000
1.000000 0.080682 0.000000
0.000000 0.129287 0.000000
0.000000 0.129287 0.000000
0.015806 0.129028 0.000000
0.053543 0.128568 0.000000
0.090754 0.128115 0.000000
0.127665 0.127665 0.000000
0.164366 0.127218 0.000000
0.200904 0.126773 0.000000
0.237310 0.126330 0.000000
0.273605 0.125888 0.000000
0.309803 0.125447 0.000000
0.345917 0.125007 0.000000
0.381954 0.124568 0.000000
0.417923 0.124130 0.000000
0.453830 0.123692 0.000000
0.489680 0.123256 0.000000
0.525477 0.122820 0.000000
0.561224 0.122384 0.000000
0.596926 0.121949 0.000000
0.632584 0.121515 0.000000
0.668202 0.121081 0.000000
0.703781 0.120648 0.000000
0.739324 0.120215 0.000000
0.774832 0.119782 0.000000
0.810307 0.119350 0.000000
0.845751 0.118919 0.000000
0.881165 0.118487 0.000000
0.916550 0.118056 0.000000
0.951907 0.117626 0.000000
0.987238 0.117195 0.000000
1.000000 0.116765 0.000000
1.000000 0.116531 0.000000
1.000000 0.116531 0.000000
0.000000 0.164931 0.000000
0.000000 0.164931 0.000000
0.014302 0.164672 0.000000
0.052040 0.164212 0.000000
0.089250 0.163759 0.000000
0.126161 0.163309 0.000000
0.162862 0.162862 0.000000
0.199401 0.162417 0.000000
0.235807 0.161974 0.000000
0.272101 0.161532 0.000000
0.308299 0.161091 0.000000
0.344413 0.160651 0.000000
0.380450 0.160212 0.000000
0.416420 0.159774 0.000000
0.452326 0.159336 0.000000
0.488176 0.158900 0.000000
0.523973 0.158464 0.000000
0.559720 0.158028 0.000000
0.595422 0.157593 0.000000
0.631080 0.157159 0.000000
0.666698 0.156725 0.000000
0.702277 0.156292 0.000000
0.737820 0.155859 0.000000
0.773328 0.155426 0.000000
0.808804 0.154994 0.000000
0.844247 0.154563 0.000000
0.879661 0.154131 0.000000
0.915046 0.153700 0.000000
0.950403 0.153270 0.000000
0.985734 0.152839 0.000000
1.000000 0.152409 0.000000
1.000000 0.152175 0.000000
1.000000 0.152175 0.000000
0.000000 0.200417 0.000000
0.000000 0.200417 0.000000
0.012805 0.200158 0.000000
0.050542 0.199698 0.000000
0.087753 0.199245 0.000000
0.124664 0.198795 0.000000
0.161365 0.198348 0.000000
0.197903 0.197903 0.000000
0.234309 0.197460 0.000000
0.270604 0.197018 0.000000
0.306802 0.196577 0.000000
0.342915 0.196137 0.000000
0.378953 0.195698 0.000000
0.414922 0.195260 0.000000
0.450829 0.194823 0.000000
0.486679 0.194386 0.000000
0.522476 0.193950 0.000000
0.558223 0.193514 0.000000
0.593925 0.193080 0.000000
0.629583 0.192645 0.000000
0.665201 0.192211 0.000000
0.700780 0.191778 0.000000
0.736323 0.191345 0.000000
0.771831 0.190913 0.000000
0.807306 0.190481 0.000000
0.842750 0.190049 0.000000
0.878164 0.189617 0.000000
0.913549 0.189186 0.000000
0.948906 0.188756 0.000000
0.984237 0.188325 0.000000
1.000000 0.187895 0.000000
1.000000 0.187661 0.000000
1.000000 0.187661 0.000000
0.000000 0.235775 0.000000
0.000000 0.235775 0.000000
0.011313 0.235516 0.000000
0.049051 0.235056 0.000000
0.086261 0.234603 0.000000
0.123172 0.234153 0.000000
0.159873 0.233706 0.000000
0.196412 0.233261 0.000000
0.232818 0.232818 0.000000
0.269112 0.232376 0.000000
0.305310 0.231935 0.000000
0.341424 0.231495 0.000000
0.377461 0.231056 0.000000
0.413431 0.230618 0.000000
0.449337 0.230180 0.000000
0.485187 0.229744 0.000000
0.520984 0.229308 0.000000
0.556731 0.228872 0.000000
0.592433 0.228437 0.000000
0.628091 0.228003 0.000000
0.663709 0.227569 0.000000
0.699288 0.227136 0.000000
0.734831 0.226703 0.000000
0.770339 0.226270 0.000000
0.805815 0.225838 0.000000
0.841258 0.225406 0.000000
0.876672 0.224975 0.000000
0.912057 0.224544 0.000000
0.947414 0.224113 0.000000
0.982745 0.223683 0.000000
1.000000 0.223253 0.000000
1.000000 0.223019 0.000000
1.000000 0.223019 0.000000
0.000000 0.271024 0.000000
0.000000 0.271024 0.000000
0.009826 0.270765 0.000000
0.047563 0.270305 0.000000
0.084774 0.269852 0.000000
0.121685 0.269403 0.000000
0.158386 0.268956 0.000000
0.194924 0.268510 0.000000
0.231330 0.268067 0.000000
0.267625 0.267625 0.000000
0.303823 0.267184 0.000000
0.339936 0.266744 0.000000
0.375974 0.266305 0.000000
0.411943 0.265867 0.000000
0.447850 0.265430 0.000000
0.483700 0.264993 0.000000
0.519497 0.264557 0.000000
0.555244 0.264122 0.000000
0.590946 0.263687 0.000000
0.626604 0.263252 0.000000
0.662222 0.262819 0.000000
0.697801 0.262385 0.000000
0.733344 0.261952 0.000000
0.768852 0.261520 0.000000
0.804327 0.261088 0.000000
0.839771 0.260656 0.000000
0.875185 0.260225 0.000000
0.910570 0.259794 0.000000
0.945927 0.259363 0.000000
0.981258 0.258933 0.000000
1.000000 0.258502 0.000000
1.000000 0.258268 0.000000
1.000000 0.258268 0.000000
0.000000 0.306180 0.000000
0.000000 0.306180 0.000000
0.008343 0.305921 0.000000
0.046080 0.305461 0.000000
0.083291 0.305008 0.000000
0.120202 0.304558 0.000000
0.156903 0.304111 0.000000
0.193441 0.303666 0.000000
0.229847 0.303223 0.000000
0.266142 0.302781 0.000000
0.302340 0.302340 0.000000
0.338453 0.301900 0.000000
0.374491 0.301461 0.000000
0.410460 0.301023 0.000000
0.446367 0.300586 0.000000
0.482217 0.300149 0.000000
0.518013 0.299713 0.000000
0.553761 0.299277 0.000000
0.589462 0.298843 0.000000
0.625121 0.298408 0.000000
0.660738 0.297974 0.000000
0.696318 0.297541 0.000000
0.731860 0.297108 0.000000
0.767369 0.296676 0.000000
0.802844 0.296243 0.000000
0.838288 0.295812 0.000000
0.873702 0.295380 0.000000
0.909087 0.294949 0.000000
0.944444 0.294519 0.000000
0.979774 0.294088 0.000000
1.000000 0.293658 0.000000
1.000000 0.293424 0.000000
1.000000 0.293424 0.000000
0.000000 0.341253 0.000000
0.000000 0.341253 0.000000
0.006863 0.340994 0.000000
0.044600 0.340535 0.000000
0.081811 0.340081 0.000000
0.118722 0.339632 0.000000
0.155423 0.339185 0.000000
0.191961 0.338740 0.000000
0.228367 0.338296 0.000000
0.264662 0.337854 0.000000
0.300860 0.337413 0.000000
0.336973 0.336973 0.000000
0.373011 0.336534 0.000000
0.408980 0.336096 0.000000
0.444887 0.335659 0.000000
0.480737 0.335222 0.000000
0.516534 0.334786 0.000000
0.552281 0.334351 0.000000
0.587983 0.333916 0.000000
0.623641 0.333482 0.000000
0.659259 0.333048 0.000000
0.694838 0.332614 0.000000
0.730381 0.332182 0.000000
0.765889 0.331749 0.000000
0.801364 0.331317 0.000000
0.836808 0.330885 0.000000
0.872222 0.330454 0.000000
0.907607 0.330023 0.000000
0.942964 0.329592 0.000000
0.978295 0.329162 0.000000
1.000000 0.328732 0.000000
1.000000 0.328497 0.000000
1.000000 0.328497 0.000000
0.000000 0.376253 0.000000
0.000000 0.376253 0.000000
0.005386 0.375994 0.000000
0.043124 0.375535 0.000000
0.080334 0.375081 0.000000
0.117246 0.374632 0.000000
0.153946 0.374185 0.000000
0.190485 0.373740 0.000000
0.226891 0.373296 0.000000
0.263185 0.372854 0.000000
0.299383 0.372413 0.000000
0.335497 0.371973 0.000000
0.371534 0.371534 0.000000
0.407504 0.371096 0.000000
0.443411 0.370659 0.000000
0.479260 0.370222 0.000000
0.515057 0.369786 0.000000
0.550804 0.369351 0.000000
0.586506 0.368916 0.000000
0.622164 0.368482 0.000000
0.657782 0.368048 0.000000
0.693361 0.367614 0.000000
0.728904 0.367181 0.000000
0.764412 0.366749 0.000000
0.799888 0.366317 0.000000
0.835331 0.365885 0.000000
0.870745 0.365454 0.000000
0.906130 0.365023 0.000000
0.941487 0.364592 0.000000
0.976818 0.364162 0.000000
1.000000 0.363732 0.000000
1.000000 0.363497 0.000000
1.000000 0.363497 0.000000
0.000000 0.411187 0.000000
0.000000 0.411187 0.000000
0.003912 0.410928 0.000000
0.041650 0.410468 0.000000
0.078860 0.410015 0.000000
0.115772 0.409565 0.000000
0.152472 0.409118 0.000000
0.189011 0.408673 0.000000
0.225417 0.408230 0.000000
0.261711 0.407788 0.000000
0.297910 0.407347 0.000000
0.334023 0.406907 0.000000
0.370061 0.406468 0.000000
0.406030 0.406030 0.000000
0.441937 0.405592 0.000000
0.477786 0.405156 0.000000
0.513583 0.404720 0.000000
0.549330 0.404284 0.000000
0.585032 0.403849 0.000000
0.620690 0.403415 0.000000
0.656308 0.402981 0.000000
0.691887 0.402548 0.000000
0.727430 0.402115 0.000000
0.762938 0.401682 0.000000
0.798414 0.401250 0.000000
0.833858 0.400819 0.000000
0.869271 0.400387 0.000000
0.904656 0.399956 0.000000
0.940013 0.399526 0.000000
0.975344 0.399095 0.000000
1.000000 0.398665 0.000000
1.000000 0.398431 0.000000
1.000000 0.398431 0.000000
0.000000 0.446060 0.000000
0.000000 0.446060 0.000000
0.002441 0.445801 0.000000
0.040178 0.445341 0.000000
0.077389 0.444888 0.000000
0.114300 0.444438 0.000000
0.151001 0.443991 0.000000
0.187539 0.443546 0.000000
0.223945 0.443103 0.000000
0.260240 0.442661 0.000000
0.296438 0.442220 0.000000
0.332552 0.441780 0.000000
0.368589 0.441341 0.000000
0.404558 0.440903 0.000000
0.440465 0.440465 0.000000
0.476315 0.440029 0.000000
0.512112 0.439593 0.000000
0.547859 0.439157 0.000000
0.583561 0.438722 0.000000
0.619219 0.438288 0.000000
0.654837 0.437854 0.000000
0.690416 0.437421 0.000000
0.725959 0.436988 0.000000
0.761467 0.436555 0.000000
0.796942 0.436123 0.000000
0.832386 0.435692 0.000000
0.867800 0.435260 0.000000
0.903185 0.434829 0.000000
0.938542 0.434398 0.000000
0.973873 0.433968 0.000000
1.000000 0.433538 0.000000
1.000000 0.433304 0.000000
1.000000 0.433304 0.000000
0.000000 0.480877 0.000000
0.000000 0.480877 0.000000
0.000972 0.480618 0.000000
0.038709 0.480158 0.000000
0.075920 0.479705 0.000000
0.112831 0.479256 0.000000
0.149532 0.478808 0.000000
0.186070 0.478363 0.000000
0.222477 0.477920 0.000000
0.258771 0.477478 0.000000
0.294969 0.477037 0.000000
0.331083 0.476597 0.000000
0.367120 0.476158 0.000000
0.403089 0.475720 0.000000
0.438996 0.475283 0.000000
0.474846 0.474846 0.000000
0.510643 0.474410 0.000000
0.546390 0.473975 0.000000
0.582092 0.473540 0.000000
0.617750 0.473105 0.000000
0.653368 0.472671 0.000000
0.688947 0.472238 0.000000
0.724490 0.471805 0.000000
0.759998 0.471373 0.000000
0.795473 0.470941 0.000000
0.830917 0.470509 0.000000
0.866331 0.470077 0.000000
0.901716 0.469646 0.000000
0.937073 0.469216 0.000000
0.972404 0.468785 0.000000
1.000000 0.468355 0.000000
1.000000 0.468121 0.000000
1.000000 0.468121 0.000000
0.000000 0.515643 0.000000
0.000000 0.515643 0.000000
0.000000 0.515384 0.000000
0.037243 0.514924 0.000000
0.074453 0.514471 0.000000
0.111365 0.514021 0.000000
0.148065 0.513574 0.000000
0.184604 0.513129 0.000000
0.221010 0.512686 0.000000
0.257304 0.512244 0.000000
0.293502 0.511803 0.000000
0.329616 0.511363 0.000000
0.365653 0.510924 0.000000
0.401623 0.510486 0.000000
0.437530 0.510049 0.000000
0.473379 0.509612 0.000000
0.509176 0.509176 0.000000
0.544923 0.508740 0.000000
0.580625 0.508306 0.000000
0.616283 0.507871 0.000000
0.651901 0.507437 0.000000
0.687480 0.507004 0.000000
0.723023 0.506571 0.000000
0.758531 0.506139 0.000000
0.794007 0.505706 0.000000
0.829450 0.505275 0.000000
0.864864 0.504843 0.000000
0.900249 0.504412 0.000000
0.935606 0.503982 0.000000
0.970937 0.503551 0.000000
1.000000 0.503121 0.000000
1.000000 0.502887 0.000000
1.000000 0.502887 0.000000
0.000000 0.550361 0.000000
0.000000 0.550361 0.000000
0.000000 0.550102 0.000000
0.035778 0.549642 0.000000
0.072988 0.549189 0.000000
0.109900 0.548740 0.000000
0.146601 0.548293 0.000000
0.183139 0.547847 0.000000
0.219545 0.547404 0.000000
0.255839 0.546962 0.000000
0.292038 0.546521 0.000000
0.328151 0.546081 0.000000
0.364189 0.545642 0.000000
0.400158 0.545204 0.000000
0.436065 0.544767 0.000000
0.471914 0.544330 0.000000
0.507711 0.543894 0.000000
0.543459 0.543459 0.000000
0.579160 0.543024 0.000000
0.614818 0.542589 0.000000
0.650436 0.542156 0.000000
0.686015 0.541722 0.000000
0.721558 0.541289 0.000000
0.757066 0.540857 0.000000
0.792542 0.540425 0.000000
0.827986 0.539993 0.000000
0.863399 0.539562 0.000000
0.898784 0.539131 0.000000
0.934141 0.538700 0.000000
0.969472 0.538269 0.000000
1.000000 0.537839 0.000000
1.000000 0.537605 0.000000
1.000000 0.537605 0.000000
0.000000 0.585034 0.000000
0.000000 0.585034 0.000000
0.000000 0.584775 0.000000
0.034315 0.584316 0.000000
0.071526 0.583863 0.000000
0.108437 0.583413 0.000000
0.145138 0.582966 0.000000
0.181676 0.582521 0.000000
0.218082 0.582077 0.000000
0.254377 0.581635 0.000000
0.290575 0.581194 0.000000
0.326688 0.580755 0.000000
0.362726 0.580316 0.000000
0.398695 0.579877 0.000000
0.434602 0.579440 0.000000
0.470451 0.579003 0.000000
0.506248 0.578567 0.000000
0.541996 0.578132 0.000000
0.577697 0.577697 0.000000
0.613355 0.577263 0.000000
0.648973 0.576829 0.000000
0.684552 0.576396 0.000000
0.720095 0.575963 0.000000
0.755604 0.575530 0.000000
0.791079 0.575098 0.000000
0.826523 0.574666 0.000000
0.861936 0.574235 0.000000
0.897321 0.573804 0.000000
0.932679 0.573373 0.000000
0.968009 0.572943 0.000000
1.000000 0.572513 0.000000
1.000000 0.572278 0.000000
1.000000 0.572278 0.000000
0.000000 0.619666 0.000000
0.000000 0.619666 0.000000
0.000000 0.619407 0.000000
0.032854 0.618947 0.000000
0.070064 0.618494 0.000000
0.106976 0.618045 0.000000
0.143676 0.617597 0.000000
0.180215 0.617152 0.000000
0.216621 0.616709 0.000000
0.252915 0.616267 0.000000
0.289114 0.615826 0.000000
0.325227 0.615386 0.000000
0.361265 0.614947 0.000000
0.397234 0.614509 0.000000
0.433141 0.614072 0.000000
0.468990 0.613635 0.000000
0.504787 0.613199 0.000000
0.540535 0.612764 0.000000
0.576236 0.612329 0.000000
0.611894 0.611894 0.000000
0.647512 0.611460 0.000000
0.683091 0.611027 0.000000
0.718634 0.610594 0.000000
0.754142 0.610162 0.000000
0.789618 0.609730 0.000000
0.825062 0.609298 0.000000
0.860475 0.608866 0.000000
0.895860 0.608435 0.000000
0.931217 0.608005 0.000000
0.966548 0.607574 0.000000
1.000000 0.607144 0.000000
1.000000 0.606910 0.000000
1.000000 0.606910 0.000000
0.000000 0.654258 0.000000
0.000000 0.654258 0.000000
0.000000 0.653999 0.000000
0.031394 0.653539 0.000000
0.068605 0.653086 0.000000
0.105516 0.652637 0.000000
0.142217 0.652190 0.000000
0.178755 0.651744 0.000000
0.215161 0.651301 0.000000
0.251456 0.650859 0.000000
0.287654 0.650418 0.000000
0.323767 0.649978 0.000000
0.359805 0.649539 0.000000
0.395774 0.649101 0.000000
0.431681 0.648664 0.000000
0.467531 0.648227 0.000000
0.503328 0.647791 0.000000
0.539075 0.647356 0.000000
0.574777 0.646921 0.000000
0.610435 0.646486 0.000000
0.646053 0.646053 0.000000
0.681632 0.645619 0.000000
0.717175 0.645186 0.000000
0.752683 0.644754 0.000000
0.788158 0.644322 0.000000
0.823602 0.643890 0.000000
0.859016 0.643459 0.000000
0.894401 0.643028 0.000000
0.929758 0.642597 0.000000
0.965089 0.642167 0.000000
1.000000 0.641736 0.000000
1.000000 0.641502 0.000000
1.000000 0.641502 0.000000
0.000000 0.688813 0.000000
0.000000 0.688813 0.000000
0.000000 0.688554 0.000000
0.029936 0.688094 0.000000
0.067147 0.687641 0.000000
0.104058 0.687191 0.000000
0.140759 0.686744 0.000000
0.177297 0.686299 0.000000
0.213703 0.685856 0.000000
0.249998 0.685414 0.000000
0.286196 0.684973 0.000000
0.322310 0.684533 0.000000
0.358347 0.684094 0.000000
0.394316 0.683656 0.000000
0.430223 0.683218 0.000000
0.466073 0.682782 0.000000
0.501870 0.682346 0.000000
0.537617 0.681910 0.000000
0.573319 0.681475 0.000000
0.608977 0.681041 0.000000
0.644595 0.680607 0.000000
0.680174 0.680174 0.000000
0.715717 0.679741 0.000000
0.751225 0.679308 0.000000
0.786700 0.678876 0.000000
0.822144 0.678445 0.000000
0.857558 0.678013 0.000000
0.892943 0.677582 0.000000
0.928300 0.677152 0.000000
0.963631 0.676721 0.000000
0.998936 0.676291 0.000000
1.000000 0.676057 0.000000
1.000000 0.676057 0.000000
0.000000 0.723332 0.000000
0.000000 0.723332 0.000000
0.000000 0.723073 0.000000
0.028480 0.722614 0.000000
0.065691 0.722160 0.000000
0.102602 0.721711 0.000000
0.139303 0.721264 0.000000
0.175841 0.720819 0.000000
0.212247 0.720375 0.000000
0.248542 0.719933 0.000000
0.284740 0.719492 0.000000
0.320853 0.719052 0.000000
0.356891 0.718613 0.000000
0.392860 0.718175 0.000000
0.428767 0.717738 0.000000
0.464617 0.717301 0.000000
0.500413 0.716865 0.000000
0.536161 0.716430 0.000000
0.571862 0.715995 0.000000
0.607521 0.715561 0.000000
0.643138 0.715127 0.000000
0.678718 0.714693 0.000000
0.714260 0.714260 0.000000
0.749769 0.713828 0.000000
0.785244 0.713396 0.000000
0.820688 0.712964 0.000000
0.856102 0.712533 0.000000
0.891486 0.712102 0.000000
0.926844 0.711671 0.000000
0.962174 0.711241 0.000000
0.997479 0.710811 0.000000
1.000000 0.710576 0.000000
1.000000 0.710576 0.000000
0.000000 0.757818 0.000000
0.000000 0.757818 0.000000
0.000000 0.757559 0.000000
0.027025 0.757099 0.000000
0.064236 0.756646 0.000000
0.101147 0.756196 0.000000
0.137848 0.755749 0.000000
0.174386 0.755304 0.000000
0.210792 0.754861 0.000000
0.247087 0.754419 0.000000
0.283285 0.753978 0.000000
0.319398 0.753538 0.000000
0.355436 0.753099 0.000000
0.391405 0.752661 0.000000
0.427312 0.752224 0.000000
0.463162 0.751787 0.000000
0.498958 0.751351 0.000000
0.534706 0.750916 0.000000
0.570407 0.750481 0.000000
0.606066 0.750046 0.000000
0.641683 0.749612 0.000000
0.677263 0.749179 0.000000
0.712805 0.748746 0.000000
0.748314 0.748314 0.000000
0.783789 0.747882 0.000000
0.819233 0.747450 0.000000
0.854647 0.747018 0.000000
0.890031 0.746587 0.000000
0.925389 0.746157 0.000000
0.960719 0.745726 0.000000
0.996024 0.745296 0.000000
1.000000 0.745062 0.000000
1.000000 0.745062 0.000000
0.000000 0.792272 0.000000
0.000000 0.792272 0.000000
0.000000 0.792013 0.000000
0.025571 0.791553 0.000000
0.062782 0.791100 0.000000
0.099693 0.790650 0.000000
0.136394 0.790203 0.000000
0.172932 0.789758 0.000000
0.209338 0.789315 0.000000
0.245633 0.788873 0.000000
0.281831 0.788432 0.000000
0.317945 0.787992 0.000000
0.353982 0.787553 0.000000
0.389951 0.787115 0.000000
0.425858 0.786677 0.000000
0.461708 0.786241 0.000000
0.497505 0.785805 0.000000
0.533252 0.785369 0.000000
0.568954 0.784934 0.000000
0.604612 0.784500 0.000000
0.640230 0.784066 0.000000
0.675809 0.783633 0.000000
0.711352 0.783200 0.000000
0.746860 0.782767 0.000000
0.782335 0.782335 0.000000
0.817779 0.781904 0.000000
0.853193 0.781472 0.000000
0.888578 0.781041 0.000000
0.923935 0.780611 0.000000
0.959266 0.780180 0.000000
0.994570 0.779750 0.000000
1.000000 0.779516 0.000000
1.000000 0.779516 0.000000
0.000000 0.826695 0.000000
0.000000 0.826695 0.000000
0.000000 0.826436 0.000000
0.024119 0.825976 0.000000
0.061330 0.825523 0.000000
0.098241 0.825074 0.000000
0.134942 0.824626 0.000000
0.171480 0.824181 0.000000
0.207886 0.823738 0.000000
0.244181 0.823296 0.000000
0.280379 0.822855 0.000000
0.316492 0.822415 0.000000
0.352530 0.821976 0.000000
0.388499 0.821538 0.000000
0.424406 0.821101 0.000000
0.460256 0.820664 0.000000
0.496052 0.820228 0.000000
0.531800 0.819793 0.000000
0.567501 0.819358 0.000000
0.603160 0.818923 0.000000
0.638777 0.818489 0.000000
0.674357 0.818056 0.000000
0.709899 0.817623 0.000000
0.745408 0.817191 0.000000
0.780883 0.816759 0.000000
0.816327 0.816327 0.000000
0.851741 0.815895 0.000000
0.887125 0.815464 0.000000
0.922483 0.815034 0.000000
0.957813 0.814603 0.000000
0.993118 0.814173 0.000000
1.000000 0.813939 0.000000
1.000000 0.813939 0.000000
0.000000 0.861089 0.000000
0.000000 0.861089 0.000000
0.000000 0.860830 0.000000
0.022668 0.860370 0.000000
0.059879 0.859917 0.000000
0.096790 0.859467 0.000000
0.133491 0.859020 0.000000
0.170029 0.858575 0.000000
0.206435 0.858132 0.000000
0.242730 0.857690 0.000000
0.278928 0.857249 0.000000
0.315041 0.856809 0.000000
0.351079 0.856370 0.000000
0.387048 0.855932 0.000000
0.422955 0.855495 0.000000
0.458804 0.855058 0.000000
0.494601 0.854622 0.000000
0.530349 0.854187 0.000000
0.566050 0.853752 0.000000
0.601708 0.853317 0.000000
0.637326 0.852883 0.000000
0.672905 0.852450 0.000000
0.708448 0.852017 0.000000
