assets/preview/luts/cc_4k.cube
# Recriado de uma referência do usuário (2026-08-17) medindo o vídeo.
# Filtro original: "4K" (CapCut). Curva por canal + saturação 1.06x.
TITLE "4K"
LUT_3D_SIZE 5
DOMAIN_MIN 0.0 0.0 0.0
DOMAIN_MAX 1.0 1.0 1.0
0.000000 0.000000 0.000000
0.242765 0.000000 0.000000
0.530931 0.000000 0.000000
0.815762 0.000000 0.000000
1.000000 0.000000 0.000000
0.000000 0.235775 0.000000
0.232818 0.232818 0.000000
0.520984 0.229308 0.000000
0.805815 0.225838 0.000000
1.000000 0.223019 0.000000
0.000000 0.515643 0.000000
0.221010 0.512686 0.000000
0.509176 0.509176 0.000000
0.794007 0.505706 0.000000
1.000000 0.502887 0.000000
0.000000 0.792272 0.000000
0.209338 0.789315 0.000000
0.497505 0.785805 0.000000
0.782335 0.782335 0.000000
1.000000 0.779516 0.000000
0.000000 1.000000 0.000000
0.199853 1.000000 0.000000
0.488019 1.000000 0.000000
0.772850 1.000000 0.000000
1.000000 1.000000 0.000000
0.000000 0.000000 0.244718
0.241761 0.000000 0.241761
0.529927 0.000000 0.238251
0.814758 0.000000 0.234782
1.000000 0.000000 0.231962
0.000000 0.234770 0.234770
0.231813 0.231813 0.231813
0.519980 0.228303 0.228303
0.804810 0.224834 0.224834
1.000000 0.222014 0.222014
0.000000 0.514639 0.222962
0.220005 0.511682 0.220005
0.508172 0.508172 0.216495
0.793002 0.504702 0.213026
1.000000 0.501883 0.210206
0.000000 0.791268 0.211291
0.208334 0.788311 0.208334
0.496500 0.784801 0.204824
0.781331 0.781331 0.201355
1.000000 0.778512 0.198535
0.000000 1.000000 0.201806
0.198849 1.000000 0.198849
0.487015 1.000000 0.195339
0.771846 1.000000 0.191870
1.000000 1.000000 0.189050
0.000000 0.000000 0.535202
0.240569 0.000000 0.532245
0.528735 0.000000 0.528735
0.813566 0.000000 0.525266
1.000000 0.000000 0.522446
0.000000 0.233578 0.525255
0.230621 0.230621 0.522298
0.518788 0.227111 0.518788
0.803618 0.223642 0.515318
1.000000 0.220822 0.512499
0.000000 0.513447 0.513447
0.218813 0.510490 0.510490
0.506980 0.506980 0.506980
0.791810 0.503510 0.503510
1.000000 0.500691 0.500691
0.000000 0.790076 0.501775
0.207142 0.787119 0.498818
0.495308 0.783608 0.495308
0.780139 0.780139 0.491839
1.000000 0.777320 0.489019
0.000000 1.000000 0.492290
0.197657 1.000000 0.489333
0.485823 1.000000 0.485823
0.770654 1.000000 0.482354
1.000000 1.000000 0.479534
0.000000 0.000000 0.822324
0.239391 0.000000 0.819367
0.527557 0.000000 0.815857
0.812388 0.000000 0.812388
1.000000 0.000000 0.809568
0.000000 0.232400 0.812376
0.229443 0.229443 0.809419
0.517609 0.225933 0.805909
0.802440 0.222464 0.802440
1.000000 0.219644 0.799620
0.000000 0.512268 0.800569
0.217635 0.509311 0.797612
0.505801 0.505801 0.794102
0.790632 0.502332 0.790632
1.000000 0.499512 0.787813
0.000000 0.788897 0.788897
0.205964 0.785940 0.785940
0.494130 0.782430 0.782430
0.778961 0.778961 0.778961
1.000000 0.776141 0.776141
0.000000 1.000000 0.779412
0.196479 1.000000 0.776455
0.484645 1.000000 0.772945
0.769476 1.000000 0.769476
1.000000 1.000000 0.766656
0.000000 0.000000 1.000000
0.238433 0.000000 1.000000
0.526599 0.000000 1.000000
0.811430 0.000000 1.000000
1.000000 0.000000 1.000000
0.000000 0.231443 1.000000
0.228486 0.228486 1.000000
0.516652 0.224976 1.000000
0.801483 0.221506 1.000000
1.000000 0.218687 1.000000
0.000000 0.511311 1.000000
0.216678 0.508354 1.000000
0.504844 0.504844 1.000000
0.789675 0.501374 1.000000
1.000000 0.498555 1.000000
0.000000 0.787940 1.000000
0.205006 0.784983 1.000000
0.493173 0.781473 1.000000
0.778003 0.778003 1.000000
1.000000 0.775184 1.000000
0.000000 1.000000 1.000000
0.195521 1.000000 1.000000
0.483687 1.000000 1.000000
0.768518 1.000000 1.000000
1.000000 1.000000 1.000000
