assets/preview/luts/cc_bokeh.cube
# Recriado de uma referência do usuário (2026-08-17) medindo o vídeo.
# Filtro original: "Bokeh" (CapCut). Curva por canal + saturação 0.87x.
TITLE "Bokeh"
LUT_3D_SIZE 33
DOMAIN_MIN 0.0 0.0 0.0
DOMAIN_MAX 1.0 1.0 1.0
0.003872 0.000123 0.000123
0.020263 0.000645 0.000645
0.037677 0.001199 0.001199
0.057391 0.001826 0.001826
0.081035 0.002579 0.002579
0.103206 0.003284 0.003284
0.126211 0.004016 0.004016
0.144832 0.004609 0.004609
0.163588 0.005206 0.005206
0.188478 0.005998 0.005998
0.211890 0.006743 0.006743
0.240636 0.007657 0.007657
0.261829 0.008332 0.008332
0.292795 0.009317 0.009317
0.327992 0.010437 0.010437
0.352759 0.011225 0.011225
0.377357 0.012008 0.012008
0.417668 0.013291 0.013291
0.451869 0.014379 0.014379
0.482507 0.015354 0.015354
0.512589 0.016311 0.016311
0.545275 0.017352 0.017352
0.577668 0.018382 0.018382
0.606758 0.019308 0.019308
0.635720 0.020230 0.020230
0.666107 0.021197 0.021197
0.693685 0.022074 0.022074
0.723936 0.023037 0.023037
0.756966 0.024088 0.024088
0.813893 0.025899 0.025899
0.860255 0.027375 0.027375
0.878284 0.027949 0.027949
0.894569 0.028467 0.028467
0.005182 0.013280 0.001433
0.021573 0.013801 0.001955
0.038987 0.014355 0.002509
0.058701 0.014983 0.003136
0.082345 0.015735 0.003889
0.104516 0.016441 0.004594
0.127521 0.017173 0.005326
0.146142 0.017765 0.005919
0.164898 0.018362 0.006516
0.189788 0.019154 0.007308
0.213200 0.019899 0.008053
0.241946 0.020814 0.008967
0.263139 0.021488 0.009642
0.294104 0.022474 0.010627
0.329302 0.023594 0.011747
0.354069 0.024382 0.012535
0.378667 0.025165 0.013318
0.418978 0.026447 0.014601
0.453178 0.027536 0.015689
0.483817 0.028511 0.016664
0.513899 0.029468 0.017621
0.546585 0.030508 0.018661
0.578978 0.031539 0.019692
0.608068 0.032465 0.020618
0.637030 0.033386 0.021540
0.667417 0.034353 0.022507
0.694995 0.035231 0.023384
0.725246 0.036193 0.024347
0.758276 0.037244 0.025398
0.815203 0.039056 0.027209
0.861565 0.040531 0.028685
0.879594 0.041105 0.029258
0.895879 0.041623 0.029777
0.008025 0.041833 0.004276
0.024415 0.042355 0.004797
0.041830 0.042909 0.005352
0.061544 0.043536 0.005979
0.085188 0.044289 0.006731
0.107358 0.044994 0.007437
0.130363 0.045726 0.008169
0.148985 0.046319 0.008761
0.167741 0.046916 0.009358
0.192631 0.047708 0.010150
0.216043 0.048453 0.010895
0.244789 0.049367 0.011810
0.265981 0.050042 0.012485
0.296947 0.051027 0.013470
0.332144 0.052147 0.014590
0.356912 0.052935 0.015378
0.381509 0.053718 0.016161
0.421821 0.055001 0.017444
0.456021 0.056089 0.018532
0.486660 0.057064 0.019507
0.516742 0.058021 0.020464
0.549428 0.059062 0.021504
0.581821 0.060092 0.022535
0.610911 0.061018 0.023461
0.639873 0.061940 0.024382
0.670260 0.062907 0.025349
0.697838 0.063784 0.026227
0.728088 0.064747 0.027190
0.761119 0.065798 0.028241
0.818046 0.067609 0.030052
0.864407 0.069085 0.031527
0.882437 0.069658 0.032101
0.898721 0.070177 0.032619
0.010393 0.065618 0.006644
0.026783 0.066139 0.007165
0.044198 0.066694 0.007720
0.063912 0.067321 0.008347
0.087556 0.068073 0.009099
0.109726 0.068779 0.009805
0.132732 0.069511 0.010537
0.151353 0.070103 0.011129
0.170109 0.070700 0.011726
0.194999 0.071492 0.012518
0.218411 0.072237 0.013263
0.247157 0.073152 0.014178
0.268349 0.073827 0.014853
0.299315 0.074812 0.015838
0.334512 0.075932 0.016958
0.359280 0.076720 0.017746
0.383877 0.077503 0.018529
0.424189 0.078786 0.019812
0.458389 0.079874 0.020900
0.489028 0.080849 0.021875
0.519110 0.081806 0.022832
0.551796 0.082846 0.023872
0.584189 0.083877 0.024903
0.613279 0.084803 0.025829
0.642241 0.085724 0.026750
0.672628 0.086691 0.027717
0.700206 0.087569 0.028595
0.730456 0.088532 0.029558
0.763487 0.089583 0.030609
0.820414 0.091394 0.032420
0.866776 0.092869 0.033895
0.884805 0.093443 0.034469
0.901089 0.093961 0.034987
0.012940 0.091201 0.009191
0.029330 0.091723 0.009713
0.046745 0.092277 0.010267
0.066459 0.092904 0.010894
0.090103 0.093656 0.011646
0.112273 0.094362 0.012352
0.135279 0.095094 0.013084
0.153900 0.095687 0.013677
0.172656 0.096283 0.014273
0.197546 0.097075 0.015065
0.220958 0.097820 0.015810
0.249704 0.098735 0.016725
0.270897 0.099410 0.017400
0.301862 0.100395 0.018385
0.337059 0.101515 0.019505
0.361827 0.102303 0.020293
0.386424 0.103086 0.021076
0.426736 0.104369 0.022359
0.460936 0.105457 0.023447
0.491575 0.106432 0.024422
0.521657 0.107389 0.025379
0.554343 0.108429 0.026419
0.586736 0.109460 0.027450
0.615826 0.110386 0.028376
0.644788 0.111307 0.029297
0.675175 0.112274 0.030264
0.702753 0.113152 0.031142
0.733003 0.114115 0.032105
0.766034 0.115166 0.033156
0.822961 0.116977 0.034967
0.869323 0.118453 0.036443
0.887352 0.119026 0.037016
0.903636 0.119544 0.037534
0.015509 0.117006 0.011760
0.031900 0.117528 0.012282
0.049314 0.118082 0.012836
0.069028 0.118709 0.013463
0.092672 0.119462 0.014216
0.114843 0.120167 0.014921
0.137848 0.120899 0.015653
0.156469 0.121492 0.016246
0.175225 0.122089 0.016843
0.200115 0.122881 0.017635
0.223527 0.123626 0.018380
0.252273 0.124541 0.019294
0.273466 0.125215 0.019969
0.304432 0.126200 0.020954
0.339629 0.127320 0.022074
0.364396 0.128109 0.022862
0.388994 0.128891 0.023645
0.429305 0.130174 0.024928
0.463506 0.131262 0.026016
0.494144 0.132237 0.026991
0.524226 0.133195 0.027948
0.556912 0.134235 0.028989
0.589305 0.135266 0.030019
0.618395 0.136191 0.030945
0.647357 0.137113 0.031867
0.677744 0.138080 0.032834
0.705322 0.138957 0.033711
0.735573 0.139920 0.034674
0.768603 0.140971 0.035725
0.825530 0.142783 0.037536
0.871892 0.144258 0.039012
0.889921 0.144832 0.039585
0.906206 0.145350 0.040104
0.017872 0.140742 0.014123
0.034263 0.141264 0.014645
0.051677 0.141818 0.015199
0.071391 0.142446 0.015826
0.095035 0.143198 0.016579
0.117206 0.143903 0.017284
0.140211 0.144635 0.018016
0.158832 0.145228 0.018609
0.177588 0.145825 0.019206
0.202478 0.146617 0.019998
0.225891 0.147362 0.020743
0.254636 0.148277 0.021658
0.275829 0.148951 0.022332
0.306795 0.149936 0.023317
0.341992 0.151057 0.024437
0.366759 0.151845 0.025226
0.391357 0.152627 0.026008
0.431668 0.153910 0.027291
0.465869 0.154998 0.028379
0.496507 0.155973 0.029354
0.526589 0.156931 0.030312
0.559275 0.157971 0.031352
0.591668 0.159002 0.032383
0.620758 0.159927 0.033308
0.649720 0.160849 0.034230
0.680107 0.161816 0.035197
0.707685 0.162693 0.036074
0.737936 0.163656 0.037037
0.770966 0.164707 0.038088
0.827893 0.166519 0.039900
0.874255 0.167994 0.041375
0.892284 0.168568 0.041949
0.908569 0.169086 0.042467
0.020679 0.168938 0.016931
0.037070 0.169460 0.017452
0.054484 0.170014 0.018006
0.074198 0.170641 0.018634
0.097842 0.171394 0.019386
0.120013 0.172099 0.020091
0.143018 0.172831 0.020824
0.161639 0.173424 0.021416
0.180395 0.174021 0.022013
0.205285 0.174813 0.022805
0.228698 0.175558 0.023550
0.257443 0.176473 0.024465
0.278636 0.177147 0.025139
0.309602 0.178132 0.026125
0.344799 0.179252 0.027245
0.369567 0.180040 0.028033
0.394164 0.180823 0.028815
0.434475 0.182106 0.030098
0.468676 0.183194 0.031187
0.499315 0.184169 0.032162
0.529396 0.185127 0.033119
0.562082 0.186167 0.034159
0.594475 0.187197 0.035190
0.623566 0.188123 0.036115
0.652527 0.189045 0.037037
0.682915 0.190012 0.038004
0.710492 0.190889 0.038882
0.740743 0.191852 0.039844
0.773773 0.192903 0.040895
0.830700 0.194715 0.042707
0.877062 0.196190 0.044182
0.895092 0.196764 0.044756
0.911376 0.197282 0.045274
0.022168 0.183888 0.018419
0.038558 0.184410 0.018941
0.055973 0.184964 0.019495
0.075687 0.185591 0.020122
0.099331 0.186344 0.020874
0.121501 0.187049 0.021580
0.144507 0.187781 0.022312
0.163128 0.188374 0.022905
0.181884 0.188971 0.023501
0.206774 0.189763 0.024293
0.230186 0.190508 0.025038
0.258932 0.191423 0.025953
0.280125 0.192097 0.026628
0.311090 0.193082 0.027613
0.346287 0.194202 0.028733
0.371055 0.194990 0.029521
0.395652 0.195773 0.030304
0.435964 0.197056 0.031587
0.470164 0.198144 0.032675
0.500803 0.199119 0.033650
0.530885 0.200077 0.034607
0.563571 0.201117 0.035647
0.595964 0.202147 0.036678
0.625054 0.203073 0.037604
0.654016 0.203995 0.038525
0.684403 0.204962 0.039492
0.711981 0.205839 0.040370
0.742231 0.206802 0.041333
0.775262 0.207853 0.042384
0.832189 0.209665 0.044195
0.878551 0.211140 0.045671
0.896580 0.211714 0.046244
0.912864 0.212232 0.046762
0.024632 0.208641 0.020883
0.041023 0.209162 0.021405
0.058437 0.209716 0.021959
0.078151 0.210344 0.022586
0.101795 0.211096 0.023339
0.123966 0.211802 0.024044
0.146971 0.212534 0.024776
0.165592 0.213126 0.025369
0.184348 0.213723 0.025966
0.209238 0.214515 0.026758
0.232651 0.215260 0.027503
0.261396 0.216175 0.028418
0.282589 0.216849 0.029092
0.313555 0.217835 0.030077
0.348752 0.218955 0.031197
0.373519 0.219743 0.031986
0.398117 0.220526 0.032768
0.438428 0.221808 0.034051
0.472629 0.222897 0.035139
0.503267 0.223872 0.036114
0.533349 0.224829 0.037072
0.566035 0.225869 0.038112
0.598428 0.226900 0.039142
0.627518 0.227826 0.040068
0.656480 0.228747 0.040990
0.686867 0.229714 0.041957
0.714445 0.230592 0.042834
0.744696 0.231554 0.043797
0.777726 0.232605 0.044848
0.834653 0.234417 0.046660
0.881015 0.235892 0.048135
0.899044 0.236466 0.048709
0.915329 0.236984 0.049227
0.028333 0.245811 0.024584
0.044723 0.246333 0.025106
0.062138 0.246887 0.025660
0.081852 0.247514 0.026287
0.105496 0.248267 0.027039
0.127666 0.248972 0.027745
0.150672 0.249704 0.028477
0.169293 0.250297 0.029070
0.188049 0.250894 0.029666
0.212939 0.251686 0.030459
0.236351 0.252431 0.031204
0.265097 0.253345 0.032118
0.286290 0.254020 0.032793
0.317255 0.255005 0.033778
0.352452 0.256125 0.034898
0.377220 0.256913 0.035686
0.401817 0.257696 0.036469
0.442129 0.258979 0.037752
0.476329 0.260067 0.038840
0.506968 0.261042 0.039815
0.537050 0.261999 0.040772
0.569736 0.263040 0.041812
0.602129 0.264070 0.042843
0.631219 0.264996 0.043769
0.660181 0.265918 0.044691
0.690568 0.266885 0.045657
0.718146 0.267762 0.046535
0.748396 0.268725 0.047498
0.781427 0.269776 0.048549
0.838354 0.271587 0.050360
0.884716 0.273063 0.051836
0.902745 0.273636 0.052409
0.919030 0.274155 0.052928
0.031362 0.276234 0.027613
0.047752 0.276756 0.028135
0.065167 0.277310 0.028689
0.084881 0.277937 0.029316
0.108525 0.278689 0.030068
0.130695 0.279395 0.030774
0.153701 0.280127 0.031506
0.172322 0.280720 0.032099
0.191078 0.281316 0.032695
0.215968 0.282108 0.033487
0.239380 0.282853 0.034232
0.268126 0.283768 0.035147
0.289318 0.284443 0.035822
0.320284 0.285428 0.036807
0.355481 0.286548 0.037927
0.380249 0.287336 0.038715
0.404846 0.288119 0.039498
0.445158 0.289402 0.040781
0.479358 0.290490 0.041869
0.509997 0.291465 0.042844
0.540079 0.292422 0.043801
0.572765 0.293462 0.044841
0.605158 0.294493 0.045872
0.634248 0.295419 0.046798
0.663210 0.296340 0.047719
0.693597 0.297307 0.048686
0.721175 0.298185 0.049564
0.751425 0.299148 0.050527
0.784456 0.300199 0.051578
0.841383 0.302010 0.053389
0.887745 0.303486 0.054865
0.905774 0.304059 0.055438
0.922058 0.304577 0.055956
0.033989 0.302624 0.030240
0.050380 0.303145 0.030762
0.067794 0.303700 0.031316
0.087508 0.304327 0.031943
0.111152 0.305079 0.032696
0.133323 0.305785 0.033401
0.156328 0.306517 0.034133
0.174949 0.307109 0.034726
0.193705 0.307706 0.035323
0.218595 0.308498 0.036115
0.242008 0.309243 0.036860
0.270753 0.310158 0.037775
0.291946 0.310832 0.038449
0.322912 0.311818 0.039434
0.358109 0.312938 0.040554
0.382876 0.313726 0.041343
0.407474 0.314509 0.042125
0.447785 0.315792 0.043408
0.481986 0.316880 0.044496
0.512624 0.317855 0.045471
0.542706 0.318812 0.046429
0.575392 0.319852 0.047469
0.607785 0.320883 0.048500
0.636875 0.321809 0.049425
0.665837 0.322730 0.050347
0.696224 0.323697 0.051314
0.723802 0.324575 0.052191
0.754053 0.325538 0.053154
0.787083 0.326589 0.054205
0.844010 0.328400 0.056017
0.890372 0.329875 0.057492
0.908401 0.330449 0.058066
0.924686 0.330967 0.058584
0.036162 0.324452 0.032413
0.052553 0.324973 0.032935
0.069967 0.325527 0.033489
0.089681 0.326155 0.034117
0.113325 0.326907 0.034869
0.135496 0.327612 0.035574
0.158501 0.328345 0.036307
0.177122 0.328937 0.036899
0.195878 0.329534 0.037496
0.220768 0.330326 0.038288
0.244181 0.331071 0.039033
0.272926 0.331986 0.039948
0.294119 0.332660 0.040622
0.325085 0.333646 0.041608
0.360282 0.334766 0.042728
0.385050 0.335554 0.043516
0.409647 0.336336 0.044298
0.449958 0.337619 0.045581
0.484159 0.338708 0.046670
0.514798 0.339683 0.047644
0.544879 0.340640 0.048602
0.577565 0.341680 0.049642
0.609958 0.342711 0.050673
0.639049 0.343636 0.051598
0.668010 0.344558 0.052520
0.698397 0.345525 0.053487
0.725975 0.346403 0.054365
0.756226 0.347365 0.055327
0.789256 0.348416 0.056378
0.846183 0.350228 0.058190
0.892545 0.351703 0.059665
0.910574 0.352277 0.060239
0.926859 0.352795 0.060757
0.039386 0.356831 0.035637
0.055777 0.357353 0.036159
0.073191 0.357907 0.036713
0.092905 0.358534 0.037340
0.116549 0.359287 0.038093
0.138720 0.359992 0.038798
0.161725 0.360724 0.039530
0.180346 0.361317 0.040123
0.199102 0.361914 0.040720
0.223992 0.362706 0.041512
0.247404 0.363451 0.042257
0.276150 0.364366 0.043171
0.297343 0.365040 0.043846
0.328309 0.366025 0.044831
0.363506 0.367145 0.045951
0.388273 0.367933 0.046739
0.412871 0.368716 0.047522
0.453182 0.369999 0.048805
0.487383 0.371087 0.049893
0.518021 0.372062 0.050868
0.548103 0.373020 0.051825
0.580789 0.374060 0.052866
0.613182 0.375090 0.053896
0.642272 0.376016 0.054822
0.671234 0.376938 0.055744
0.701621 0.377905 0.056711
0.729199 0.378782 0.057588
0.759450 0.379745 0.058551
0.792480 0.380796 0.059602
0.849407 0.382608 0.061413
0.895769 0.384083 0.062889
0.913798 0.384657 0.063463
0.930083 0.385175 0.063981
0.042432 0.387424 0.038683
0.058823 0.387946 0.039205
0.076237 0.388500 0.039759
0.095951 0.389128 0.040386
0.119595 0.389880 0.041139
0.141766 0.390585 0.041844
0.164771 0.391318 0.042576
0.183392 0.391910 0.043169
0.202148 0.392507 0.043766
0.227038 0.393299 0.044558
0.250450 0.394044 0.045303
0.279196 0.394959 0.046217
0.300389 0.395633 0.046892
0.331354 0.396619 0.047877
0.366552 0.397739 0.048997
0.391319 0.398527 0.049785
0.415917 0.399309 0.050568
0.456228 0.400592 0.051851
0.490429 0.401681 0.052939
0.521067 0.402655 0.053914
0.551149 0.403613 0.054871
0.583835 0.404653 0.055911
0.616228 0.405684 0.056942
0.645318 0.406609 0.057868
0.674280 0.407531 0.058790
0.704667 0.408498 0.059757
0.732245 0.409376 0.060634
0.762496 0.410338 0.061597
0.795526 0.411389 0.062648
0.852453 0.413201 0.064459
0.898815 0.414676 0.065935
0.916844 0.415250 0.066508
0.933129 0.415768 0.067027
0.046036 0.423625 0.042287
0.062427 0.424147 0.042809
0.079841 0.424701 0.043363
0.099555 0.425328 0.043990
0.123199 0.426080 0.044743
0.145370 0.426786 0.045448
0.168375 0.427518 0.046180
0.186996 0.428111 0.046773
0.205752 0.428707 0.047370
0.230642 0.429499 0.048162
0.254054 0.430244 0.048907
0.282800 0.431159 0.049821
0.303993 0.431834 0.050496
0.334959 0.432819 0.051481
0.370156 0.433939 0.052601
0.394923 0.434727 0.053389
0.419521 0.435510 0.054172
0.459832 0.436793 0.055455
0.494033 0.437881 0.056543
0.524671 0.438856 0.057518
0.554753 0.439813 0.058476
0.587439 0.440853 0.059516
0.619832 0.441884 0.060546
0.648922 0.442810 0.061472
0.677884 0.443731 0.062394
0.708271 0.444698 0.063361
0.735849 0.445576 0.064238
0.766100 0.446539 0.065201
0.799130 0.447590 0.066252
0.856057 0.449401 0.068064
0.902419 0.450877 0.069539
0.920448 0.451450 0.070113
0.936733 0.451968 0.070631
0.050384 0.467291 0.046635
0.066774 0.467813 0.047156
0.084188 0.468367 0.047710
0.103903 0.468994 0.048338
0.127546 0.469747 0.049090
0.149717 0.470452 0.049796
0.172722 0.471184 0.050528
0.191344 0.471777 0.051120
0.210099 0.472374 0.051717
0.234990 0.473166 0.052509
0.258402 0.473911 0.053254
0.287147 0.474825 0.054169
0.308340 0.475500 0.054843
0.339306 0.476485 0.055829
0.374503 0.477605 0.056949
0.399271 0.478393 0.057737
0.423868 0.479176 0.058520
0.464180 0.480459 0.059802
0.498380 0.481547 0.060891
0.529019 0.482522 0.061866
0.559101 0.483479 0.062823
0.591787 0.484519 0.063863
0.624180 0.485550 0.064894
0.653270 0.486476 0.065820
0.682232 0.487398 0.066741
0.712619 0.488365 0.067708
0.740196 0.489242 0.068586
0.770447 0.490205 0.069548
0.803477 0.491256 0.070599
0.860404 0.493067 0.072411
0.906766 0.494543 0.073886
0.924796 0.495116 0.074460
0.941080 0.495635 0.074978
0.053784 0.501449 0.050035
0.070175 0.501970 0.050557
0.087589 0.502524 0.051111
0.107303 0.503152 0.051738
0.130947 0.503904 0.052491
0.153118 0.504610 0.053196
0.176123 0.505342 0.053928
0.194744 0.505934 0.054521
0.213500 0.506531 0.055118
0.238390 0.507323 0.055910
0.261803 0.508068 0.056655
0.290548 0.508983 0.057570
0.311741 0.509657 0.058244
0.342707 0.510643 0.059229
0.377904 0.511763 0.060349
0.402671 0.512551 0.061138
0.427269 0.513334 0.061920
0.467580 0.514616 0.063203
0.501781 0.515705 0.064291
0.532420 0.516680 0.065266
0.562501 0.517637 0.066224
0.595187 0.518677 0.067264
0.627580 0.519708 0.068295
0.656671 0.520633 0.069220
0.685632 0.521555 0.070142
0.716019 0.522522 0.071109
0.743597 0.523400 0.071986
0.773848 0.524362 0.072949
0.806878 0.525413 0.074000
0.863805 0.527225 0.075812
0.910167 0.528700 0.077287
0.928196 0.529274 0.077861
0.944481 0.529792 0.078379
0.057109 0.534840 0.053360
0.073499 0.535362 0.053881
0.090914 0.535916 0.054436
0.110628 0.536543 0.055063
0.134272 0.537295 0.055815
0.156442 0.538001 0.056521
0.179447 0.538733 0.057253
0.198069 0.539326 0.057845
0.216825 0.539922 0.058442
0.241715 0.540714 0.059234
0.265127 0.541459 0.059979
0.293873 0.542374 0.060894
0.315065 0.543049 0.061569
0.346031 0.544034 0.062554
0.381228 0.545154 0.063674
0.405996 0.545942 0.064462
0.430593 0.546725 0.065245
0.470905 0.548008 0.066528
0.505105 0.549096 0.067616
0.535744 0.550071 0.068591
0.565826 0.551028 0.069548
0.598512 0.552068 0.070588
0.630905 0.553099 0.071619
0.659995 0.554025 0.072545
0.688957 0.554946 0.073466
0.719344 0.555913 0.074433
0.746922 0.556791 0.075311
0.777172 0.557754 0.076274
0.810203 0.558805 0.077325
0.867130 0.560616 0.079136
0.913491 0.562092 0.080611
0.931521 0.562665 0.081185
0.947805 0.563183 0.081703
0.060353 0.567427 0.056604
0.076744 0.567948 0.057126
0.094158 0.568502 0.057680
0.113872 0.569130 0.058307
0.137516 0.569882 0.059060
0.159687 0.570588 0.059765
0.182692 0.571320 0.060497
0.201313 0.571912 0.061090
0.220069 0.572509 0.061687
0.244959 0.573301 0.062479
0.268371 0.574046 0.063224
0.297117 0.574961 0.064138
0.318310 0.575635 0.064813
0.349276 0.576621 0.065798
0.384473 0.577741 0.066918
0.409240 0.578529 0.067706
0.433838 0.579312 0.068489
0.474149 0.580594 0.069772
0.508350 0.581683 0.070860
0.538988 0.582658 0.071835
0.569070 0.583615 0.072792
0.601756 0.584655 0.073833
0.634149 0.585686 0.074863
0.663239 0.586611 0.075789
0.692201 0.587533 0.076711
0.722588 0.588500 0.077678
0.750166 0.589378 0.078555
0.780417 0.590340 0.079518
0.813447 0.591391 0.080569
0.870374 0.593203 0.082380
0.916736 0.594678 0.083856
0.934765 0.595252 0.084430
0.951050 0.595770 0.084948
0.063648 0.600517 0.059899
0.080038 0.601038 0.060420
0.097452 0.601592 0.060974
0.117167 0.602220 0.061602
0.140811 0.602972 0.062354
0.162981 0.603678 0.063060
0.185986 0.604410 0.063792
0.204608 0.605002 0.064384
0.223363 0.605599 0.064981
0.248254 0.606391 0.065773
0.271666 0.607136 0.066518
0.300411 0.608051 0.067433
0.321604 0.608725 0.068107
0.352570 0.609711 0.069093
0.387767 0.610831 0.070213
0.412535 0.611619 0.071001
0.437132 0.612402 0.071784
0.477444 0.613684 0.073066
0.511644 0.614773 0.074155
0.542283 0.615748 0.075130
0.572365 0.616705 0.076087
0.605051 0.617745 0.077127
0.637444 0.618776 0.078158
0.666534 0.619702 0.079084
0.695496 0.620623 0.080005
0.725883 0.621590 0.080972
0.753460 0.622468 0.081850
0.783711 0.623430 0.082812
0.816741 0.624482 0.083863
0.873668 0.626293 0.085675
0.920030 0.627768 0.087150
0.938060 0.628342 0.087724
0.954344 0.628860 0.088242
0.067213 0.636331 0.063464
0.083604 0.636853 0.063986
0.101018 0.637407 0.064540
0.120732 0.638034 0.065167
0.144376 0.638787 0.065920
0.166547 0.639492 0.066625
0.189552 0.640224 0.067357
0.208173 0.640817 0.067950
0.226929 0.641414 0.068547
0.251819 0.642206 0.069339
0.275232 0.642951 0.070084
0.303977 0.643866 0.070999
0.325170 0.644540 0.071673
0.356136 0.645525 0.072658
0.391333 0.646645 0.073778
0.416100 0.647433 0.074567
0.440698 0.648216 0.075349
0.481009 0.649499 0.076632
0.515210 0.650587 0.077720
0.545849 0.651562 0.078695
0.575930 0.652520 0.079653
0.608616 0.653560 0.080693
0.641009 0.654590 0.081724
0.670100 0.655516 0.082649
0.699061 0.656438 0.083571
0.729448 0.657405 0.084538
0.757026 0.658282 0.085415
0.787277 0.659245 0.086378
0.820307 0.660296 0.087429
0.877234 0.662108 0.089241
0.923596 0.663583 0.090716
0.941625 0.664157 0.091290
0.957910 0.664675 0.091808
0.070946 0.673826 0.067197
0.087337 0.674348 0.067719
0.104751 0.674902 0.068273
0.124465 0.675529 0.068900
0.148109 0.676282 0.069653
0.170280 0.676987 0.070358
0.193285 0.677719 0.071090
0.211906 0.678312 0.071683
0.230662 0.678909 0.072280
0.255552 0.679701 0.073072
0.278965 0.680446 0.073817
0.307710 0.681360 0.074732
0.328903 0.682035 0.075406
0.359869 0.683020 0.076391
0.395066 0.684140 0.077511
0.419833 0.684928 0.078300
0.444431 0.685711 0.079082
0.484742 0.686994 0.080365
0.518943 0.688082 0.081453
0.549582 0.689057 0.082428
0.579663 0.690015 0.083386
0.612349 0.691055 0.084426
0.644742 0.692085 0.085457
0.673833 0.693011 0.086382
0.702794 0.693933 0.087304
0.733181 0.694900 0.088271
0.760759 0.695777 0.089148
0.791010 0.696740 0.090111
0.824040 0.697791 0.091162
0.880967 0.699603 0.092974
0.927329 0.701078 0.094449
0.945358 0.701652 0.095023
0.961643 0.702170 0.095541
0.074189 0.706393 0.070440
0.090579 0.706915 0.070961
0.107993 0.707469 0.071516
0.127708 0.708096 0.072143
0.151352 0.708848 0.072895
0.173522 0.709554 0.073601
0.196527 0.710286 0.074333
0.215149 0.710879 0.074925
0.233905 0.711475 0.075522
0.258795 0.712267 0.076314
0.282207 0.713012 0.077059
0.310953 0.713927 0.077974
0.332145 0.714602 0.078648
0.363111 0.715587 0.079634
0.398308 0.716707 0.080754
0.423076 0.717495 0.081542
0.447673 0.718278 0.082325
0.487985 0.719561 0.083607
0.522185 0.720649 0.084696
0.552824 0.721624 0.085671
0.582906 0.722581 0.086628
0.615592 0.723621 0.087668
0.647985 0.724652 0.088699
0.677075 0.725578 0.089625
0.706037 0.726499 0.090546
0.736424 0.727466 0.091513
0.764002 0.728344 0.092391
0.794252 0.729307 0.093353
0.827283 0.730358 0.094405
0.884209 0.732169 0.096216
0.930571 0.733645 0.097691
0.948601 0.734218 0.098265
0.964885 0.734736 0.098783
0.077947 0.744140 0.074198
0.094337 0.744661 0.074719
0.111752 0.745216 0.075274
0.131466 0.745843 0.075901
0.155110 0.746595 0.076653
0.177280 0.747301 0.077359
0.200285 0.748033 0.078091
0.218907 0.748625 0.078683
0.237663 0.749222 0.079280
0.262553 0.750014 0.080072
0.285965 0.750759 0.080817
0.314711 0.751674 0.081732
0.335903 0.752349 0.082407
0.366869 0.753334 0.083392
0.402066 0.754454 0.084512
0.426834 0.755242 0.085300
0.451431 0.756025 0.086083
0.491743 0.757308 0.087366
0.525943 0.758396 0.088454
0.556582 0.759371 0.089429
0.586664 0.760328 0.090386
0.619350 0.761368 0.091426
0.651743 0.762399 0.092457
0.680833 0.763325 0.093383
0.709795 0.764246 0.094304
0.740182 0.765213 0.095271
0.767760 0.766091 0.096149
0.798010 0.767054 0.097112
0.831041 0.768105 0.098163
0.887968 0.769916 0.099974
0.934329 0.771391 0.101449
0.952359 0.771965 0.102023
0.968643 0.772483 0.102541
0.081791 0.782756 0.078043
0.098182 0.783278 0.078564
0.115596 0.783832 0.079118
0.135310 0.784459 0.079746
0.158954 0.785212 0.080498
0.181125 0.785917 0.081203
0.204130 0.786649 0.081936
0.222751 0.787242 0.082528
0.241507 0.787838 0.083125
0.266397 0.788631 0.083917
0.289810 0.789376 0.084662
0.318555 0.790290 0.085577
0.339748 0.790965 0.086251
0.370714 0.791950 0.087237
0.405911 0.793070 0.088357
0.430679 0.793858 0.089145
0.455276 0.794641 0.089927
0.495587 0.795924 0.091210
0.529788 0.797012 0.092299
0.560427 0.797987 0.093274
0.590508 0.798944 0.094231
0.623194 0.799984 0.095271
