assets/preview/luts/cc_bokeh.cube
# Recriado de uma referência do usuário (2026-08-17) medindo o vídeo.
# Filtro original: "Bokeh" (CapCut). Curva por canal + saturação 0.87x.
TITLE "Bokeh"
LUT_3D_SIZE 5
DOMAIN_MIN 0.0 0.0 0.0
DOMAIN_MAX 1.0 1.0 1.0
0.003872 0.000123 0.000123
0.163588 0.005206 0.005206
0.377357 0.012008 0.012008
0.635720 0.020230 0.020230
0.894569 0.028467 0.028467
0.022168 0.183888 0.018419
0.181884 0.188971 0.023501
0.395652 0.195773 0.030304
0.654016 0.203995 0.038525
0.912864 0.212232 0.046762
0.046036 0.423625 0.042287
0.205752 0.428707 0.047370
0.419521 0.435510 0.054172
0.677884 0.443731 0.062394
0.936733 0.451968 0.070631
0.074189 0.706393 0.070440
0.233905 0.711475 0.075522
0.447673 0.718278 0.082325
0.706037 0.726499 0.090546
0.964885 0.734736 0.098783
0.099636 0.961989 0.095887
0.259352 0.967072 0.100969
0.473121 0.973874 0.107772
0.731484 0.982096 0.115994
0.990333 0.990333 0.124231
0.005970 0.002221 0.190166
0.165686 0.007303 0.195248
0.379455 0.014106 0.202051
0.637818 0.022328 0.210272
0.896667 0.030565 0.218509
0.024266 0.185986 0.208461
0.183982 0.191069 0.213544
0.397750 0.197871 0.220346
0.656114 0.206093 0.228568
0.914962 0.214330 0.236805
0.048134 0.425723 0.232330
0.207850 0.430805 0.237412
0.421619 0.437608 0.244215
0.679982 0.445829 0.252436
0.938831 0.454066 0.260673
0.076286 0.708491 0.260482
0.236002 0.713573 0.265565
0.449771 0.720376 0.272367
0.708134 0.728597 0.280589
0.966983 0.736834 0.288826
0.101734 0.964087 0.285930
0.261450 0.969169 0.291012
0.475218 0.975972 0.297814
0.733582 0.984193 0.306036
0.992430 0.992430 0.314273
0.008325 0.004576 0.403514
0.168041 0.009659 0.408596
0.381810 0.016461 0.415399
0.640173 0.024683 0.423620
0.899022 0.032920 0.431857
0.026621 0.188341 0.421810
0.186337 0.193424 0.426892
0.400105 0.200226 0.433695
0.658469 0.208448 0.441916
0.917317 0.216685 0.450153
0.050489 0.428078 0.445678
0.210205 0.433160 0.450760
0.423974 0.439963 0.457563
0.682337 0.448184 0.465784
0.941186 0.456421 0.474021
0.078642 0.710846 0.473830
0.238358 0.715928 0.478913
0.452126 0.722731 0.485715
0.710490 0.730952 0.493937
0.969338 0.739189 0.502174
0.104089 0.966442 0.499278
0.263805 0.971524 0.504360
0.477573 0.978327 0.511163
0.735937 0.986549 0.519384
0.994786 0.994786 0.527621
0.011162 0.007413 0.660512
0.170878 0.012496 0.665594
0.384647 0.019298 0.672397
0.643010 0.027520 0.680618
0.901859 0.035757 0.688855
0.029458 0.191178 0.678808
0.189174 0.196261 0.683890
0.402942 0.203063 0.690692
0.661306 0.211285 0.698914
0.920154 0.219522 0.707151
0.053326 0.430915 0.702676
0.213042 0.435997 0.707758
0.426811 0.442800 0.714561
0.685174 0.451021 0.722782
0.944023 0.459258 0.731019
0.081479 0.713683 0.730828
0.241194 0.718765 0.735911
0.454963 0.725568 0.742713
0.713326 0.733789 0.750935
0.972175 0.742026 0.759172
0.106926 0.969279 0.756276
0.266642 0.974361 0.761358
0.480410 0.981164 0.768161
0.738774 0.989385 0.776382
0.997622 0.997622 0.784619
0.013540 0.009791 0.875893
0.173255 0.014873 0.880975
0.387024 0.021676 0.887778
0.645387 0.029897 0.895999
0.904236 0.038134 0.904236
0.031835 0.193556 0.894188
0.191551 0.198638 0.899271
0.405320 0.205441 0.906073
0.663683 0.213662 0.914295
0.922532 0.221899 0.922532
0.055704 0.433292 0.918057
0.215419 0.438375 0.923139
0.429188 0.445177 0.929942
0.687552 0.453399 0.938163
0.946400 0.461636 0.946400
0.083856 0.716060 0.946209
0.243572 0.721143 0.951292
0.457341 0.727945 0.958094
0.715704 0.736167 0.966316
0.974553 0.744404 0.974553
0.109303 0.971657 0.971657
0.269019 0.976739 0.976739
0.482788 0.983541 0.983541
0.741151 0.991763 0.991763
1.000000 1.000000 1.000000
