assets/preview/luts/cc_bokeh.cube
# Recriado de uma referência do usuário (2026-08-17) medindo o vídeo.
# Filtro original: "Bokeh" (CapCut). Curva por canal + saturação 0.87x.
TITLE "Bokeh"
LUT_3D_SIZE 9
DOMAIN_MIN 0.0 0.0 0.0
DOMAIN_MAX 1.0 1.0 1.0
0.003872 0.000123 0.000123
0.081035 0.002579 0.002579
0.163588 0.005206 0.005206
0.261829 0.008332 0.008332
0.377357 0.012008 0.012008
0.512589 0.016311 0.016311
0.635720 0.020230 0.020230
0.756966 0.024088 0.024088
0.894569 0.028467 0.028467
0.012940 0.091201 0.009191
0.090103 0.093656 0.011646
0.172656 0.096283 0.014273
0.270897 0.099410 0.017400
0.386424 0.103086 0.021076
0.521657 0.107389 0.025379
0.644788 0.111307 0.029297
0.766034 0.115166 0.033156
0.903636 0.119544 0.037534
0.022168 0.183888 0.018419
0.099331 0.186344 0.020874
0.181884 0.188971 0.023501
0.280125 0.192097 0.026628
0.395652 0.195773 0.030304
0.530885 0.200077 0.034607
0.654016 0.203995 0.038525
0.775262 0.207853 0.042384
0.912864 0.212232 0.046762
0.033989 0.302624 0.030240
0.111152 0.305079 0.032696
0.193705 0.307706 0.035323
0.291946 0.310832 0.038449
0.407474 0.314509 0.042125
0.542706 0.318812 0.046429
0.665837 0.322730 0.050347
0.787083 0.326589 0.054205
0.924686 0.330967 0.058584
0.046036 0.423625 0.042287
0.123199 0.426080 0.044743
0.205752 0.428707 0.047370
0.303993 0.431834 0.050496
0.419521 0.435510 0.054172
0.554753 0.439813 0.058476
0.677884 0.443731 0.062394
0.799130 0.447590 0.066252
0.936733 0.451968 0.070631
0.060353 0.567427 0.056604
0.137516 0.569882 0.059060
0.220069 0.572509 0.061687
0.318310 0.575635 0.064813
0.433838 0.579312 0.068489
0.569070 0.583615 0.072792
0.692201 0.587533 0.076711
0.813447 0.591391 0.080569
0.951050 0.595770 0.084948
0.074189 0.706393 0.070440
0.151352 0.708848 0.072895
0.233905 0.711475 0.075522
0.332145 0.714602 0.078648
0.447673 0.718278 0.082325
0.582906 0.722581 0.086628
0.706037 0.726499 0.090546
0.827283 0.730358 0.094405
0.964885 0.734736 0.098783
0.088751 0.852655 0.085002
0.165914 0.855110 0.087457
0.248466 0.857737 0.090084
0.346707 0.860864 0.093210
0.462235 0.864540 0.096887
0.597468 0.868843 0.101190
0.720599 0.872762 0.105108
0.841844 0.876620 0.108966
0.979447 0.880999 0.113345
0.099636 0.961989 0.095887
0.176799 0.964445 0.098343
0.259352 0.967072 0.100969
0.357593 0.970198 0.104096
0.473121 0.973874 0.107772
0.608353 0.978177 0.112075
0.731484 0.982096 0.115994
0.852730 0.985954 0.119852
0.990333 0.990333 0.124231
0.005025 0.001276 0.104575
0.082188 0.003732 0.107030
0.164741 0.006359 0.109657
0.262982 0.009485 0.112783
0.378510 0.013161 0.116460
0.513742 0.017464 0.120763
0.636873 0.021383 0.124681
0.758119 0.025241 0.128540
0.895722 0.029620 0.132918
0.014093 0.092354 0.113643
0.091256 0.094809 0.116098
0.173809 0.097436 0.118725
0.272050 0.100563 0.121851
0.387577 0.104239 0.125528
0.522810 0.108542 0.129831
0.645941 0.112460 0.133749
0.767187 0.116319 0.137607
0.904789 0.120697 0.141986
0.023321 0.185041 0.122871
0.100484 0.187497 0.125326
0.183037 0.190124 0.127953
0.281278 0.193250 0.131079
0.396805 0.196926 0.134756
0.532038 0.201230 0.139059
0.655169 0.205148 0.142977
0.776415 0.209006 0.146835
0.914017 0.213385 0.151214
0.035142 0.303777 0.134692
0.112305 0.306232 0.137147
0.194858 0.308859 0.139774
0.293099 0.311986 0.142901
0.408627 0.315662 0.146577
0.543859 0.319965 0.150880
0.666990 0.323883 0.154798
0.788236 0.327742 0.158657
0.925839 0.332120 0.163035
0.047189 0.424778 0.146739
0.124352 0.427233 0.149194
0.206905 0.429860 0.151821
0.305146 0.432987 0.154948
0.420674 0.436663 0.158624
0.555906 0.440966 0.162927
0.679037 0.444884 0.166845
0.800283 0.448743 0.170704
0.937886 0.453121 0.175082
0.061506 0.568580 0.161056
0.138669 0.571035 0.163511
0.221222 0.573662 0.166138
0.319463 0.576788 0.169265
0.434991 0.580465 0.172941
0.570223 0.584768 0.177244
0.693354 0.588686 0.181162
0.814600 0.592544 0.185021
0.952203 0.596923 0.189399
0.075342 0.707546 0.174891
0.152505 0.710001 0.177347
0.235058 0.712628 0.179974
0.333298 0.715755 0.183100
0.448826 0.719431 0.186776
0.584059 0.723734 0.191080
0.707190 0.727652 0.194998
0.828436 0.731511 0.198856
0.966038 0.735890 0.203235
0.089904 0.853808 0.189453
0.167067 0.856264 0.191909
0.249620 0.858890 0.194536
0.347860 0.862017 0.197662
0.463388 0.865693 0.201338
0.598621 0.869996 0.205642
0.721752 0.873915 0.209560
0.842997 0.877773 0.213418
0.980600 0.882152 0.217797
0.100789 0.963142 0.200339
0.177952 0.965598 0.202794
0.260505 0.968225 0.205421
0.358746 0.971351 0.208547
0.474274 0.975027 0.212224
0.609506 0.979330 0.216527
0.732637 0.983249 0.220445
0.853883 0.987107 0.224303
0.991486 0.991486 0.228682
0.005970 0.002221 0.190166
0.083133 0.004677 0.192621
0.165686 0.007303 0.195248
0.263927 0.010430 0.198374
0.379455 0.014106 0.202051
0.514687 0.018409 0.206354
0.637818 0.022328 0.210272
0.759064 0.026186 0.214130
0.896667 0.030565 0.218509
0.015038 0.093299 0.199233
0.092201 0.095754 0.201689
0.174754 0.098381 0.204316
0.272994 0.101507 0.207442
0.388522 0.105184 0.211118
0.523755 0.109487 0.215422
0.646886 0.113405 0.219340
0.768132 0.117264 0.223198
0.905734 0.121642 0.227577
0.024266 0.185986 0.208461
0.101429 0.188442 0.210917
0.183982 0.191069 0.213544
0.282222 0.194195 0.216670
0.397750 0.197871 0.220346
0.532983 0.202174 0.224650
0.656114 0.206093 0.228568
0.777360 0.209951 0.232426
0.914962 0.214330 0.236805
0.036087 0.304722 0.220283
0.113250 0.307177 0.222738
0.195803 0.309804 0.225365
0.294044 0.312930 0.228491
0.409572 0.316607 0.232168
0.544804 0.320910 0.236471
0.667935 0.324828 0.240389
0.789181 0.328686 0.244248
0.926784 0.333065 0.248626
0.048134 0.425723 0.232330
0.125297 0.428178 0.234785
0.207850 0.430805 0.237412
0.306091 0.433931 0.240538
0.421619 0.437608 0.244215
0.556851 0.441911 0.248518
0.679982 0.445829 0.252436
0.801228 0.449688 0.256294
0.938831 0.454066 0.260673
0.062451 0.569524 0.246647
0.139614 0.571980 0.249102
0.222167 0.574607 0.251729
0.320408 0.577733 0.254855
0.435936 0.581409 0.258532
0.571168 0.585713 0.262835
0.694299 0.589631 0.266753
0.815545 0.593489 0.270611
0.953148 0.597868 0.274990
0.076286 0.708491 0.260482
0.153449 0.710946 0.262938
0.236002 0.713573 0.265565
0.334243 0.716699 0.268691
0.449771 0.720376 0.272367
0.585004 0.724679 0.276670
0.708134 0.728597 0.280589
0.829380 0.732456 0.284447
0.966983 0.736834 0.288826
0.090848 0.854753 0.275044
0.168011 0.857208 0.277500
0.250564 0.859835 0.280127
0.348805 0.862961 0.283253
0.464333 0.866638 0.286929
0.599565 0.870941 0.291232
0.722696 0.874859 0.295151
0.843942 0.878718 0.299009
0.981545 0.883096 0.303388
0.101734 0.964087 0.285930
0.178897 0.966542 0.288385
0.261450 0.969169 0.291012
0.359690 0.972296 0.294138
0.475218 0.975972 0.297814
0.610451 0.980275 0.302118
0.733582 0.984193 0.306036
0.854828 0.988052 0.309894
0.992430 0.992430 0.314273
0.007093 0.003344 0.291930
0.084256 0.005800 0.294386
0.166809 0.008427 0.297013
0.265050 0.011553 0.300139
0.380578 0.015229 0.303815
0.515810 0.019533 0.308119
0.638941 0.023451 0.312037
0.760187 0.027309 0.315895
0.897790 0.031688 0.320274
0.016161 0.094422 0.300998
0.093324 0.096878 0.303454
0.175877 0.099505 0.306081
0.274118 0.102631 0.309207
0.389646 0.106307 0.312883
0.524878 0.110610 0.317186
0.648009 0.114529 0.321105
0.769255 0.118387 0.324963
0.906858 0.122766 0.329342
0.025389 0.187109 0.310226
0.102552 0.189565 0.312682
0.185105 0.192192 0.315309
0.283346 0.195318 0.318435
0.398874 0.198994 0.322111
0.534106 0.203298 0.326414
0.657237 0.207216 0.330333
0.778483 0.211074 0.334191
0.916086 0.215453 0.338570
0.037210 0.305845 0.322048
0.114373 0.308301 0.324503
0.196926 0.310927 0.327130
0.295167 0.314054 0.330256
0.410695 0.317730 0.333932
0.545927 0.322033 0.338236
0.669058 0.325952 0.342154
0.790304 0.329810 0.346012
0.927907 0.334189 0.350391
0.049257 0.426846 0.334094
0.126420 0.429302 0.336550
0.208973 0.431929 0.339177
0.307214 0.435055 0.342303
0.422742 0.438731 0.345979
0.557974 0.443034 0.350283
0.681105 0.446953 0.354201
0.802351 0.450811 0.358059
0.939954 0.455190 0.362438
0.063574 0.570648 0.348411
0.140737 0.573103 0.350867
0.223290 0.575730 0.353494
0.321531 0.578856 0.356620
0.437059 0.582533 0.360296
0.572291 0.586836 0.364600
0.695422 0.590754 0.368518
0.816668 0.594613 0.372376
0.954271 0.598991 0.376755
0.077410 0.709614 0.362247
0.154573 0.712070 0.364702
0.237126 0.714697 0.367329
0.335367 0.717823 0.370456
0.450894 0.721499 0.374132
0.586127 0.725802 0.378435
0.709258 0.729721 0.382353
0.830504 0.733579 0.386212
0.968106 0.737958 0.390590
0.091972 0.855876 0.376809
0.169135 0.858332 0.379264
0.251688 0.860959 0.381891
0.349928 0.864085 0.385018
0.465456 0.867761 0.388694
0.600689 0.872064 0.392997
0.723820 0.875983 0.396915
0.845066 0.879841 0.400774
0.982668 0.884220 0.405152
0.102857 0.965210 0.387694
0.180020 0.967666 0.390150
0.262573 0.970293 0.392777
0.360814 0.973419 0.395903
0.476342 0.977095 0.399579
0.611574 0.981399 0.403883
0.734705 0.985317 0.407801
0.855951 0.989175 0.411659
0.993554 0.993554 0.416038
0.008325 0.004576 0.403514
0.085488 0.007032 0.405969
0.168041 0.009659 0.408596
0.266282 0.012785 0.411723
0.381810 0.016461 0.415399
0.517042 0.020764 0.419702
0.640173 0.024683 0.423620
0.761419 0.028541 0.427479
0.899022 0.032920 0.431857
0.017393 0.095654 0.412582
0.094556 0.098109 0.415037
0.177109 0.100736 0.417664
0.275349 0.103863 0.420790
0.390877 0.107539 0.424467
0.526110 0.111842 0.428770
0.649241 0.115760 0.432688
0.770487 0.119619 0.436546
0.908089 0.123997 0.440925
0.026621 0.188341 0.421810
0.103784 0.190797 0.424265
0.186337 0.193424 0.426892
0.284577 0.196550 0.430018
0.400105 0.200226 0.433695
0.535338 0.204529 0.437998
0.658469 0.208448 0.441916
0.779715 0.212306 0.445774
0.917317 0.216685 0.450153
0.038442 0.307077 0.433631
0.115605 0.309532 0.436086
0.198158 0.312159 0.438713
0.296399 0.315285 0.441840
0.411927 0.318962 0.445516
0.547159 0.323265 0.449819
0.670290 0.327183 0.453737
0.791536 0.331042 0.457596
0.929139 0.335420 0.461974
0.050489 0.428078 0.445678
0.127652 0.430533 0.448133
0.210205 0.433160 0.450760
0.308446 0.436287 0.453887
0.423974 0.439963 0.457563
0.559206 0.444266 0.461866
0.682337 0.448184 0.465784
0.803583 0.452043 0.469643
0.941186 0.456421 0.474021
0.064806 0.571880 0.459995
0.141969 0.574335 0.462450
0.224522 0.576962 0.465077
0.322763 0.580088 0.468204
0.438291 0.583764 0.471880
0.573523 0.588068 0.476183
0.696654 0.591986 0.480101
0.817900 0.595844 0.483960
0.955503 0.600223 0.488338
0.078642 0.710846 0.473830
0.155805 0.713301 0.476286
0.238358 0.715928 0.478913
0.336598 0.719055 0.482039
0.452126 0.722731 0.485715
0.587359 0.727034 0.490019
0.710490 0.730952 0.493937
0.831735 0.734811 0.497795
0.969338 0.739189 0.502174
0.093203 0.857108 0.488392
0.170366 0.859563 0.490848
0.252919 0.862190 0.493475
0.351160 0.865317 0.496601
0.466688 0.868993 0.500277
0.601921 0.873296 0.504581
0.725051 0.877214 0.508499
0.846297 0.881073 0.512357
0.983900 0.885451 0.516736
0.104089 0.966442 0.499278
0.181252 0.968897 0.501733
0.263805 0.971524 0.504360
0.362046 0.974651 0.507486
0.477573 0.978327 0.511163
0.612806 0.982630 0.515466
0.735937 0.986549 0.519384
0.857183 0.990407 0.523242
0.994786 0.994786 0.527621
0.009673 0.005925 0.525668
0.086836 0.008380 0.528123
0.169389 0.011007 0.530750
0.267630 0.014133 0.533876
0.383158 0.017810 0.537552
0.518391 0.022113 0.541856
0.641521 0.026031 0.545774
0.762767 0.029889 0.549632
0.900370 0.034268 0.554011
0.018741 0.097002 0.534735
0.095904 0.099458 0.537191
0.178457 0.102085 0.539818
0.276698 0.105211 0.542944
0.392226 0.108887 0.546620
0.527458 0.113191 0.550924
0.650589 0.117109 0.554842
0.771835 0.120967 0.558700
0.909438 0.125346 0.563079
0.027969 0.189690 0.543963
0.105132 0.192145 0.546419
0.187685 0.194772 0.549046
0.285926 0.197898 0.552172
0.401454 0.201575 0.555848
0.536686 0.205878 0.560151
0.659817 0.209796 0.564070
0.781063 0.213654 0.567928
0.918666 0.218033 0.572307
0.039791 0.308425 0.555785
0.116954 0.310881 0.558240
0.199506 0.313508 0.560867
0.297747 0.316634 0.563993
0.413275 0.320310 0.567670
0.548508 0.324613 0.571973
0.671639 0.328532 0.575891
0.792884 0.332390 0.579749
0.930487 0.336769 0.584128
0.051837 0.429426 0.567832
0.129000 0.431882 0.570287
0.211553 0.434509 0.572914
0.309794 0.437635 0.576040
0.425322 0.441311 0.579716
0.560555 0.445615 0.584020
0.683685 0.449533 0.587938
0.804931 0.453391 0.591796
0.942534 0.457770 0.596175
0.066154 0.573228 0.582149
0.143317 0.575683 0.584604
0.225870 0.578310 0.587231
0.324111 0.581437 0.590357
0.439639 0.585113 0.594033
0.574872 0.589416 0.598337
0.698002 0.593334 0.602255
0.819248 0.597193 0.606113
0.956851 0.601571 0.610492
0.079990 0.712194 0.595984
0.157153 0.714650 0.598440
0.239706 0.717277 0.601067
0.337947 0.720403 0.604193
0.453475 0.724079 0.607869
0.588707 0.728383 0.612172
0.711838 0.732301 0.616091
0.833084 0.736159 0.619949
0.970687 0.740538 0.624328
0.094552 0.858456 0.610546
0.171715 0.860912 0.613001
0.254268 0.863539 0.615628
0.352509 0.866665 0.618755
0.468037 0.870341 0.622431
0.603269 0.874645 0.626734
0.726400 0.878563 0.630652
0.847646 0.882421 0.634511
0.985249 0.886800 0.638889
0.105437 0.967790 0.621431
0.182600 0.970246 0.623887
0.265153 0.972873 0.626514
0.363394 0.975999 0.629640
0.478922 0.979675 0.633316
0.614154 0.983979 0.637620
0.737285 0.987897 0.641538
0.858531 0.991755 0.645396
0.996134 0.996134 0.649775
0.011162 0.007413 0.660512
0.088325 0.009869 0.662967
0.170878 0.012496 0.665594
0.269119 0.015622 0.668720
0.384647 0.019298 0.672397
0.519879 0.023601 0.676700
0.643010 0.027520 0.680618
0.764256 0.031378 0.684477
0.901859 0.035757 0.688855
0.020230 0.098491 0.669580
0.097393 0.100946 0.672035
0.179946 0.103573 0.674662
0.278186 0.106699 0.677788
0.393714 0.110376 0.681464
0.528947 0.114679 0.685768
0.652078 0.118597 0.689686
0.773324 0.122456 0.693544
0.910926 0.126834 0.697923
0.029458 0.191178 0.678808
0.106621 0.193634 0.681263
0.189174 0.196261 0.683890
0.287414 0.199387 0.687016
0.402942 0.203063 0.690692
0.538175 0.207366 0.694996
0.661306 0.211285 0.698914
0.782552 0.215143 0.702772
0.920154 0.219522 0.707151
0.041279 0.309914 0.690629
0.118442 0.312369 0.693084
0.200995 0.314996 0.695711
0.299236 0.318122 0.698838
0.414764 0.321799 0.702514
0.549996 0.326102 0.706817
0.673127 0.330020 0.710735
0.794373 0.333878 0.714594
0.931976 0.338257 0.718972
0.053326 0.430915 0.702676
0.130489 0.433370 0.705131
0.213042 0.435997 0.707758
0.311283 0.439123 0.710884
0.426811 0.442800 0.714561
0.562043 0.447103 0.718864
0.685174 0.451021 0.722782
0.806420 0.454880 0.726641
0.944023 0.459258 0.731019
0.067643 0.574717 0.716993
0.144806 0.577172 0.719448
0.227359 0.579799 0.722075
0.325600 0.582925 0.725201
0.441128 0.586601 0.728878
0.576360 0.590905 0.733181
0.699491 0.594823 0.737099
0.820737 0.598681 0.740958
0.958340 0.603060 0.745336
0.081479 0.713683 0.730828
0.158641 0.716138 0.733284
0.241194 0.718765 0.735911
0.339435 0.721892 0.739037
0.454963 0.725568 0.742713
0.590196 0.729871 0.747017
0.713326 0.733789 0.750935
0.834572 0.737648 0.754793
0.972175 0.742026 0.759172
0.096040 0.859945 0.745390
0.173203 0.862400 0.747846
0.255756 0.865027 0.750473
0.353997 0.868154 0.753599
0.469525 0.871830 0.757275
0.604757 0.876133 0.761579
0.727888 0.880051 0.765497
0.849134 0.883910 0.769355
0.986737 0.888288 0.773734
0.106926 0.969279 0.756276
0.184089 0.971734 0.758731
0.266642 0.974361 0.761358
0.364882 0.977488 0.764484
0.480410 0.981164 0.768161
0.615643 0.985467 0.772464
0.738774 0.989385 0.776382
0.860020 0.993244 0.780240
0.997622 0.997622 0.784619
0.012548 0.008799 0.786044
0.089711 0.011254 0.788500
0.172264 0.013881 0.791127
0.270504 0.017007 0.794253
0.386032 0.020684 0.797929
0.521265 0.024987 0.802232
0.644396 0.028905 0.806151
0.765642 0.032764 0.810009
0.903244 0.037142 0.814388
0.021615 0.099877 0.795112
0.098778 0.102332 0.797567
0.181331 0.104959 0.800194
0.279572 0.108085 0.803320
0.395100 0.111761 0.806997
0.530332 0.116065 0.811300
0.653463 0.119983 0.815218
0.774709 0.123841 0.819077
0.912312 0.128220 0.823455
0.030843 0.192564 0.804340
0.108006 0.195019 0.806795
0.190559 0.197646 0.809422
0.288800 0.200773 0.812548
0.404328 0.204449 0.816225
0.539560 0.208752 0.820528
0.662691 0.212670 0.824446
0.783937 0.216529 0.828305
0.921540 0.220907 0.832683
0.042665 0.311299 0.816161
0.119828 0.313755 0.818617
0.202381 0.316382 0.821244
0.300621 0.319508 0.824370
0.416149 0.323184 0.828046
0.551382 0.327488 0.832349
0.674513 0.331406 0.836268
0.795759 0.335264 0.840126
0.933361 0.339643 0.844505
0.054712 0.432301 0.828208
0.131875 0.434756 0.830664
0.214428 0.437383 0.833291
0.312668 0.440509 0.836417
0.428196 0.444186 0.840093
0.563429 0.448489 0.844396
0.686560 0.452407 0.848315
0.807806 0.456265 0.852173
0.945408 0.460644 0.856552
0.069029 0.576102 0.842525
0.146192 0.578558 0.844981
0.228745 0.581185 0.847608
0.326985 0.584311 0.850734
0.442513 0.587987 0.854410
0.577746 0.592290 0.858713
0.700877 0.596209 0.862632
0.822123 0.600067 0.866490
0.959725 0.604446 0.870869
0.082864 0.715069 0.856361
0.160027 0.717524 0.858816
0.242580 0.720151 0.861443
0.340821 0.723277 0.864569
0.456349 0.726954 0.868246
0.591581 0.731257 0.872549
0.714712 0.735175 0.876467
0.835958 0.739033 0.880325
0.973561 0.743412 0.884704
0.097426 0.861331 0.870923
0.174589 0.863786 0.873378
0.257142 0.866413 0.876005
0.355383 0.869539 0.879131
0.470911 0.873216 0.882808
0.606143 0.877519 0.887111
0.729274 0.881437 0.891029
0.850520 0.885295 0.894887
0.988123 0.889674 0.899266
0.108312 0.970665 0.881808
0.185474 0.973120 0.884263
0.268027 0.975747 0.886890
0.366268 0.978873 0.890017
0.481796 0.982550 0.893693
0.617029 0.986853 0.897996
0.740159 0.990771 0.901914
0.861405 0.994629 0.905773
0.999008 0.999008 0.910151
0.013540 0.009791 0.875893
0.090702 0.012246 0.878348
0.173255 0.014873 0.880975
0.271496 0.017999 0.884101
0.387024 0.021676 0.887778
0.522257 0.025979 0.892081
0.645387 0.029897 0.895999
0.766633 0.033755 0.899857
0.904236 0.038134 0.904236
0.022607 0.100868 0.884960
0.099770 0.103324 0.887416
0.182323 0.105951 0.890043
0.280564 0.109077 0.893169
0.396092 0.112753 0.896845
0.531324 0.117057 0.901149
0.654455 0.120975 0.905067
0.775701 0.124833 0.908925
0.913304 0.129212 0.913304
0.031835 0.193556 0.894188
0.108998 0.196011 0.896644
0.191551 0.198638 0.899271
0.289792 0.201764 0.902397
0.405320 0.205441 0.906073
0.540552 0.209744 0.910377
0.663683 0.213662 0.914295
0.784929 0.217520 0.918153
0.922532 0.221899 0.922532
0.043657 0.312291 0.906010
0.120820 0.314747 0.908465
0.203373 0.317374 0.911092
0.301613 0.320500 0.914218
0.417141 0.324176 0.917895
0.552374 0.328480 0.922198
0.675505 0.332398 0.926116
0.796750 0.336256 0.929975
0.934353 0.340635 0.934353
0.055704 0.433292 0.918057
0.132867 0.435748 0.920512
0.215419 0.438375 0.923139
0.313660 0.441501 0.926265
0.429188 0.445177 0.929942
0.564421 0.449481 0.934245
0.687552 0.453399 0.938163
0.808797 0.457257 0.942021
0.946400 0.461636 0.946400
0.070021 0.577094 0.932374
0.147183 0.579550 0.934829
0.229736 0.582176 0.937456
0.327977 0.585303 0.940582
0.443505 0.588979 0.944259
0.578738 0.593282 0.948562
0.701868 0.597201 0.952480
0.823114 0.601059 0.956338
0.960717 0.605438 0.960717
0.083856 0.716060 0.946209
0.161019 0.718516 0.948665
0.243572 0.721143 0.951292
0.341813 0.724269 0.954418
0.457341 0.727945 0.958094
0.592573 0.732249 0.962397
0.715704 0.736167 0.966316
0.836950 0.740025 0.970174
0.974553 0.744404 0.974553
0.098418 0.862322 0.960771
0.175581 0.864778 0.963227
0.258134 0.867405 0.965854
0.356375 0.870531 0.968980
0.471903 0.874207 0.972656
0.607135 0.878511 0.976959
0.730266 0.882429 0.980878
0.851512 0.886287 0.984736
0.989115 0.890666 0.989115
0.109303 0.971657 0.971657
0.186466 0.974112 0.974112
0.269019 0.976739 0.976739
0.367260 0.979865 0.979865
0.482788 0.983541 0.983541
0.618020 0.987845 0.987845
0.741151 0.991763 0.991763
0.862397 0.995621 0.995621
1.000000 1.000000 1.000000
