assets/preview/luts/cc_baile.cube
# Recriado de uma referência do usuário (2026-08-17) medindo o vídeo.
# Filtro original: "Baile de Formatura" (CapCut). Curva por canal + saturação 0.89x.
TITLE "Baile de Formatura"
LUT_3D_SIZE 5
DOMAIN_MIN 0.0 0.0 0.0
DOMAIN_MAX 1.0 1.0 1.0
0.065156 0.069852 0.049935
0.231058 0.073940 0.054023
0.452675 0.079402 0.059484
0.652202 0.084319 0.064401
0.922059 0.090969 0.071051
0.080480 0.265457 0.065258
0.246381 0.269545 0.069346
0.467998 0.275007 0.074808
0.667525 0.279924 0.079725
0.937382 0.286574 0.086375
0.099049 0.502493 0.083827
0.264950 0.506581 0.087915
0.486567 0.512043 0.093376
0.686094 0.516960 0.098293
0.955951 0.523610 0.104944
0.115082 0.707158 0.099860
0.280983 0.711247 0.103948
0.502600 0.716708 0.109409
0.702127 0.721625 0.114326
0.971984 0.728275 0.120977
0.135796 0.971581 0.120574
0.301697 0.975669 0.124662
0.523314 0.981131 0.130124
0.722841 0.986048 0.135041
0.992698 0.992698 0.141691
0.067055 0.071751 0.273122
0.232956 0.075839 0.277211
0.454574 0.081300 0.282672
0.654101 0.086217 0.287589
0.923957 0.092868 0.294239
0.082378 0.267356 0.288446
0.248280 0.271444 0.292534
0.469897 0.276905 0.297995
0.669424 0.281822 0.302912
0.939281 0.288473 0.309563
0.100947 0.504392 0.307015
0.266848 0.508480 0.311103
0.488466 0.513941 0.316564
0.687993 0.518858 0.321481
0.957849 0.525509 0.328131
0.116980 0.709057 0.323048
0.282881 0.713145 0.327136
0.504499 0.718607 0.332597
0.704026 0.723524 0.337514
0.973882 0.730174 0.344164
0.137695 0.973480 0.343762
0.303596 0.977568 0.347850
0.525213 0.983030 0.353312
0.724740 0.987947 0.358229
0.994597 0.994597 0.364879
0.068556 0.073251 0.449484
0.234457 0.077339 0.453573
0.456074 0.082801 0.459034
0.655601 0.087718 0.463951
0.925458 0.094368 0.470601
0.083879 0.268856 0.464808
0.249780 0.272945 0.468896
0.471397 0.278406 0.474357
0.670924 0.283323 0.479274
0.940781 0.289973 0.485924
0.102448 0.505892 0.483376
0.268349 0.509981 0.487465
0.489966 0.515442 0.492926
0.689493 0.520359 0.497843
0.959350 0.527009 0.504493
0.118481 0.710557 0.499409
0.284382 0.714646 0.503498
0.505999 0.720107 0.508959
0.705526 0.725024 0.513876
0.975383 0.731674 0.520526
0.139195 0.974980 0.520124
0.305096 0.979069 0.524212
0.526713 0.984530 0.529673
0.726240 0.989447 0.534590
0.996097 0.996097 0.541241
0.069699 0.074395 0.583894
0.235600 0.078483 0.587982
0.457217 0.083944 0.593443
0.656745 0.088861 0.598360
0.926601 0.095511 0.605011
0.085022 0.270000 0.599217
0.250923 0.274088 0.603305
0.472541 0.279549 0.608767
0.672068 0.284466 0.613684
0.941924 0.291117 0.620334
0.103591 0.507036 0.617786
0.269492 0.511124 0.621874
0.491109 0.516585 0.627335
0.690637 0.521502 0.632252
0.960493 0.528153 0.638903
0.119624 0.711701 0.633819
0.285525 0.715789 0.637907
0.507142 0.721251 0.643368
0.706670 0.726168 0.648285
0.976526 0.732818 0.654936
0.140338 0.976124 0.654533
0.306240 0.980212 0.658621
0.527857 0.985673 0.664083
0.727384 0.990590 0.669000
0.997241 0.997241 0.675650
0.072458 0.077154 0.908244
0.238360 0.081242 0.912332
0.459977 0.086704 0.917793
0.659504 0.091621 0.922710
0.929361 0.098271 0.929361
0.087782 0.272759 0.923567
0.253683 0.276847 0.927655
0.475300 0.282309 0.933117
0.674827 0.287226 0.938034
0.944684 0.293876 0.944684
0.106351 0.509795 0.942136
0.272252 0.513883 0.946224
0.493869 0.519345 0.951686
0.693396 0.524262 0.956603
0.963253 0.530912 0.963253
0.122384 0.714460 0.958169
0.288285 0.718549 0.962257
0.509902 0.724010 0.967719
0.709429 0.728927 0.972636
0.979286 0.735577 0.979286
0.143098 0.978883 0.978883
0.308999 0.982971 0.982971
0.530616 0.988433 0.988433
0.730143 0.993350 0.993350
1.000000 1.000000 1.000000
