assets/preview/luts/cc_baile.cube
# Recriado de uma referência do usuário (2026-08-17) medindo o vídeo.
# Filtro original: "Baile de Formatura" (CapCut). Curva por canal + saturação 0.89x.
TITLE "Baile de Formatura"
LUT_3D_SIZE 9
DOMAIN_MIN 0.0 0.0 0.0
DOMAIN_MAX 1.0 1.0 1.0
0.065156 0.069852 0.049935
0.121146 0.071232 0.051314
0.231058 0.073940 0.054023
0.354030 0.076971 0.057053
0.452675 0.079402 0.059484
0.592782 0.082854 0.062937
0.652202 0.084319 0.064401
0.706228 0.085650 0.065733
0.922059 0.090969 0.071051
0.069848 0.129738 0.054626
0.125837 0.131118 0.056006
0.235749 0.133826 0.058714
0.358722 0.136857 0.061745
0.457366 0.139288 0.064176
0.597473 0.142740 0.067628
0.656893 0.144205 0.069093
0.710920 0.145536 0.070424
0.926750 0.150855 0.075743
0.080480 0.265457 0.065258
0.136469 0.266837 0.066638
0.246381 0.269545 0.069346
0.369353 0.272576 0.072377
0.467998 0.275007 0.074808
0.608105 0.278459 0.078260
0.667525 0.279924 0.079725
0.721552 0.281255 0.081056
0.937382 0.286574 0.086375
0.090758 0.396663 0.075536
0.146747 0.398043 0.076916
0.256659 0.400752 0.079625
0.379632 0.403782 0.082655
0.478276 0.406213 0.085086
0.618383 0.409666 0.088539
0.677804 0.411130 0.090003
0.731830 0.412461 0.091334
0.947660 0.417780 0.096653
0.099049 0.502493 0.083827
0.155038 0.503873 0.085206
0.264950 0.506581 0.087915
0.387922 0.509612 0.090945
0.486567 0.512043 0.093376
0.626674 0.515495 0.096829
0.686094 0.516960 0.098293
0.740121 0.518291 0.099625
0.955951 0.523610 0.104944
0.107145 0.605848 0.091923
0.163134 0.607227 0.093303
0.273046 0.609936 0.096012
0.396019 0.612966 0.099042
0.494663 0.615397 0.101473
0.634770 0.618850 0.104926
0.694191 0.620314 0.106390
0.748217 0.621646 0.107721
0.964047 0.626965 0.113040
0.115082 0.707158 0.099860
0.171071 0.708538 0.101239
0.280983 0.711247 0.103948
0.403955 0.714277 0.106978
0.502600 0.716708 0.109409
0.642707 0.720161 0.112862
0.702127 0.721625 0.114326
0.756154 0.722956 0.115658
0.971984 0.728275 0.120977
0.120274 0.773439 0.105052
0.176263 0.774819 0.106432
0.286175 0.777528 0.109140
0.409148 0.780558 0.112171
0.507792 0.782989 0.114602
0.647899 0.786442 0.118054
0.707319 0.787906 0.119519
0.761346 0.789237 0.120850
0.977176 0.794556 0.126169
0.135796 0.971581 0.120574
0.191785 0.972961 0.121954
0.301697 0.975669 0.124662
0.424670 0.978700 0.127693
0.523314 0.981131 0.130124
0.663421 0.984584 0.133576
0.722841 0.986048 0.135041
0.776868 0.987379 0.136372
0.992698 0.992698 0.141691
0.066006 0.070701 0.149788
0.121995 0.072081 0.151167
0.231907 0.074790 0.153876
0.354880 0.077820 0.156906
0.453524 0.080251 0.159337
0.593631 0.083704 0.162790
0.653051 0.085168 0.164254
0.707078 0.086500 0.165586
0.922908 0.091818 0.170904
0.070697 0.130587 0.154479
0.126686 0.131967 0.155859
0.236598 0.134676 0.158567
0.359571 0.137706 0.161598
0.458216 0.140137 0.164029
0.598322 0.143590 0.167481
0.657743 0.145054 0.168946
0.711769 0.146386 0.170277
0.927599 0.151704 0.175596
0.081329 0.266307 0.165111
0.137318 0.267686 0.166491
0.247230 0.270395 0.169199
0.370203 0.273425 0.172230
0.468848 0.275856 0.174661
0.608954 0.279309 0.178113
0.668375 0.280773 0.179578
0.722401 0.282105 0.180909
0.938231 0.287423 0.186228
0.091608 0.397513 0.175389
0.147597 0.398893 0.176769
0.257509 0.401601 0.179478
0.380481 0.404632 0.182508
0.479126 0.407063 0.184939
0.619233 0.410515 0.188392
0.678653 0.411980 0.189856
0.732680 0.413311 0.191187
0.948510 0.418630 0.196506
0.099898 0.503343 0.183680
0.155887 0.504722 0.185059
0.265799 0.507431 0.187768
0.388772 0.510461 0.190798
0.487416 0.512892 0.193229
0.627523 0.516345 0.196682
0.686944 0.517809 0.198146
0.740970 0.519141 0.199478
0.956800 0.524459 0.204797
0.107995 0.606697 0.191776
0.163984 0.608077 0.193156
0.273896 0.610786 0.195865
0.396868 0.613816 0.198895
0.495513 0.616247 0.201326
0.635620 0.619700 0.204779
0.695040 0.621164 0.206243
0.749067 0.622495 0.207574
0.964897 0.627814 0.212893
0.115931 0.708008 0.199713
0.171920 0.709388 0.201092
0.281832 0.712096 0.203801
0.404805 0.715127 0.206831
0.503449 0.717557 0.209262
0.643556 0.721010 0.212715
0.702977 0.722474 0.214179
0.757003 0.723806 0.215511
0.972833 0.729125 0.220830
0.121123 0.774289 0.204905
0.177112 0.775669 0.206285
0.287024 0.778377 0.208993
0.409997 0.781408 0.212024
0.508642 0.783838 0.214455
0.648749 0.787291 0.217907
0.708169 0.788755 0.219372
0.762195 0.790087 0.220703
0.978026 0.795406 0.226022
0.136645 0.972431 0.220427
0.192634 0.973810 0.221807
0.302546 0.976519 0.224515
0.425519 0.979549 0.227546
0.524164 0.981980 0.229977
0.664271 0.985433 0.233429
0.723691 0.986897 0.234894
0.777717 0.988229 0.236225
0.993547 0.993547 0.241544
0.067055 0.071751 0.273122
0.123044 0.073130 0.274502
0.232956 0.075839 0.277211
0.355929 0.078870 0.280241
0.454574 0.081300 0.282672
0.594680 0.084753 0.286125
0.654101 0.086217 0.287589
0.708127 0.087549 0.288921
0.923957 0.092868 0.294239
0.071747 0.131637 0.277814
0.127736 0.133016 0.279194
0.237648 0.135725 0.281902
0.360620 0.138755 0.284933
0.459265 0.141186 0.287363
0.599372 0.144639 0.290816
0.658792 0.146103 0.292280
0.712819 0.147435 0.293612
0.928649 0.152754 0.298931
0.082378 0.267356 0.288446
0.138368 0.268736 0.289825
0.248280 0.271444 0.292534
0.371252 0.274475 0.295564
0.469897 0.276905 0.297995
0.610004 0.280358 0.301448
0.669424 0.281822 0.302912
0.723450 0.283154 0.304244
0.939281 0.288473 0.309563
0.092657 0.398562 0.298724
0.148646 0.399942 0.300104
0.258558 0.402650 0.302812
0.381531 0.405681 0.305843
0.480175 0.408112 0.308274
0.620282 0.411565 0.311726
0.679702 0.413029 0.313191
0.733729 0.414360 0.314522
0.949559 0.419679 0.319841
0.100947 0.504392 0.307015
0.156936 0.505772 0.308394
0.266848 0.508480 0.311103
0.389821 0.511511 0.314133
0.488466 0.513941 0.316564
0.628573 0.517394 0.320017
0.687993 0.518858 0.321481
0.742019 0.520190 0.322813
0.957849 0.525509 0.328131
0.109044 0.607746 0.315111
0.165033 0.609126 0.316491
0.274945 0.611835 0.319199
0.397918 0.614865 0.322230
0.496562 0.617296 0.324661
0.636669 0.620749 0.328114
0.696089 0.622213 0.329578
0.750116 0.623545 0.330909
0.965946 0.628863 0.336228
0.116980 0.709057 0.323048
0.172969 0.710437 0.324427
0.282881 0.713145 0.327136
0.405854 0.716176 0.330166
0.504499 0.718607 0.332597
0.644606 0.722059 0.336050
0.704026 0.723524 0.337514
0.758052 0.724855 0.338846
0.973882 0.730174 0.344164
0.122173 0.775338 0.328240
0.178162 0.776718 0.329620
0.288074 0.779426 0.332328
0.411046 0.782457 0.335359
0.509691 0.784888 0.337790
0.649798 0.788340 0.341242
0.709218 0.789805 0.342707
0.763245 0.791136 0.344038
0.979075 0.796455 0.349357
0.137695 0.973480 0.343762
0.193684 0.974860 0.345142
0.303596 0.977568 0.347850
0.426568 0.980599 0.350881
0.525213 0.983030 0.353312
0.665320 0.986482 0.356764
0.724740 0.987947 0.358229
0.778767 0.989278 0.359560
0.994597 0.994597 0.364879
0.067975 0.072671 0.381236
0.123964 0.074050 0.382616
0.233876 0.076759 0.385324
0.356849 0.079789 0.388355
0.455493 0.082220 0.390786
0.595600 0.085673 0.394238
0.655020 0.087137 0.395703
0.709047 0.088469 0.397034
0.924877 0.093787 0.402353
0.072666 0.132556 0.385927
0.128655 0.133936 0.387307
0.238567 0.136645 0.390016
0.361540 0.139675 0.393046
0.460185 0.142106 0.395477
0.600291 0.145559 0.398930
0.659712 0.147023 0.400394
0.713738 0.148355 0.401725
0.929568 0.153673 0.407044
0.083298 0.268276 0.396559
0.139287 0.269655 0.397939
0.249199 0.272364 0.400647
0.372172 0.275394 0.403678
0.470817 0.277825 0.406109
0.610923 0.281278 0.409561
0.670344 0.282742 0.411026
0.724370 0.284074 0.412357
0.940200 0.289392 0.417676
0.093577 0.399482 0.406837
0.149566 0.400862 0.408217
0.259478 0.403570 0.410926
0.382450 0.406601 0.413956
0.481095 0.409032 0.416387
0.621202 0.412484 0.419840
0.680622 0.413949 0.421304
0.734649 0.415280 0.422636
0.950479 0.420599 0.427954
0.101867 0.505312 0.415128
0.157856 0.506691 0.416508
0.267768 0.509400 0.419216
0.390741 0.512430 0.422247
0.489385 0.514861 0.424678
0.629492 0.518314 0.428130
0.688913 0.519778 0.429595
0.742939 0.521110 0.430926
0.958769 0.526428 0.436245
0.109964 0.608666 0.423224
0.165953 0.610046 0.424604
0.275865 0.612755 0.427313
0.398837 0.615785 0.430343
0.497482 0.618216 0.432774
0.637589 0.621669 0.436227
0.697009 0.623133 0.437691
0.751036 0.624464 0.439023
0.966866 0.629783 0.444341
0.117900 0.709977 0.431161
0.173889 0.711357 0.432541
0.283801 0.714065 0.435249
0.406774 0.717096 0.438280
0.505418 0.719526 0.440711
0.645525 0.722979 0.444163
0.704946 0.724443 0.445628
0.758972 0.725775 0.446959
0.974802 0.731094 0.452278
0.123092 0.776258 0.436353
0.179081 0.777638 0.437733
0.288993 0.780346 0.440442
0.411966 0.783377 0.443472
0.510611 0.785808 0.445903
0.650718 0.789260 0.449356
0.710138 0.790725 0.450820
0.764164 0.792056 0.452151
0.979995 0.797375 0.457470
0.138614 0.974400 0.451875
0.194603 0.975779 0.453255
0.304515 0.978488 0.455964
0.427488 0.981518 0.458994
0.526133 0.983949 0.461425
0.666240 0.987402 0.464878
0.725660 0.988866 0.466342
0.779686 0.990198 0.467673
0.995517 0.995517 0.472992
0.068556 0.073251 0.449484
0.124545 0.074631 0.450864
0.234457 0.077339 0.453573
0.357429 0.080370 0.456603
0.456074 0.082801 0.459034
0.596181 0.086254 0.462487
0.655601 0.087718 0.463951
0.709628 0.089049 0.465282
0.925458 0.094368 0.470601
0.073247 0.133137 0.454176
0.129236 0.134517 0.455555
0.239148 0.137225 0.458264
0.362121 0.140256 0.461294
0.460765 0.142687 0.463725
0.600872 0.146139 0.467178
0.660292 0.147604 0.468642
0.714319 0.148935 0.469974
0.930149 0.154254 0.475292
0.083879 0.268856 0.464808
0.139868 0.270236 0.466187
0.249780 0.272945 0.468896
0.372753 0.275975 0.471926
0.471397 0.278406 0.474357
0.611504 0.281859 0.477810
0.670924 0.283323 0.479274
0.724951 0.284654 0.480606
0.940781 0.289973 0.485924
0.094157 0.400063 0.475086
0.150146 0.401442 0.476466
0.260058 0.404151 0.479174
0.383031 0.407181 0.482205
0.481676 0.409612 0.484636
0.621782 0.413065 0.488088
0.681203 0.414529 0.489553
0.735229 0.415861 0.490884
0.951059 0.421179 0.496203
0.102448 0.505892 0.483376
0.158437 0.507272 0.484756
0.268349 0.509981 0.487465
0.391321 0.513011 0.490495
0.489966 0.515442 0.492926
0.630073 0.518895 0.496379
0.689493 0.520359 0.497843
0.743520 0.521690 0.499175
0.959350 0.527009 0.504493
0.110544 0.609247 0.491473
0.166533 0.610627 0.492853
0.276445 0.613335 0.495561
0.399418 0.616366 0.498592
0.498063 0.618797 0.501023
0.638169 0.622249 0.504475
0.697590 0.623714 0.505940
0.751616 0.625045 0.507271
0.967446 0.630364 0.512590
0.118481 0.710557 0.499409
0.174470 0.711937 0.500789
0.284382 0.714646 0.503498
0.407354 0.717676 0.506528
0.505999 0.720107 0.508959
0.646106 0.723560 0.512412
0.705526 0.725024 0.513876
0.759553 0.726356 0.515208
0.975383 0.731674 0.520526
0.123673 0.776838 0.504602
0.179662 0.778218 0.505981
0.289574 0.780927 0.508690
0.412547 0.783957 0.511720
0.511191 0.786388 0.514151
0.651298 0.789841 0.517604
0.710718 0.791305 0.519068
0.764745 0.792637 0.520400
0.980575 0.797955 0.525719
0.139195 0.974980 0.520124
0.195184 0.976360 0.521503
0.305096 0.979069 0.524212
0.428069 0.982099 0.527242
0.526713 0.984530 0.529673
0.666820 0.987983 0.533126
0.726240 0.989447 0.534590
0.780267 0.990778 0.535922
0.996097 0.996097 0.541241
0.069226 0.073921 0.528252
0.125215 0.075301 0.529632
0.235127 0.078010 0.532340
0.358099 0.081040 0.535371
0.456744 0.083471 0.537802
0.596851 0.086924 0.541255
0.656271 0.088388 0.542719
0.710298 0.089719 0.544050
0.926128 0.095038 0.549369
0.073917 0.133807 0.532943
0.129906 0.135187 0.534323
0.239818 0.137896 0.537032
0.362791 0.140926 0.540062
0.461435 0.143357 0.542493
0.601542 0.146810 0.545946
0.660963 0.148274 0.547410
0.714989 0.149605 0.548742
0.930819 0.154924 0.554060
0.084549 0.269526 0.543575
0.140538 0.270906 0.544955
0.250450 0.273615 0.547664
0.373423 0.276645 0.550694
0.472067 0.279076 0.553125
0.612174 0.282529 0.556578
0.671594 0.283993 0.558042
0.725621 0.285324 0.559373
0.941451 0.290643 0.564692
0.094827 0.400733 0.553854
0.150816 0.402112 0.555234
0.260728 0.404821 0.557942
0.383701 0.407851 0.560973
0.482346 0.410282 0.563403
0.622453 0.413735 0.566856
0.681873 0.415199 0.568320
0.735899 0.416531 0.569652
0.951730 0.421850 0.574971
0.103118 0.506562 0.562144
0.159107 0.507942 0.563524
0.269019 0.510651 0.566233
0.391992 0.513681 0.569263
0.490636 0.516112 0.571694
0.630743 0.519565 0.575147
0.690163 0.521029 0.576611
0.744190 0.522360 0.577942
0.960020 0.527679 0.583261
0.111214 0.609917 0.570241
0.167203 0.611297 0.571621
0.277115 0.614005 0.574329
0.400088 0.617036 0.577360
0.498733 0.619467 0.579791
0.638840 0.622919 0.583243
0.698260 0.624384 0.584708
0.752286 0.625715 0.586039
0.968117 0.631034 0.591358
0.119151 0.711228 0.578177
0.175140 0.712607 0.579557
0.285052 0.715316 0.582266
0.408025 0.718346 0.585296
0.506669 0.720777 0.587727
0.646776 0.724230 0.591180
0.706196 0.725694 0.592644
0.760223 0.727026 0.593975
0.976053 0.732344 0.599294
0.124343 0.777509 0.583370
0.180332 0.778888 0.584749
0.290244 0.781597 0.587458
0.413217 0.784627 0.590488
0.511861 0.787058 0.592919
0.651968 0.790511 0.596372
0.711389 0.791975 0.597836
0.765415 0.793307 0.599168
0.981245 0.798625 0.604486
0.139865 0.975650 0.598892
0.195854 0.977030 0.600271
0.305766 0.979739 0.602980
0.428739 0.982769 0.606010
0.527383 0.985200 0.608441
0.667490 0.988653 0.611894
0.726911 0.990117 0.613358
0.780937 0.991448 0.614690
0.996767 0.996767 0.620008
0.069699 0.074395 0.583894
0.125688 0.075774 0.585273
0.235600 0.078483 0.587982
0.358573 0.081513 0.591012
0.457217 0.083944 0.593443
0.597324 0.087397 0.596896
0.656745 0.088861 0.598360
0.710771 0.090193 0.599692
0.926601 0.095511 0.605011
0.074390 0.134281 0.588585
0.130379 0.135660 0.589965
0.240291 0.138369 0.592673
0.363264 0.141399 0.595704
0.461909 0.143830 0.598135
0.602016 0.147283 0.601587
0.661436 0.148747 0.603052
0.715462 0.150079 0.604383
0.931293 0.155397 0.609702
0.085022 0.270000 0.599217
0.141011 0.271379 0.600597
0.250923 0.274088 0.603305
0.373896 0.277118 0.606336
0.472541 0.279549 0.608767
0.612648 0.283002 0.612219
0.672068 0.284466 0.613684
0.726094 0.285798 0.615015
0.941924 0.291117 0.620334
0.095301 0.401206 0.609495
0.151290 0.402586 0.610875
0.261202 0.405294 0.613584
0.384174 0.408325 0.616614
0.482819 0.410756 0.619045
0.622926 0.414208 0.622498
0.682346 0.415673 0.623962
0.736373 0.417004 0.625293
0.952203 0.422323 0.630612
0.103591 0.507036 0.617786
0.159580 0.508415 0.619166
0.269492 0.511124 0.621874
0.392465 0.514154 0.624905
0.491109 0.516585 0.627335
0.631216 0.520038 0.630788
0.690637 0.521502 0.632252
0.744663 0.522834 0.633584
0.960493 0.528153 0.638903
0.111688 0.610390 0.625882
0.167677 0.611770 0.627262
0.277589 0.614479 0.629971
0.400562 0.617509 0.633001
0.499206 0.619940 0.635432
0.639313 0.623393 0.638885
0.698733 0.624857 0.640349
0.752760 0.626188 0.641680
0.968590 0.631507 0.646999
0.119624 0.711701 0.633819
0.175613 0.713081 0.635199
0.285525 0.715789 0.637907
0.408498 0.718820 0.640938
0.507142 0.721251 0.643368
0.647249 0.724703 0.646821
0.706670 0.726168 0.648285
0.760696 0.727499 0.649617
0.976526 0.732818 0.654936
0.124816 0.777982 0.639011
0.180806 0.779362 0.640391
0.290718 0.782070 0.643099
0.413690 0.785101 0.646130
0.512335 0.787532 0.648561
0.652442 0.790984 0.652013
0.711862 0.792449 0.653478
0.765888 0.793780 0.654809
0.981719 0.799099 0.660128
0.140338 0.976124 0.654533
0.196328 0.977504 0.655913
0.306240 0.980212 0.658621
0.429212 0.983243 0.661652
0.527857 0.985673 0.664083
0.667964 0.989126 0.667535
0.727384 0.990590 0.669000
0.781410 0.991922 0.670331
0.997241 0.997241 0.675650
0.070201 0.074897 0.642907
0.126190 0.076276 0.644287
0.236102 0.078985 0.646995
0.359075 0.082015 0.650026
0.457719 0.084446 0.652457
0.597826 0.087899 0.655909
0.657247 0.089363 0.657374
0.711273 0.090695 0.658705
0.927103 0.096014 0.664024
0.074892 0.134783 0.647598
0.130882 0.136162 0.648978
0.240794 0.138871 0.651687
0.363766 0.141901 0.654717
0.462411 0.144332 0.657148
0.602518 0.147785 0.660601
0.661938 0.149249 0.662065
0.715964 0.150581 0.663396
0.931795 0.155899 0.668715
0.085524 0.270502 0.658230
0.141513 0.271881 0.659610
0.251425 0.274590 0.662319
0.374398 0.277620 0.665349
0.473043 0.280051 0.667780
0.613150 0.283504 0.671233
0.672570 0.284968 0.672697
0.726596 0.286300 0.674028
0.942427 0.291619 0.679347
0.095803 0.401708 0.668509
0.151792 0.403088 0.669888
0.261704 0.405796 0.672597
0.384677 0.408827 0.675627
0.483321 0.411258 0.678058
0.623428 0.414710 0.681511
0.682848 0.416175 0.682975
0.736875 0.417506 0.684307
0.952705 0.422825 0.689625
0.104093 0.507538 0.676799
0.160082 0.508917 0.678179
0.269994 0.511626 0.680887
0.392967 0.514656 0.683918
0.491612 0.517087 0.686349
0.631718 0.520540 0.689801
0.691139 0.522004 0.691266
0.745165 0.523336 0.692597
0.960995 0.528655 0.697916
0.112190 0.610892 0.684896
0.168179 0.612272 0.686275
0.278091 0.614981 0.688984
0.401064 0.618011 0.692014
0.499708 0.620442 0.694445
0.639815 0.623895 0.697898
0.699235 0.625359 0.699362
0.753262 0.626690 0.700694
0.969092 0.632009 0.706012
0.120126 0.712203 0.692832
0.176115 0.713583 0.694212
0.286027 0.716291 0.696920
0.409000 0.719322 0.699951
0.507645 0.721753 0.702382
0.647751 0.725205 0.705834
0.707172 0.726670 0.707299
0.761198 0.728001 0.708630
0.977028 0.733320 0.713949
0.125319 0.778484 0.698024
0.181308 0.779864 0.699404
0.291220 0.782572 0.702113
0.414192 0.785603 0.705143
0.512837 0.788034 0.707574
0.652944 0.791486 0.711027
0.712364 0.792951 0.712491
0.766391 0.794282 0.713822
0.982221 0.799601 0.719141
0.140840 0.976626 0.713546
0.196830 0.978006 0.714926
0.306742 0.980714 0.717635
0.429714 0.983745 0.720665
0.528359 0.986176 0.723096
0.668466 0.989628 0.726549
0.727886 0.991093 0.728013
0.781912 0.992424 0.729344
0.997743 0.997743 0.734663
0.072458 0.077154 0.908244
0.128448 0.078534 0.909624
0.238360 0.081242 0.912332
0.361332 0.084273 0.915363
0.459977 0.086704 0.917793
0.600084 0.090156 0.921246
0.659504 0.091621 0.922710
0.713530 0.092952 0.924042
0.929361 0.098271 0.929361
0.077150 0.137040 0.912935
0.133139 0.138420 0.914315
0.243051 0.141128 0.917023
0.366024 0.144159 0.920054
0.464668 0.146590 0.922485
0.604775 0.150042 0.925937
0.664195 0.151507 0.927402
0.718222 0.152838 0.928733
0.934052 0.158157 0.934052
0.087782 0.272759 0.923567
0.143771 0.274139 0.924947
0.253683 0.276847 0.927655
0.376655 0.279878 0.930686
0.475300 0.282309 0.933117
0.615407 0.285761 0.936569
0.674827 0.287226 0.938034
0.728854 0.288557 0.939365
0.944684 0.293876 0.944684
0.098060 0.403965 0.933845
0.154049 0.405345 0.935225
0.263961 0.408054 0.937934
0.386934 0.411084 0.940964
0.485578 0.413515 0.943395
0.625685 0.416968 0.946848
0.685106 0.418432 0.948312
0.739132 0.419763 0.949644
0.954962 0.425082 0.954962
0.106351 0.509795 0.942136
0.162340 0.511175 0.943516
0.272252 0.513883 0.946224
0.395224 0.516914 0.949255
0.493869 0.519345 0.951686
0.633976 0.522797 0.955138
0.693396 0.524262 0.956603
0.747423 0.525593 0.957934
0.963253 0.530912 0.963253
0.114447 0.613150 0.950232
0.170436 0.614529 0.951612
0.280348 0.617238 0.954321
0.403321 0.620268 0.957351
0.501965 0.622699 0.959782
0.642072 0.626152 0.963235
0.701493 0.627616 0.964699
0.755519 0.628948 0.966031
0.971349 0.634267 0.971349
0.122384 0.714460 0.958169
0.178373 0.715840 0.959549
0.288285 0.718549 0.962257
0.411257 0.721579 0.965288
0.509902 0.724010 0.967719
0.650009 0.727463 0.971171
0.709429 0.728927 0.972636
0.763456 0.730258 0.973967
0.979286 0.735577 0.979286
0.127576 0.780741 0.963361
0.183565 0.782121 0.964741
0.293477 0.784830 0.967450
0.416450 0.787860 0.970480
0.515094 0.790291 0.972911
0.655201 0.793744 0.976364
0.714621 0.795208 0.977828
0.768648 0.796539 0.979159
0.984478 0.801858 0.984478
0.143098 0.978883 0.978883
0.199087 0.980263 0.980263
0.308999 0.982971 0.982971
0.431972 0.986002 0.986002
0.530616 0.988433 0.988433
0.670723 0.991886 0.991886
0.730143 0.993350 0.993350
0.784170 0.994681 0.994681
1.000000 1.000000 1.000000
