assets/preview/luts/cc_baile.cube
# Recriado de uma referência do usuário (2026-08-17) medindo o vídeo.
# Filtro original: "Baile de Formatura" (CapCut). Curva por canal + saturação 0.89x.
TITLE "Baile de Formatura"
LUT_3D_SIZE 33
DOMAIN_MIN 0.0 0.0 0.0
DOMAIN_MAX 1.0 1.0 1.0
0.065156 0.069852 0.049935
0.077309 0.070151 0.050234
0.088780 0.070434 0.050517
0.100892 0.070733 0.050815
0.121146 0.071232 0.051314
0.141400 0.071731 0.051813
0.165633 0.072328 0.052411
0.201046 0.073201 0.053283
0.231058 0.073940 0.054023
0.261708 0.074696 0.054778
0.292567 0.075456 0.055539
0.325394 0.076265 0.056348
0.354030 0.076971 0.057053
0.389672 0.077849 0.057932
0.408007 0.078301 0.058384
0.429175 0.078823 0.058905
0.452675 0.079402 0.059484
0.481821 0.080120 0.060203
0.519285 0.081043 0.061126
0.562766 0.082115 0.062197
0.592782 0.082854 0.062937
0.609672 0.083271 0.063353
0.626958 0.083697 0.063779
0.642357 0.084076 0.064159
0.652202 0.084319 0.064401
0.663256 0.084591 0.064674
0.676501 0.084918 0.065000
0.688225 0.085206 0.065289
0.706228 0.085650 0.065733
0.732348 0.086294 0.066376
0.762561 0.087038 0.067121
0.835185 0.088828 0.068911
0.922059 0.090969 0.071051
0.066318 0.084678 0.051096
0.078470 0.084977 0.051396
0.089941 0.085260 0.051678
0.102054 0.085559 0.051977
0.122307 0.086058 0.052476
0.142561 0.086557 0.052975
0.166794 0.087154 0.053572
0.202208 0.088027 0.054445
0.232219 0.088766 0.055184
0.262869 0.089522 0.055940
0.293728 0.090282 0.056700
0.326555 0.091091 0.057509
0.355192 0.091797 0.058215
0.390833 0.092675 0.059093
0.409168 0.093127 0.059545
0.430336 0.093648 0.060067
0.453836 0.094228 0.060646
0.482982 0.094946 0.061364
0.520446 0.095869 0.062287
0.563928 0.096941 0.063359
0.593943 0.097680 0.064098
0.610834 0.098097 0.064515
0.628119 0.098522 0.064941
0.643518 0.098902 0.065320
0.653363 0.099145 0.065563
0.664417 0.099417 0.065835
0.677662 0.099743 0.066162
0.689386 0.100032 0.066450
0.707390 0.100476 0.066894
0.733509 0.101120 0.067538
0.763722 0.101864 0.068282
0.836346 0.103654 0.070072
0.923220 0.105795 0.072213
0.067350 0.097852 0.052128
0.079502 0.098152 0.052428
0.090973 0.098434 0.052710
0.103086 0.098733 0.053009
0.123339 0.099232 0.053508
0.143594 0.099731 0.054007
0.167826 0.100328 0.054604
0.203240 0.101201 0.055477
0.233251 0.101941 0.056216
0.263901 0.102696 0.056972
0.294760 0.103456 0.057732
0.327587 0.104265 0.058541
0.356224 0.104971 0.059247
0.391865 0.105849 0.060125
0.410200 0.106301 0.060577
0.431368 0.106823 0.061099
0.454868 0.107402 0.061678
0.484014 0.108120 0.062396
0.521478 0.109044 0.063319
0.564960 0.110115 0.064391
0.594975 0.110855 0.065130
0.611866 0.111271 0.065547
0.629151 0.111697 0.065973
0.644550 0.112076 0.066352
0.654395 0.112319 0.066595
0.665449 0.112591 0.066867
0.678695 0.112918 0.067194
0.690419 0.113207 0.067483
0.708422 0.113650 0.067926
0.734541 0.114294 0.068570
0.764754 0.115039 0.069314
0.837378 0.116828 0.071104
0.924252 0.118969 0.073245
0.068533 0.112951 0.053311
0.080685 0.113251 0.053610
0.092156 0.113534 0.053893
0.104268 0.113832 0.054192
0.124522 0.114331 0.054691
0.144776 0.114830 0.055190
0.169009 0.115428 0.055787
0.204423 0.116300 0.056660
0.234434 0.117040 0.057399
0.265084 0.117795 0.058155
0.295943 0.118556 0.058915
0.328770 0.119365 0.059724
0.357407 0.120070 0.060430
0.393048 0.120949 0.061308
0.411383 0.121400 0.061760
0.432551 0.121922 0.062282
0.456051 0.122501 0.062861
0.485197 0.123219 0.063579
0.522661 0.124143 0.064502
0.566142 0.125214 0.065574
0.596158 0.125954 0.066313
0.613049 0.126370 0.066730
0.630334 0.126796 0.067156
0.645733 0.127176 0.067535
0.655578 0.127418 0.067778
0.666632 0.127691 0.068050
0.679877 0.128017 0.068376
0.691601 0.128306 0.068665
0.709605 0.128750 0.069109
0.735724 0.129393 0.069753
0.765937 0.130138 0.070497
0.838561 0.131927 0.072287
0.925435 0.134068 0.074428
0.069848 0.129738 0.054626
0.082000 0.130037 0.054925
0.093471 0.130320 0.055208
0.105583 0.130619 0.055507
0.125837 0.131118 0.056006
0.146091 0.131617 0.056505
0.170324 0.132214 0.057102
0.205738 0.133087 0.057975
0.235749 0.133826 0.058714
0.266399 0.134582 0.059470
0.297258 0.135342 0.060230
0.330085 0.136151 0.061039
0.358722 0.136857 0.061745
0.394363 0.137735 0.062623
0.412698 0.138187 0.063075
0.433866 0.138709 0.063597
0.457366 0.139288 0.064176
0.486512 0.140006 0.064894
0.523976 0.140929 0.065817
0.567457 0.142001 0.066889
0.597473 0.142740 0.067628
0.614364 0.143157 0.068045
0.631649 0.143583 0.068471
0.647048 0.143962 0.068850
0.656893 0.144205 0.069093
0.667947 0.144477 0.069365
0.681192 0.144803 0.069691
0.692916 0.145092 0.069980
0.710920 0.145536 0.070424
0.737039 0.146180 0.071068
0.767252 0.146924 0.071812
0.839876 0.148714 0.073602
0.926750 0.150855 0.075743
0.071939 0.156432 0.056717
0.084091 0.156732 0.057017
0.095562 0.157014 0.057299
0.107675 0.157313 0.057598
0.127928 0.157812 0.058097
0.148183 0.158311 0.058596
0.172415 0.158908 0.059193
0.207829 0.159781 0.060066
0.237840 0.160521 0.060805
0.268490 0.161276 0.061561
0.299349 0.162036 0.062321
0.332176 0.162845 0.063130
0.360813 0.163551 0.063836
0.396454 0.164429 0.064714
0.414789 0.164881 0.065166
0.435957 0.165403 0.065688
0.459457 0.165982 0.066267
0.488603 0.166700 0.066985
0.526067 0.167624 0.067908
0.569549 0.168695 0.068980
0.599564 0.169435 0.069720
0.616455 0.169851 0.070136
0.633740 0.170277 0.070562
0.649139 0.170656 0.070941
0.658984 0.170899 0.071184
0.670038 0.171171 0.071456
0.683284 0.171498 0.071783
0.695008 0.171787 0.072072
0.713011 0.172230 0.072515
0.739130 0.172874 0.073159
0.769343 0.173619 0.073903
0.841968 0.175408 0.075693
0.928841 0.177549 0.077834
0.074157 0.184752 0.058936
0.086310 0.185052 0.059235
0.097781 0.185335 0.059518
0.109893 0.185633 0.059816
0.130147 0.186132 0.060315
0.150401 0.186631 0.060815
0.174634 0.187228 0.061412
0.210048 0.188101 0.062284
0.240059 0.188841 0.063024
0.270709 0.189596 0.063779
0.301568 0.190356 0.064540
0.334395 0.191165 0.065349
0.363031 0.191871 0.066054
0.398673 0.192749 0.066933
0.417008 0.193201 0.067385
0.438176 0.193723 0.067906
0.461676 0.194302 0.068485
0.490822 0.195020 0.069204
0.528286 0.195944 0.070127
0.571767 0.197015 0.071198
0.601783 0.197755 0.071938
0.618673 0.198171 0.072354
0.635959 0.198597 0.072780
0.651358 0.198976 0.073160
0.661203 0.199219 0.073402
0.672257 0.199491 0.073675
0.685502 0.199818 0.074001
0.697226 0.200107 0.074290
0.715229 0.200550 0.074734
0.741349 0.201194 0.075377
0.771562 0.201939 0.076122
0.844186 0.203728 0.077912
0.931060 0.205869 0.080052
0.077989 0.233665 0.062767
0.090142 0.233965 0.063067
0.101612 0.234247 0.063349
0.113725 0.234546 0.063648
0.133978 0.235045 0.064147
0.154233 0.235544 0.064646
0.178465 0.236141 0.065243
0.213879 0.237014 0.066116
0.243890 0.237753 0.066856
0.274541 0.238509 0.067611
0.305400 0.239269 0.068371
0.338227 0.240078 0.069180
0.366863 0.240784 0.069886
0.402504 0.241662 0.070764
0.420840 0.242114 0.071216
0.442008 0.242636 0.071738
0.465508 0.243215 0.072317
0.494654 0.243933 0.073035
0.532118 0.244856 0.073959
0.575599 0.245928 0.075030
0.605614 0.246668 0.075770
0.622505 0.247084 0.076186
0.639790 0.247510 0.076612
0.655190 0.247889 0.076991
0.665035 0.248132 0.077234
0.676089 0.248404 0.077506
0.689334 0.248731 0.077833
0.701058 0.249020 0.078122
0.719061 0.249463 0.078565
0.745180 0.250107 0.079209
0.775393 0.250851 0.079954
0.848018 0.252641 0.081743
0.934891 0.254782 0.083884
0.080480 0.265457 0.065258
0.092632 0.265757 0.065557
0.104103 0.266039 0.065840
0.116215 0.266338 0.066138
0.136469 0.266837 0.066638
0.156723 0.267336 0.067137
0.180956 0.267933 0.067734
0.216370 0.268806 0.068607
0.246381 0.269545 0.069346
0.277031 0.270301 0.070102
0.307890 0.271061 0.070862
0.340717 0.271870 0.071671
0.369353 0.272576 0.072377
0.404995 0.273454 0.073255
0.423330 0.273906 0.073707
0.444498 0.274428 0.074228
0.467998 0.275007 0.074808
0.497144 0.275725 0.075526
0.534608 0.276648 0.076449
0.578089 0.277720 0.077521
0.608105 0.278459 0.078260
0.624996 0.278876 0.078676
0.642281 0.279302 0.079102
0.657680 0.279681 0.079482
0.667525 0.279924 0.079725
0.678579 0.280196 0.079997
0.691824 0.280523 0.080323
0.703548 0.280811 0.080612
0.721552 0.281255 0.081056
0.747671 0.281899 0.081700
0.777884 0.282643 0.082444
0.850508 0.284433 0.084234
0.937382 0.286574 0.086375
0.082463 0.290770 0.067241
0.094615 0.291069 0.067540
0.106086 0.291352 0.067823
0.118198 0.291650 0.068121
0.138452 0.292149 0.068621
0.158706 0.292649 0.069120
0.182939 0.293246 0.069717
0.218353 0.294118 0.070590
0.248364 0.294858 0.071329
0.279014 0.295613 0.072084
0.309873 0.296374 0.072845
0.342700 0.297183 0.073654
0.371336 0.297888 0.074360
0.406978 0.298767 0.075238
0.425313 0.299219 0.075690
0.446481 0.299740 0.076211
0.469981 0.300319 0.076790
0.499127 0.301038 0.077509
0.536591 0.301961 0.078432
0.580072 0.303032 0.079504
0.610088 0.303772 0.080243
0.626979 0.304188 0.080659
0.644264 0.304614 0.081085
0.659663 0.304994 0.081465
0.669508 0.305236 0.081707
0.680562 0.305509 0.081980
0.693807 0.305835 0.082306
0.705531 0.306124 0.082595
0.723535 0.306568 0.083039
0.749654 0.307211 0.083683
0.779867 0.307956 0.084427
0.852491 0.309746 0.086217
0.939365 0.311887 0.088358
0.085757 0.332828 0.070536
0.097910 0.333127 0.070835
0.109381 0.333410 0.071118
0.121493 0.333708 0.071416
0.141746 0.334207 0.071915
0.162001 0.334707 0.072414
0.186233 0.335304 0.073012
0.221647 0.336176 0.073884
0.251658 0.336916 0.074624
0.282309 0.337671 0.075379
0.313168 0.338432 0.076140
0.345995 0.339241 0.076949
0.374631 0.339946 0.077654
0.410273 0.340825 0.078533
0.428608 0.341277 0.078984
0.449776 0.341798 0.079506
0.473276 0.342377 0.080085
0.502422 0.343096 0.080803
0.539886 0.344019 0.081727
0.583367 0.345090 0.082798
0.613383 0.345830 0.083538
0.630273 0.346246 0.083954
0.647558 0.346672 0.084380
0.662958 0.347052 0.084760
0.672803 0.347294 0.085002
0.683857 0.347567 0.085275
0.697102 0.347893 0.085601
0.708826 0.348182 0.085890
0.726829 0.348626 0.086334
0.752949 0.349269 0.086977
0.783162 0.350014 0.087722
0.855786 0.351804 0.089512
0.942660 0.353944 0.091652
0.088406 0.366638 0.073184
0.100558 0.366937 0.073484
0.112029 0.367220 0.073766
0.124142 0.367518 0.074065
0.144395 0.368017 0.074564
0.164650 0.368517 0.075063
0.188882 0.369114 0.075660
0.224296 0.369986 0.076533
0.254307 0.370726 0.077272
0.284957 0.371481 0.078028
0.315816 0.372242 0.078788
0.348643 0.373051 0.079597
0.377280 0.373756 0.080303
0.412921 0.374635 0.081181
0.431256 0.375087 0.081633
0.452424 0.375608 0.082155
0.475924 0.376187 0.082734
0.505070 0.376906 0.083452
0.542534 0.377829 0.084375
0.586016 0.378900 0.085447
0.616031 0.379640 0.086187
0.632922 0.380056 0.086603
0.650207 0.380482 0.087029
0.665606 0.380862 0.087408
0.675451 0.381104 0.087651
0.686505 0.381377 0.087923
0.699751 0.381703 0.088250
0.711475 0.381992 0.088539
0.729478 0.382436 0.088982
0.755597 0.383079 0.089626
0.785810 0.383824 0.090370
0.858435 0.385614 0.092160
0.945308 0.387755 0.094301
0.090758 0.396663 0.075536
0.102911 0.396963 0.075836
0.114381 0.397246 0.076118
0.126494 0.397544 0.076417
0.146747 0.398043 0.076916
0.167002 0.398542 0.077415
0.191234 0.399139 0.078012
0.226648 0.400012 0.078885
0.256659 0.400752 0.079625
0.287310 0.401507 0.080380
0.318169 0.402268 0.081140
0.350996 0.403076 0.081949
0.379632 0.403782 0.082655
0.415273 0.404661 0.083533
0.433609 0.405112 0.083985
0.454777 0.405634 0.084507
0.478276 0.406213 0.085086
0.507423 0.406931 0.085804
0.544887 0.407855 0.086727
0.588368 0.408926 0.087799
0.618383 0.409666 0.088539
0.635274 0.410082 0.088955
0.652559 0.410508 0.089381
0.667958 0.410887 0.089760
0.677804 0.411130 0.090003
0.688858 0.411403 0.090275
0.702103 0.411729 0.090602
0.713827 0.412018 0.090891
0.731830 0.412461 0.091334
0.757949 0.413105 0.091978
0.788162 0.413850 0.092723
0.860787 0.415639 0.094512
0.947660 0.417780 0.096653
0.092988 0.425127 0.077766
0.105140 0.425426 0.078066
0.116611 0.425709 0.078348
0.128724 0.426008 0.078647
0.148977 0.426507 0.079146
0.169231 0.427006 0.079645
0.193464 0.427603 0.080242
0.228878 0.428476 0.081115
0.258889 0.429215 0.081854
0.289539 0.429971 0.082610
0.320398 0.430731 0.083370
0.353225 0.431540 0.084179
0.381862 0.432246 0.084885
0.417503 0.433124 0.085763
0.435838 0.433576 0.086215
0.457006 0.434098 0.086737
0.480506 0.434677 0.087316
0.509652 0.435395 0.088034
0.547116 0.436318 0.088957
0.590598 0.437390 0.090029
0.620613 0.438129 0.090768
0.637504 0.438546 0.091185
0.654789 0.438972 0.091611
0.670188 0.439351 0.091990
0.680033 0.439594 0.092233
0.691087 0.439866 0.092505
0.704332 0.440193 0.092832
0.716056 0.440481 0.093120
0.734060 0.440925 0.093564
0.760179 0.441569 0.094208
0.790392 0.442313 0.094952
0.863016 0.444103 0.096742
0.949890 0.446244 0.098883
0.095186 0.453186 0.079964
0.107338 0.453485 0.080264
0.118809 0.453768 0.080546
0.130922 0.454066 0.080845
0.151175 0.454565 0.081344
0.171430 0.455065 0.081843
0.195662 0.455662 0.082440
0.231076 0.456534 0.083313
0.261087 0.457274 0.084052
0.291737 0.458029 0.084808
0.322596 0.458790 0.085568
0.355423 0.459599 0.086377
0.384060 0.460304 0.087083
0.419701 0.461183 0.087961
0.438036 0.461635 0.088413
0.459204 0.462156 0.088935
0.482704 0.462735 0.089514
0.511850 0.463454 0.090232
0.549314 0.464377 0.091155
0.592796 0.465448 0.092227
0.622811 0.466188 0.092966
0.639702 0.466604 0.093383
0.656987 0.467030 0.093809
0.672386 0.467410 0.094188
0.682231 0.467652 0.094431
0.693285 0.467925 0.094703
0.706531 0.468251 0.095030
0.718255 0.468540 0.095319
0.736258 0.468984 0.095762
0.762377 0.469627 0.096406
0.792590 0.470372 0.097150
0.865214 0.472162 0.098940
0.952088 0.474303 0.101081
0.097209 0.479006 0.081987
0.109361 0.479305 0.082286
0.120832 0.479588 0.082569
0.132944 0.479886 0.082867
0.153198 0.480385 0.083366
0.173452 0.480884 0.083866
0.197685 0.481482 0.084463
0.233099 0.482354 0.085336
0.263110 0.483094 0.086075
0.293760 0.483849 0.086830
0.324619 0.484610 0.087591
0.357446 0.485419 0.088400
0.386082 0.486124 0.089106
0.421724 0.487003 0.089984
0.440059 0.487455 0.090436
0.461227 0.487976 0.090957
0.484727 0.488555 0.091536
0.513873 0.489274 0.092255
0.551337 0.490197 0.093178
0.594818 0.491268 0.094249
0.624834 0.492008 0.094989
0.641725 0.492424 0.095405
0.659010 0.492850 0.095831
0.674409 0.493230 0.096211
0.684254 0.493472 0.096453
0.695308 0.493745 0.096726
0.708553 0.494071 0.097052
0.720277 0.494360 0.097341
0.738281 0.494804 0.097785
0.764400 0.495447 0.098429
0.794613 0.496192 0.099173
0.867237 0.497982 0.100963
0.954111 0.500122 0.103104
0.099049 0.502493 0.083827
0.111201 0.502793 0.084126
0.122672 0.503075 0.084409
0.134784 0.503374 0.084707
0.155038 0.503873 0.085206
0.175292 0.504372 0.085706
0.199525 0.504969 0.086303
0.234939 0.505842 0.087175
0.264950 0.506581 0.087915
0.295600 0.507337 0.088670
0.326459 0.508097 0.089431
0.359286 0.508906 0.090240
0.387922 0.509612 0.090945
0.423564 0.510490 0.091824
0.441899 0.510942 0.092276
0.463067 0.511464 0.092797
0.486567 0.512043 0.093376
0.515713 0.512761 0.094095
0.553177 0.513684 0.095018
0.596658 0.514756 0.096089
0.626674 0.515495 0.096829
0.643564 0.515912 0.097245
0.660850 0.516338 0.097671
0.676249 0.516717 0.098051
0.686094 0.516960 0.098293
0.697148 0.517232 0.098566
0.710393 0.517559 0.098892
0.722117 0.517847 0.099181
0.740121 0.518291 0.099625
0.766240 0.518935 0.100268
0.796453 0.519679 0.101013
0.869077 0.521469 0.102803
0.955951 0.523610 0.104944
0.101184 0.529752 0.085962
0.113336 0.530052 0.086262
0.124807 0.530334 0.086544
0.136920 0.530633 0.086843
0.157173 0.531132 0.087342
0.177428 0.531631 0.087841
0.201660 0.532228 0.088438
0.237074 0.533101 0.089311
0.267085 0.533840 0.090050
0.297735 0.534596 0.090806
0.328594 0.535356 0.091566
0.361421 0.536165 0.092375
0.390058 0.536871 0.093081
0.425699 0.537749 0.093959
0.444034 0.538201 0.094411
0.465202 0.538723 0.094933
0.488702 0.539302 0.095512
0.517848 0.540020 0.096230
0.555312 0.540943 0.097153
0.598794 0.542015 0.098225
0.628809 0.542754 0.098965
0.645700 0.543171 0.099381
0.662985 0.543597 0.099807
0.678384 0.543976 0.100186
0.688229 0.544219 0.100429
0.699283 0.544491 0.100701
0.712529 0.544818 0.101028
0.724253 0.545106 0.101317
0.742256 0.545550 0.101760
0.768375 0.546194 0.102404
0.798588 0.546938 0.103148
0.871213 0.548728 0.104938
0.958086 0.550869 0.107079
0.103296 0.556712 0.088074
0.115448 0.557011 0.088374
0.126919 0.557294 0.088656
0.139032 0.557592 0.088955
0.159285 0.558092 0.089454
0.179540 0.558591 0.089953
0.203772 0.559188 0.090550
0.239186 0.560061 0.091423
0.269197 0.560800 0.092162
0.299847 0.561555 0.092918
0.330706 0.562316 0.093678
0.363533 0.563125 0.094487
0.392170 0.563831 0.095193
0.427811 0.564709 0.096071
0.446146 0.565161 0.096523
0.467314 0.565682 0.097045
0.490814 0.566262 0.097624
0.519960 0.566980 0.098342
0.557424 0.567903 0.099265
0.600906 0.568975 0.100337
0.630921 0.569714 0.101076
0.647812 0.570130 0.101493
0.665097 0.570556 0.101919
0.680496 0.570936 0.102298
0.690341 0.571179 0.102541
0.701395 0.571451 0.102813
0.714640 0.571777 0.103140
0.726365 0.572066 0.103429
0.744368 0.572510 0.103872
0.770487 0.573154 0.104516
0.800700 0.573898 0.105260
0.873324 0.575688 0.107050
0.960198 0.577829 0.109191
0.105422 0.583858 0.090201
0.117575 0.584158 0.090500
0.129046 0.584440 0.090783
0.141158 0.584739 0.091081
0.161412 0.585238 0.091580
0.181666 0.585737 0.092080
0.205899 0.586334 0.092677
0.241313 0.587207 0.093549
0.271324 0.587946 0.094289
0.301974 0.588702 0.095044
0.332833 0.589462 0.095805
0.365660 0.590271 0.096614
0.394296 0.590977 0.097319
0.429938 0.591855 0.098198
0.448273 0.592307 0.098650
0.469441 0.592829 0.099171
0.492941 0.593408 0.099750
0.522087 0.594126 0.100469
0.559551 0.595049 0.101392
0.603032 0.596121 0.102463
0.633048 0.596860 0.103203
0.649938 0.597277 0.103619
0.667224 0.597703 0.104045
0.682623 0.598082 0.104425
0.692468 0.598325 0.104667
0.703522 0.598597 0.104940
0.716767 0.598924 0.105266
0.728491 0.599212 0.105555
0.746494 0.599656 0.105999
0.772614 0.600300 0.106642
0.802827 0.601044 0.107387
0.875451 0.602834 0.109177
0.962325 0.604975 0.111318
0.107145 0.605848 0.091923
0.119298 0.606147 0.092223
0.130768 0.606430 0.092505
0.142881 0.606728 0.092804
0.163134 0.607227 0.093303
0.183389 0.607727 0.093802
0.207621 0.608324 0.094399
0.243035 0.609196 0.095272
0.273046 0.609936 0.096012
0.303697 0.610691 0.096767
0.334556 0.611452 0.097527
0.367383 0.612261 0.098336
0.396019 0.612966 0.099042
0.431660 0.613845 0.099920
0.449996 0.614297 0.100372
0.471164 0.614818 0.100894
0.494663 0.615397 0.101473
0.523810 0.616116 0.102191
0.561274 0.617039 0.103114
0.604755 0.618110 0.104186
0.634770 0.618850 0.104926
0.651661 0.619266 0.105342
0.668946 0.619692 0.105768
0.684345 0.620072 0.106147
0.694191 0.620314 0.106390
0.705245 0.620587 0.106662
0.718490 0.620913 0.106989
0.730214 0.621202 0.107278
0.748217 0.621646 0.107721
0.774336 0.622289 0.108365
0.804549 0.623034 0.109110
0.877174 0.624824 0.110899
0.964047 0.626965 0.113040
0.109227 0.632418 0.094005
0.121379 0.632717 0.094304
0.132850 0.633000 0.094587
0.144962 0.633298 0.094885
0.165216 0.633798 0.095384
0.185470 0.634297 0.095884
0.209703 0.634894 0.096481
0.245117 0.635767 0.097353
0.275128 0.636506 0.098093
0.305778 0.637262 0.098848
0.336637 0.638022 0.099609
0.369464 0.638831 0.100418
0.398100 0.639537 0.101124
0.433742 0.640415 0.102002
0.452077 0.640867 0.102454
0.473245 0.641388 0.102975
0.496745 0.641968 0.103554
0.525891 0.642686 0.104273
0.563355 0.643609 0.105196
0.606836 0.644681 0.106267
0.636852 0.645420 0.107007
0.653743 0.645836 0.107423
0.671028 0.646262 0.107849
0.686427 0.646642 0.108229
0.696272 0.646885 0.108471
0.707326 0.647157 0.108744
0.720571 0.647483 0.109070
0.732295 0.647772 0.109359
0.750299 0.648216 0.109803
0.776418 0.648860 0.110446
0.806631 0.649604 0.111191
0.879255 0.651394 0.112981
0.966129 0.653535 0.115122
0.111445 0.660734 0.096223
0.123597 0.661033 0.096522
0.135068 0.661316 0.096805
0.147180 0.661614 0.097104
0.167434 0.662113 0.097603
0.187688 0.662613 0.098102
0.211921 0.663210 0.098699
0.247335 0.664082 0.099572
0.277346 0.664822 0.100311
0.307996 0.665577 0.101067
0.338855 0.666338 0.101827
0.371682 0.667147 0.102636
0.400319 0.667852 0.103342
0.435960 0.668731 0.104220
0.454295 0.669183 0.104672
0.475463 0.669704 0.105194
0.498963 0.670283 0.105773
0.528109 0.671002 0.106491
0.565573 0.671925 0.107414
0.609054 0.672996 0.108486
0.639070 0.673736 0.109225
0.655961 0.674152 0.109642
0.673246 0.674578 0.110068
0.688645 0.674958 0.110447
0.698490 0.675200 0.110690
0.709544 0.675473 0.110962
0.722789 0.675799 0.111288
0.734513 0.676088 0.111577
0.752517 0.676532 0.112021
0.778636 0.677175 0.112665
0.808849 0.677920 0.113409
0.881473 0.679710 0.115199
0.968347 0.681851 0.117340
0.113414 0.685877 0.098193
0.125567 0.686177 0.098492
0.137038 0.686459 0.098775
0.149150 0.686758 0.099073
0.169403 0.687257 0.099572
0.189658 0.687756 0.100071
0.213891 0.688353 0.100669
0.249304 0.689226 0.101541
0.279316 0.689965 0.102281
0.309966 0.690721 0.103036
0.340825 0.691481 0.103797
0.373652 0.692290 0.104606
0.402288 0.692996 0.105311
0.437930 0.693874 0.106190
0.456265 0.694326 0.106642
0.477433 0.694848 0.107163
0.500933 0.695427 0.107742
0.530079 0.696145 0.108461
0.567543 0.697068 0.109384
0.611024 0.698140 0.110455
0.641040 0.698880 0.111195
0.657930 0.699296 0.111611
0.675216 0.699722 0.112037
0.690615 0.700101 0.112417
0.700460 0.700344 0.112659
0.711514 0.700616 0.112932
0.724759 0.700943 0.113258
0.736483 0.701232 0.113547
0.754486 0.701675 0.113991
0.780606 0.702319 0.114634
0.810819 0.703063 0.115379
0.883443 0.704853 0.117169
0.970317 0.706994 0.119309
0.115082 0.707158 0.099860
0.127234 0.707458 0.100159
0.138705 0.707740 0.100442
0.150817 0.708039 0.100740
0.171071 0.708538 0.101239
0.191325 0.709037 0.101739
0.215558 0.709634 0.102336
0.250972 0.710507 0.103208
0.280983 0.711247 0.103948
0.311633 0.712002 0.104703
0.342492 0.712762 0.105464
0.375319 0.713571 0.106273
0.403955 0.714277 0.106978
0.439597 0.715155 0.107857
0.457932 0.715607 0.108309
0.479100 0.716129 0.108830
0.502600 0.716708 0.109409
0.531746 0.717426 0.110128
0.569210 0.718349 0.111051
0.612691 0.719421 0.112122
0.642707 0.720161 0.112862
0.659597 0.720577 0.113278
0.676883 0.721003 0.113704
0.692282 0.721382 0.114084
0.702127 0.721625 0.114326
0.713181 0.721897 0.114599
0.726426 0.722224 0.114925
0.738150 0.722513 0.115214
0.756154 0.722956 0.115658
0.782273 0.723600 0.116301
0.812486 0.724345 0.117046
0.885110 0.726134 0.118836
0.971984 0.728275 0.120977
0.116411 0.724131 0.101189
0.128564 0.724430 0.101489
0.140034 0.724713 0.101771
0.152147 0.725012 0.102070
0.172400 0.725511 0.102569
0.192655 0.726010 0.103068
0.216887 0.726607 0.103665
0.252301 0.727480 0.104538
0.282312 0.728219 0.105278
0.312963 0.728975 0.106033
0.343822 0.729735 0.106793
0.376649 0.730544 0.107602
0.405285 0.731250 0.108308
0.440926 0.732128 0.109186
0.459262 0.732580 0.109638
0.480430 0.733102 0.110160
0.503929 0.733681 0.110739
0.533076 0.734399 0.111457
0.570540 0.735322 0.112381
0.614021 0.736394 0.113452
0.644036 0.737133 0.114192
0.660927 0.737550 0.114608
0.678212 0.737976 0.115034
0.693612 0.738355 0.115413
0.703457 0.738598 0.115656
0.714511 0.738870 0.115928
0.727756 0.739196 0.116255
0.739480 0.739485 0.116544
0.757483 0.739929 0.116987
0.783602 0.740573 0.117631
0.813815 0.741317 0.118376
0.886440 0.743107 0.120165
0.973313 0.745248 0.122306
0.117741 0.741107 0.102519
0.129894 0.741406 0.102819
0.141364 0.741689 0.103101
0.153477 0.741987 0.103400
0.173730 0.742487 0.103899
0.193985 0.742986 0.104398
0.218217 0.743583 0.104995
0.253631 0.744456 0.105868
0.283642 0.745195 0.106607
0.314292 0.745950 0.107363
0.345151 0.746711 0.108123
0.377979 0.747520 0.108932
0.406615 0.748226 0.109638
0.442256 0.749104 0.110516
0.460591 0.749556 0.110968
0.481759 0.750077 0.111490
0.505259 0.750656 0.112069
0.534405 0.751375 0.112787
0.571869 0.752298 0.113710
0.615351 0.753369 0.114782
0.645366 0.754109 0.115522
