assets/preview/luts/cc_cafe_escuro.cube
# Recriado de uma referência do usuário (2026-08-17) medindo o vídeo.
# Filtro original: "Café Escuro" (CapCut). Curva por canal + saturação 1.33x.
TITLE "Café Escuro"
LUT_3D_SIZE 9
DOMAIN_MIN 0.0 0.0 0.0
DOMAIN_MAX 1.0 1.0 1.0
0.000000 0.000000 0.000000
0.116263 0.000000 0.000000
0.239908 0.000000 0.000000
0.390270 0.000000 0.000000
0.537107 0.000000 0.000000
0.711800 0.000000 0.000000
0.889081 0.000000 0.000000
1.000000 0.000000 0.000000
1.000000 0.000000 0.000000
0.000000 0.094088 0.000000
0.095943 0.087607 0.000000
0.219588 0.080715 0.000000
0.369950 0.072334 0.000000
0.516787 0.064150 0.000000
0.691480 0.054412 0.000000
0.868761 0.044531 0.000000
1.000000 0.033973 0.000000
1.000000 0.023848 0.000000
0.000000 0.178968 0.000000
0.077612 0.172488 0.000000
0.201257 0.165596 0.000000
0.351619 0.157215 0.000000
0.498455 0.149030 0.000000
0.673148 0.139293 0.000000
0.850430 0.129412 0.000000
1.000000 0.118854 0.000000
1.000000 0.108729 0.000000
0.000000 0.304417 0.000000
0.050519 0.297936 0.000000
0.174164 0.291044 0.000000
0.324526 0.282663 0.000000
0.471362 0.274479 0.000000
0.646056 0.264741 0.000000
0.823337 0.254860 0.000000
1.000000 0.244302 0.000000
1.000000 0.234177 0.000000
0.000000 0.409806 0.000000
0.027758 0.403326 0.000000
0.151403 0.396434 0.000000
0.301765 0.388053 0.000000
0.448601 0.379869 0.000000
0.623295 0.370131 0.000000
0.800576 0.360250 0.000000
0.989986 0.349692 0.000000
1.000000 0.339567 0.000000
0.000000 0.561678 0.000000
0.000000 0.555197 0.000000
0.118603 0.548305 0.000000
0.268966 0.539924 0.000000
0.415802 0.531740 0.000000
0.590495 0.522003 0.000000
0.767776 0.512121 0.000000
0.957186 0.501563 0.000000
1.000000 0.491438 0.000000
0.000000 0.723254 0.000000
0.000000 0.716774 0.000000
0.083708 0.709882 0.000000
0.234070 0.701501 0.000000
0.380906 0.693316 0.000000
0.555600 0.683579 0.000000
0.732881 0.673698 0.000000
0.922291 0.663140 0.000000
1.000000 0.653015 0.000000
0.000000 0.907146 0.000000
0.000000 0.900666 0.000000
0.043993 0.893774 0.000000
0.194355 0.885393 0.000000
0.341192 0.877208 0.000000
0.515885 0.867471 0.000000
0.693166 0.857589 0.000000
0.882576 0.847032 0.000000
1.000000 0.836907 0.000000
0.000000 1.000000 0.000000
0.000000 1.000000 0.000000
0.003618 1.000000 0.000000
0.153980 1.000000 0.000000
0.300817 1.000000 0.000000
0.475510 1.000000 0.000000
0.652791 1.000000 0.000000
0.842201 1.000000 0.000000
1.000000 1.000000 0.000000
0.000000 0.000000 0.121054
0.114053 0.000000 0.114574
0.237698 0.000000 0.107682
0.388060 0.000000 0.099301
0.534897 0.000000 0.091116
0.709590 0.000000 0.081379
0.886871 0.000000 0.071498
1.000000 0.000000 0.060940
1.000000 0.000000 0.050815
0.000000 0.091877 0.100734
0.093733 0.085397 0.094254
0.217378 0.078505 0.087362
0.367740 0.070124 0.078981
0.514577 0.061940 0.070796
0.689270 0.052202 0.061059
0.866551 0.042321 0.051178
1.000000 0.031763 0.040620
1.000000 0.021638 0.030495
0.000000 0.176758 0.082403
0.075401 0.170278 0.075922
0.199046 0.163386 0.069030
0.349409 0.155005 0.060649
0.496245 0.146820 0.052465
0.670938 0.137083 0.042728
0.848219 0.127202 0.032846
1.000000 0.116644 0.022288
1.000000 0.106519 0.012163
0.000000 0.302206 0.055310
0.048309 0.295726 0.048829
0.171954 0.288834 0.041938
0.322316 0.280453 0.033556
0.469152 0.272268 0.025372
0.643845 0.262531 0.015635
0.821127 0.252650 0.005753
1.000000 0.242092 0.000000
1.000000 0.231967 0.000000
0.000000 0.407596 0.032549
0.025548 0.401116 0.026068
0.149193 0.394224 0.019177
0.299555 0.385843 0.010795
0.446391 0.377658 0.002611
0.621085 0.367921 0.000000
0.798366 0.358040 0.000000
0.987776 0.347482 0.000000
1.000000 0.337357 0.000000
0.000000 0.559468 0.000000
0.000000 0.552987 0.000000
0.116393 0.546095 0.000000
0.266755 0.537714 0.000000
0.413592 0.529530 0.000000
0.588285 0.519792 0.000000
0.765566 0.509911 0.000000
0.954976 0.499353 0.000000
1.000000 0.489228 0.000000
0.000000 0.721044 0.000000
0.000000 0.714564 0.000000
0.081498 0.707672 0.000000
0.231860 0.699291 0.000000
0.378696 0.691106 0.000000
0.553390 0.681369 0.000000
0.730671 0.671487 0.000000
0.920081 0.660930 0.000000
1.000000 0.650805 0.000000
0.000000 0.904936 0.000000
0.000000 0.898456 0.000000
0.041783 0.891564 0.000000
0.192145 0.883183 0.000000
0.338981 0.874998 0.000000
0.513675 0.865261 0.000000
0.690956 0.855379 0.000000
0.880366 0.844822 0.000000
1.000000 0.834696 0.000000
0.000000 1.000000 0.000000
0.000000 1.000000 0.000000
0.001408 1.000000 0.000000
0.151770 1.000000 0.000000
0.298607 1.000000 0.000000
0.473300 1.000000 0.000000
0.650581 1.000000 0.000000
0.839991 1.000000 0.000000
1.000000 1.000000 0.000000
0.000000 0.000000 0.213229
0.112370 0.000000 0.206749
0.236015 0.000000 0.199857
0.386377 0.000000 0.191476
0.533214 0.000000 0.183291
0.707907 0.000000 0.173554
0.885188 0.000000 0.163673
1.000000 0.000000 0.153115
1.000000 0.000000 0.142990
0.000000 0.090195 0.192909
0.092050 0.083714 0.186429
0.215695 0.076822 0.179537
0.366057 0.068441 0.171156
0.512894 0.060257 0.162971
0.687587 0.050519 0.153234
0.864868 0.040638 0.143353
1.000000 0.030080 0.132795
1.000000 0.019955 0.122670
0.000000 0.175075 0.174578
0.073719 0.168595 0.168097
0.197364 0.161703 0.161205
0.347726 0.153322 0.152824
0.494562 0.145137 0.144640
0.669256 0.135400 0.134903
0.846537 0.125519 0.125021
1.000000 0.114961 0.114463
1.000000 0.104836 0.104338
0.000000 0.300524 0.147485
0.046626 0.294043 0.141004
0.170271 0.287151 0.134113
0.320633 0.278770 0.125731
0.467469 0.270586 0.117547
0.642163 0.260848 0.107810
0.819444 0.250967 0.097928
1.000000 0.240409 0.087371
1.000000 0.230284 0.077245
0.000000 0.405913 0.124724
0.023865 0.399433 0.118243
0.147510 0.392541 0.111352
0.297872 0.384160 0.102970
0.444708 0.375976 0.094786
0.619402 0.366238 0.085049
0.796683 0.356357 0.075167
0.986093 0.345799 0.064610
1.000000 0.335674 0.054484
0.000000 0.557785 0.091924
0.000000 0.551304 0.085444
0.114710 0.544412 0.078552
0.265073 0.536031 0.070171
0.411909 0.527847 0.061986
0.586602 0.518110 0.052249
0.763883 0.508228 0.042368
0.953293 0.497670 0.031810
1.000000 0.487545 0.021685
0.000000 0.719361 0.057029
0.000000 0.712881 0.050548
0.079815 0.705989 0.043657
0.230177 0.697608 0.035276
0.377014 0.689423 0.027091
0.551707 0.679686 0.017354
0.728988 0.669805 0.007472
0.918398 0.659247 0.000000
1.000000 0.649122 0.000000
0.000000 0.903253 0.017314
0.000000 0.896773 0.010834
0.040100 0.889881 0.003942
0.190462 0.881500 0.000000
0.337299 0.873315 0.000000
0.511992 0.863578 0.000000
0.689273 0.853696 0.000000
0.878683 0.843139 0.000000
1.000000 0.833014 0.000000
0.000000 1.000000 0.000000
0.000000 1.000000 0.000000
0.000000 1.000000 0.000000
0.150087 1.000000 0.000000
0.296924 1.000000 0.000000
0.471617 1.000000 0.000000
0.648898 1.000000 0.000000
0.838308 1.000000 0.000000
1.000000 1.000000 0.000000
0.000000 0.000000 0.340530
0.110046 0.000000 0.334049
0.233691 0.000000 0.327157
0.384053 0.000000 0.318776
0.530890 0.000000 0.310592
0.705583 0.000000 0.300854
0.882864 0.000000 0.290973
1.000000 0.000000 0.280415
1.000000 0.000000 0.270290
0.000000 0.087870 0.320210
0.089726 0.081390 0.313729
0.213371 0.074498 0.306837
0.363733 0.066117 0.298456
0.510570 0.057933 0.290272
0.685263 0.048195 0.280534
0.862544 0.038314 0.270653
1.000000 0.027756 0.260095
1.000000 0.017631 0.249970
0.000000 0.172751 0.301878
0.071394 0.166271 0.295398
0.195039 0.159379 0.288506
0.345402 0.150998 0.280125
0.492238 0.142813 0.271940
0.666931 0.133076 0.262203
0.844212 0.123195 0.252321
1.000000 0.112637 0.241764
1.000000 0.102512 0.231639
0.000000 0.298199 0.274785
0.044302 0.291719 0.268305
0.167947 0.284827 0.261413
0.318309 0.276446 0.253032
0.465145 0.268261 0.244847
0.639838 0.258524 0.235110
0.817120 0.248643 0.225228
1.000000 0.238085 0.214671
1.000000 0.227960 0.204546
0.000000 0.403589 0.252024
0.021541 0.397109 0.245544
0.145186 0.390217 0.238652
0.295548 0.381836 0.230271
0.442384 0.373651 0.222086
0.617078 0.363914 0.212349
0.794359 0.354033 0.202467
0.983769 0.343475 0.191910
1.000000 0.333350 0.181785
0.000000 0.555461 0.219225
0.000000 0.548980 0.212744
0.112386 0.542088 0.205852
0.262748 0.533707 0.197471
0.409585 0.525523 0.189287
0.584278 0.515785 0.179550
0.761559 0.505904 0.169668
0.950969 0.495346 0.159110
1.000000 0.485221 0.148985
0.000000 0.717037 0.184329
0.000000 0.710557 0.177849
0.077491 0.703665 0.170957
0.227853 0.695284 0.162576
0.374689 0.687099 0.154391
0.549383 0.677362 0.144654
0.726664 0.667480 0.134772
0.916074 0.656923 0.124215
1.000000 0.646798 0.114090
0.000000 0.900929 0.144614
0.000000 0.894449 0.138134
0.037776 0.887557 0.131242
0.188138 0.879176 0.122861
0.334974 0.870991 0.114676
0.509668 0.861254 0.104939
0.686949 0.851372 0.095058
0.876359 0.840815 0.084500
1.000000 0.830689 0.074375
0.000000 1.000000 0.104240
0.000000 1.000000 0.097759
0.000000 1.000000 0.090867
0.147763 1.000000 0.082486
0.294600 1.000000 0.074302
0.469293 1.000000 0.064564
0.646574 1.000000 0.054683
0.835984 1.000000 0.044125
1.000000 1.000000 0.034000
0.000000 0.000000 0.477973
0.107537 0.000000 0.471492
0.231182 0.000000 0.464600
0.381544 0.000000 0.456219
0.528380 0.000000 0.448035
0.703074 0.000000 0.438297
0.880355 0.000000 0.428416
1.000000 0.000000 0.417858
1.000000 0.000000 0.407733
0.000000 0.085361 0.457653
0.087217 0.078881 0.451172
0.210862 0.071989 0.444280
0.361224 0.063608 0.435899
0.508060 0.055423 0.427715
0.682754 0.045686 0.417977
0.860035 0.035804 0.408096
1.000000 0.025247 0.397538
1.000000 0.015122 0.387413
0.000000 0.170242 0.439321
0.068885 0.163761 0.432841
0.192530 0.156870 0.425949
0.342892 0.148489 0.417568
0.489729 0.140304 0.409383
0.664422 0.130567 0.399646
0.841703 0.120685 0.389764
1.000000 0.110128 0.379207
1.000000 0.100002 0.369081
0.000000 0.295690 0.412228
0.041792 0.289210 0.405748
0.165437 0.282318 0.398856
0.315799 0.273937 0.390475
0.462636 0.265752 0.382290
0.637329 0.256015 0.372553
0.814610 0.246133 0.362671
1.000000 0.235576 0.352114
1.000000 0.225451 0.341989
0.000000 0.401080 0.389467
0.019031 0.394600 0.382987
0.142676 0.387708 0.376095
0.293039 0.379327 0.367714
0.439875 0.371142 0.359529
0.614568 0.361405 0.349792
0.791849 0.351523 0.339910
0.981259 0.340966 0.329353
1.000000 0.330841 0.319228
0.000000 0.552951 0.356668
0.000000 0.546471 0.350187
0.109877 0.539579 0.343295
0.260239 0.531198 0.334914
0.407076 0.523013 0.326730
0.581769 0.513276 0.316992
0.759050 0.503395 0.307111
0.948460 0.492837 0.296553
1.000000 0.482712 0.286428
0.000000 0.714528 0.321772
0.000000 0.708047 0.315292
0.074981 0.701156 0.308400
0.225344 0.692774 0.300019
0.372180 0.684590 0.291834
0.546873 0.674853 0.282097
0.724154 0.664971 0.272215
0.913564 0.654414 0.261658
1.000000 0.644288 0.251533
0.000000 0.898420 0.282057
0.000000 0.891939 0.275577
0.035266 0.885047 0.268685
0.185629 0.876666 0.260304
0.332465 0.868482 0.252119
0.507158 0.858744 0.242382
0.684439 0.848863 0.232500
0.873849 0.838305 0.221943
1.000000 0.828180 0.211818
0.000000 1.000000 0.241682
0.000000 1.000000 0.235202
0.000000 1.000000 0.228310
0.145254 1.000000 0.219929
0.292090 1.000000 0.211745
0.466784 1.000000 0.202007
0.644065 1.000000 0.192126
0.833475 1.000000 0.181568
1.000000 1.000000 0.171443
0.000000 0.000000 0.609508
0.105135 0.000000 0.603028
0.228780 0.000000 0.596136
0.379143 0.000000 0.587755
0.525979 0.000000 0.579571
0.700672 0.000000 0.569833
0.877953 0.000000 0.559952
1.000000 0.000000 0.549394
1.000000 0.000000 0.539269
0.000000 0.082960 0.589188
0.084815 0.076479 0.582708
0.208460 0.069587 0.575816
0.358823 0.061206 0.567435
0.505659 0.053022 0.559251
0.680352 0.043284 0.549513
0.857633 0.033403 0.539632
1.000000 0.022845 0.529074
1.000000 0.012720 0.518949
0.000000 0.167840 0.570857
0.066484 0.161360 0.564376
0.190129 0.154468 0.557485
0.340491 0.146087 0.549103
0.487327 0.137902 0.540919
0.662021 0.128165 0.531182
0.839302 0.118284 0.521300
1.000000 0.107726 0.510743
1.000000 0.097601 0.500617
0.000000 0.293289 0.543764
0.039391 0.286808 0.537284
0.163036 0.279916 0.530392
0.313398 0.271535 0.522011
0.460234 0.263351 0.513826
0.634928 0.253613 0.504089
0.812209 0.243732 0.494207
1.000000 0.233174 0.483650
1.000000 0.223049 0.473525
0.000000 0.398678 0.521003
0.016630 0.392198 0.514523
0.140275 0.385306 0.507631
0.290637 0.376925 0.499250
0.437474 0.368741 0.491065
0.612167 0.359003 0.481328
0.789448 0.349122 0.471446
0.978858 0.338564 0.460889
1.000000 0.328439 0.450764
0.000000 0.550550 0.488204
0.000000 0.544069 0.481723
0.107475 0.537177 0.474831
0.257838 0.528796 0.466450
0.404674 0.520612 0.458266
0.579367 0.510875 0.448528
0.756648 0.500993 0.438647
0.946058 0.490435 0.428089
1.000000 0.480310 0.417964
0.000000 0.712126 0.453308
0.000000 0.705646 0.446828
0.072580 0.698754 0.439936
0.222942 0.690373 0.431555
0.369779 0.682188 0.423370
0.544472 0.672451 0.413633
0.721753 0.662570 0.403751
0.911163 0.652012 0.393194
1.000000 0.641887 0.383069
0.000000 0.896018 0.413593
0.000000 0.889538 0.407113
0.032865 0.882646 0.400221
0.183227 0.874265 0.391840
0.330064 0.866080 0.383655
0.504757 0.856343 0.373918
0.682038 0.846461 0.364036
0.871448 0.835904 0.353479
1.000000 0.825779 0.343354
0.000000 1.000000 0.373218
0.000000 1.000000 0.366738
0.000000 1.000000 0.359846
0.142852 1.000000 0.351465
0.289689 1.000000 0.343280
0.464382 1.000000 0.333543
0.641663 1.000000 0.323662
0.831073 1.000000 0.313104
1.000000 1.000000 0.302979
0.000000 0.000000 0.796197
0.101727 0.000000 0.789717
0.225372 0.000000 0.782825
0.375734 0.000000 0.774444
0.522571 0.000000 0.766260
0.697264 0.000000 0.756522
0.874545 0.000000 0.746641
1.000000 0.000000 0.736083
1.000000 0.000000 0.725958
0.000000 0.079551 0.775877
0.081407 0.073071 0.769397
0.205052 0.066179 0.762505
0.355414 0.057798 0.754124
0.502251 0.049613 0.745940
0.676944 0.039876 0.736202
0.854225 0.029994 0.726321
1.000000 0.019437 0.715763
1.000000 0.009312 0.705638
0.000000 0.164432 0.757546
0.063075 0.157952 0.751065
0.186720 0.151060 0.744174
0.337082 0.142679 0.735792
0.483919 0.134494 0.727608
0.658612 0.124757 0.717871
0.835893 0.114875 0.707989
1.000000 0.104318 0.697432
1.000000 0.094193 0.687306
0.000000 0.289880 0.730453
0.035982 0.283400 0.723973
0.159627 0.276508 0.717081
0.309990 0.268127 0.708700
0.456826 0.259942 0.700515
0.631519 0.250205 0.690778
0.808800 0.240323 0.680896
0.998210 0.229766 0.670339
1.000000 0.219641 0.660213
0.000000 0.395270 0.707692
0.013221 0.388790 0.701212
0.136866 0.381898 0.694320
0.287229 0.373517 0.685939
0.434065 0.365332 0.677754
0.608758 0.355595 0.668017
0.786039 0.345713 0.658135
0.975449 0.335156 0.647578
1.000000 0.325031 0.637453
0.000000 0.547141 0.674893
0.000000 0.540661 0.668412
0.104067 0.533769 0.661520
0.254429 0.525388 0.653139
0.401266 0.517203 0.644955
0.575959 0.507466 0.635217
0.753240 0.497585 0.625336
0.942650 0.487027 0.614778
1.000000 0.476902 0.604653
0.000000 0.708718 0.639997
0.000000 0.702237 0.633517
0.069171 0.695346 0.626625
0.219534 0.686965 0.618244
0.366370 0.678780 0.610059
0.541063 0.669043 0.600322
0.718344 0.659161 0.590440
0.907754 0.648604 0.579883
1.000000 0.638478 0.569758
0.000000 0.892610 0.600282
0.000000 0.886129 0.593802
0.029456 0.879237 0.586910
0.179819 0.870856 0.578529
0.326655 0.862672 0.570344
0.501348 0.852934 0.560607
0.678629 0.843053 0.550725
0.868039 0.832495 0.540168
1.000000 0.822370 0.530043
0.000000 1.000000 0.559907
0.000000 1.000000 0.553427
0.000000 1.000000 0.546535
0.139444 1.000000 0.538154
0.286280 1.000000 0.529969
0.460974 1.000000 0.520232
0.638255 1.000000 0.510351
0.827665 1.000000 0.499793
1.000000 1.000000 0.489668
0.000000 0.000000 0.951843
0.098885 0.000000 0.945363
0.222530 0.000000 0.938471
0.372892 0.000000 0.930090
0.519729 0.000000 0.921905
0.694422 0.000000 0.912168
0.871703 0.000000 0.902287
1.000000 0.000000 0.891729
1.000000 0.000000 0.881604
0.000000 0.076710 0.931523
0.078565 0.070229 0.925043
0.202210 0.063337 0.918151
0.352572 0.054956 0.909770
0.499409 0.046772 0.901585
0.674102 0.037034 0.891848
0.851383 0.027153 0.881967
1.000000 0.016595 0.871409
1.000000 0.006470 0.861284
0.000000 0.161590 0.913192
0.060234 0.155110 0.906711
0.183879 0.148218 0.899819
0.334241 0.139837 0.891438
0.481077 0.131652 0.883254
0.655770 0.121915 0.873517
0.833051 0.112034 0.863635
1.000000 0.101476 0.853077
1.000000 0.091351 0.842952
0.000000 0.287038 0.886099
0.033141 0.280558 0.879618
0.156786 0.273666 0.872727
0.307148 0.265285 0.864345
0.453984 0.257101 0.856161
0.628678 0.247363 0.846424
0.805959 0.237482 0.836542
0.995369 0.226924 0.825985
1.000000 0.216799 0.815859
0.000000 0.392428 0.863338
0.010380 0.385948 0.856857
0.134025 0.379056 0.849966
0.284387 0.370675 0.841584
0.431223 0.362490 0.833400
0.605917 0.352753 0.823663
0.783198 0.342872 0.813781
0.972608 0.332314 0.803224
1.000000 0.322189 0.793098
0.000000 0.544300 0.830538
0.000000 0.537819 0.824058
0.101225 0.530927 0.817166
0.251587 0.522546 0.808785
0.398424 0.514362 0.800600
0.573117 0.504624 0.790863
0.750398 0.494743 0.780982
0.939808 0.484185 0.770424
1.000000 0.474060 0.760299
0.000000 0.705876 0.795643
0.000000 0.699396 0.789162
0.066330 0.692504 0.782271
0.216692 0.684123 0.773890
0.363528 0.675938 0.765705
0.538222 0.666201 0.755968
0.715503 0.656320 0.746086
0.904913 0.645762 0.735529
1.000000 0.635637 0.725403
0.000000 0.889768 0.755928
0.000000 0.883288 0.749448
0.026615 0.876396 0.742556
0.176977 0.868015 0.734175
0.323814 0.859830 0.725990
0.498507 0.850093 0.716253
0.675788 0.840211 0.706371
0.865198 0.829654 0.695814
1.000000 0.819529 0.685689
0.000000 1.000000 0.715553
0.000000 1.000000 0.709073
0.000000 1.000000 0.702181
0.136602 1.000000 0.693800
0.283439 1.000000 0.685615
0.458132 1.000000 0.675878
0.635413 1.000000 0.665997
0.824823 1.000000 0.655439
1.000000 1.000000 0.645314
0.000000 0.000000 1.000000
0.092410 0.000000 1.000000
0.216055 0.000000 1.000000
0.366417 0.000000 1.000000
0.513253 0.000000 1.000000
0.687946 0.000000 1.000000
0.865227 0.000000 1.000000
1.000000 0.000000 1.000000
1.000000 0.000000 1.000000
0.000000 0.070234 1.000000
0.072090 0.063754 1.000000
0.195735 0.056862 1.000000
0.346097 0.048481 1.000000
0.492933 0.040296 1.000000
0.667626 0.030559 1.000000
0.844907 0.020677 1.000000
1.000000 0.010120 1.000000
1.000000 0.000000 1.000000
0.000000 0.155115 1.000000
0.053758 0.148634 1.000000
0.177403 0.141742 1.000000
0.327765 0.133361 1.000000
0.474602 0.125177 1.000000
0.649295 0.115440 1.000000
0.826576 0.105558 1.000000
1.000000 0.095000 1.000000
1.000000 0.084875 1.000000
0.000000 0.280563 1.000000
0.026665 0.274082 1.000000
0.150310 0.267191 1.000000
0.300672 0.258810 1.000000
0.447509 0.250625 1.000000
0.622202 0.240888 1.000000
0.799483 0.231006 1.000000
0.988893 0.220449 1.000000
1.000000 0.210323 1.000000
0.000000 0.385953 1.000000
0.003904 0.379472 1.000000
0.127549 0.372580 1.000000
0.277911 0.364199 1.000000
0.424748 0.356015 1.000000
0.599441 0.346278 1.000000
0.776722 0.336396 1.000000
0.966132 0.325838 1.000000
1.000000 0.315713 1.000000
0.000000 0.537824 1.000000
0.000000 0.531344 1.000000
0.094750 0.524452 1.000000
0.245112 0.516071 1.000000
0.391948 0.507886 1.000000
0.566642 0.498149 1.000000
0.743923 0.488267 1.000000
0.933333 0.477710 1.000000
1.000000 0.467585 1.000000
0.000000 0.699401 1.000000
0.000000 0.692920 1.000000
0.059854 0.686028 1.000000
0.210216 0.677647 1.000000
0.357053 0.669463 1.000000
0.531746 0.659725 1.000000
0.709027 0.649844 1.000000
0.898437 0.639286 1.000000
1.000000 0.629161 1.000000
0.000000 0.883292 1.000000
0.000000 0.876812 1.000000
0.020139 0.869920 1.000000
0.170501 0.861539 1.000000
0.317338 0.853354 1.000000
0.492031 0.843617 1.000000
0.669312 0.833736 1.000000
0.858722 0.823178 1.000000
1.000000 0.813053 1.000000
0.000000 1.000000 1.000000
0.000000 1.000000 1.000000
0.000000 1.000000 1.000000
0.130127 1.000000 1.000000
0.276963 1.000000 1.000000
0.451656 1.000000 1.000000
0.628937 1.000000 1.000000
0.818347 1.000000 1.000000
1.000000 1.000000 1.000000
