assets/preview/luts/cc_cafe_escuro.cube
# Recriado de uma referência do usuário (2026-08-17) medindo o vídeo.
# Filtro original: "Café Escuro" (CapCut). Curva por canal + saturação 1.33x.
TITLE "Café Escuro"
LUT_3D_SIZE 5
DOMAIN_MIN 0.0 0.0 0.0
DOMAIN_MAX 1.0 1.0 1.0
0.000000 0.000000 0.000000
0.239908 0.000000 0.000000
0.537107 0.000000 0.000000
0.889081 0.000000 0.000000
1.000000 0.000000 0.000000
0.000000 0.178968 0.000000
0.201257 0.165596 0.000000
0.498455 0.149030 0.000000
0.850430 0.129412 0.000000
1.000000 0.108729 0.000000
0.000000 0.409806 0.000000
0.151403 0.396434 0.000000
0.448601 0.379869 0.000000
0.800576 0.360250 0.000000
1.000000 0.339567 0.000000
0.000000 0.723254 0.000000
0.083708 0.709882 0.000000
0.380906 0.693316 0.000000
0.732881 0.673698 0.000000
1.000000 0.653015 0.000000
0.000000 1.000000 0.000000
0.003618 1.000000 0.000000
0.300817 1.000000 0.000000
0.652791 1.000000 0.000000
1.000000 1.000000 0.000000
0.000000 0.000000 0.213229
0.236015 0.000000 0.199857
0.533214 0.000000 0.183291
0.885188 0.000000 0.163673
1.000000 0.000000 0.142990
0.000000 0.175075 0.174578
0.197364 0.161703 0.161205
0.494562 0.145137 0.144640
0.846537 0.125519 0.125021
1.000000 0.104836 0.104338
0.000000 0.405913 0.124724
0.147510 0.392541 0.111352
0.444708 0.375976 0.094786
0.796683 0.356357 0.075167
1.000000 0.335674 0.054484
0.000000 0.719361 0.057029
0.079815 0.705989 0.043657
0.377014 0.689423 0.027091
0.728988 0.669805 0.007472
1.000000 0.649122 0.000000
0.000000 1.000000 0.000000
0.000000 1.000000 0.000000
0.296924 1.000000 0.000000
0.648898 1.000000 0.000000
1.000000 1.000000 0.000000
0.000000 0.000000 0.477973
0.231182 0.000000 0.464600
0.528380 0.000000 0.448035
0.880355 0.000000 0.428416
1.000000 0.000000 0.407733
0.000000 0.170242 0.439321
0.192530 0.156870 0.425949
0.489729 0.140304 0.409383
0.841703 0.120685 0.389764
1.000000 0.100002 0.369081
0.000000 0.401080 0.389467
0.142676 0.387708 0.376095
0.439875 0.371142 0.359529
0.791849 0.351523 0.339910
1.000000 0.330841 0.319228
0.000000 0.714528 0.321772
0.074981 0.701156 0.308400
0.372180 0.684590 0.291834
0.724154 0.664971 0.272215
1.000000 0.644288 0.251533
0.000000 1.000000 0.241682
0.000000 1.000000 0.228310
0.292090 1.000000 0.211745
0.644065 1.000000 0.192126
1.000000 1.000000 0.171443
0.000000 0.000000 0.796197
0.225372 0.000000 0.782825
0.522571 0.000000 0.766260
0.874545 0.000000 0.746641
1.000000 0.000000 0.725958
0.000000 0.164432 0.757546
0.186720 0.151060 0.744174
0.483919 0.134494 0.727608
0.835893 0.114875 0.707989
1.000000 0.094193 0.687306
0.000000 0.395270 0.707692
0.136866 0.381898 0.694320
0.434065 0.365332 0.677754
0.786039 0.345713 0.658135
1.000000 0.325031 0.637453
0.000000 0.708718 0.639997
0.069171 0.695346 0.626625
0.366370 0.678780 0.610059
0.718344 0.659161 0.590440
1.000000 0.638478 0.569758
0.000000 1.000000 0.559907
0.000000 1.000000 0.546535
0.286280 1.000000 0.529969
0.638255 1.000000 0.510351
1.000000 1.000000 0.489668
0.000000 0.000000 1.000000
0.216055 0.000000 1.000000
0.513253 0.000000 1.000000
0.865227 0.000000 1.000000
1.000000 0.000000 1.000000
0.000000 0.155115 1.000000
0.177403 0.141742 1.000000
0.474602 0.125177 1.000000
0.826576 0.105558 1.000000
1.000000 0.084875 1.000000
0.000000 0.385953 1.000000
0.127549 0.372580 1.000000
0.424748 0.356015 1.000000
0.776722 0.336396 1.000000
1.000000 0.315713 1.000000
0.000000 0.699401 1.000000
0.059854 0.686028 1.000000
0.357053 0.669463 1.000000
0.709027 0.649844 1.000000
1.000000 0.629161 1.000000
0.000000 1.000000 1.000000
0.000000 1.000000 1.000000
0.276963 1.000000 1.000000
0.628937 1.000000 1.000000
1.000000 1.000000 1.000000
