assets/preview/luts/cc_cafe_escuro.cube
# Recriado de uma referência do usuário (2026-08-17) medindo o vídeo.
# Filtro original: "Café Escuro" (CapCut). Curva por canal + saturação 1.33x.
TITLE "Café Escuro"
LUT_3D_SIZE 33
DOMAIN_MIN 0.0 0.0 0.0
DOMAIN_MAX 1.0 1.0 1.0
0.000000 0.000000 0.000000
0.004165 0.000000 0.000000
0.025959 0.000000 0.000000
0.077740 0.000000 0.000000
0.116263 0.000000 0.000000
0.150591 0.000000 0.000000
0.185038 0.000000 0.000000
0.218165 0.000000 0.000000
0.239908 0.000000 0.000000
0.268770 0.000000 0.000000
0.305423 0.000000 0.000000
0.350356 0.000000 0.000000
0.390270 0.000000 0.000000
0.434696 0.000000 0.000000
0.464527 0.000000 0.000000
0.497836 0.000000 0.000000
0.537107 0.000000 0.000000
0.578911 0.000000 0.000000
0.620607 0.000000 0.000000
0.665178 0.000000 0.000000
0.711800 0.000000 0.000000
0.756865 0.000000 0.000000
0.803568 0.000000 0.000000
0.848705 0.000000 0.000000
0.889081 0.000000 0.000000
0.932963 0.000000 0.000000
0.979654 0.000000 0.000000
1.000000 0.000000 0.000000
1.000000 0.000000 0.000000
1.000000 0.000000 0.000000
1.000000 0.000000 0.000000
1.000000 0.000000 0.000000
1.000000 0.000000 0.000000
0.000000 0.002797 0.000000
0.003561 0.002565 0.000000
0.025355 0.001350 0.000000
0.077136 0.000000 0.000000
0.115659 0.000000 0.000000
0.149987 0.000000 0.000000
0.184434 0.000000 0.000000
0.217561 0.000000 0.000000
0.239304 0.000000 0.000000
0.268166 0.000000 0.000000
0.304819 0.000000 0.000000
0.349752 0.000000 0.000000
0.389666 0.000000 0.000000
0.434092 0.000000 0.000000
0.463923 0.000000 0.000000
0.497232 0.000000 0.000000
0.536503 0.000000 0.000000
0.578307 0.000000 0.000000
0.620003 0.000000 0.000000
0.664574 0.000000 0.000000
0.711196 0.000000 0.000000
0.756261 0.000000 0.000000
0.802964 0.000000 0.000000
0.848101 0.000000 0.000000
0.888477 0.000000 0.000000
0.932359 0.000000 0.000000
0.979050 0.000000 0.000000
1.000000 0.000000 0.000000
1.000000 0.000000 0.000000
1.000000 0.000000 0.000000
1.000000 0.000000 0.000000
1.000000 0.000000 0.000000
1.000000 0.000000 0.000000
0.000000 0.037972 0.000000
0.000000 0.037740 0.000000
0.017758 0.036525 0.000000
0.069539 0.033639 0.000000
0.108062 0.031492 0.000000
0.142390 0.029578 0.000000
0.176837 0.027658 0.000000
0.209964 0.025812 0.000000
0.231707 0.024600 0.000000
0.260569 0.022991 0.000000
0.297222 0.020948 0.000000
0.342155 0.018444 0.000000
0.382070 0.016219 0.000000
0.426495 0.013743 0.000000
0.456327 0.012080 0.000000
0.489635 0.010223 0.000000
0.528906 0.008034 0.000000
0.570710 0.005704 0.000000
0.612407 0.003380 0.000000
0.656977 0.000896 0.000000
0.703599 0.000000 0.000000
0.748664 0.000000 0.000000
0.795367 0.000000 0.000000
0.840504 0.000000 0.000000
0.880880 0.000000 0.000000
0.924762 0.000000 0.000000
0.971453 0.000000 0.000000
1.000000 0.000000 0.000000
1.000000 0.000000 0.000000
1.000000 0.000000 0.000000
1.000000 0.000000 0.000000
1.000000 0.000000 0.000000
1.000000 0.000000 0.000000
0.000000 0.065550 0.000000
0.000000 0.065318 0.000000
0.011802 0.064103 0.000000
0.063583 0.061217 0.000000
0.102106 0.059070 0.000000
0.136434 0.057156 0.000000
0.170881 0.055236 0.000000
0.204008 0.053390 0.000000
0.225751 0.052178 0.000000
0.254613 0.050569 0.000000
0.291266 0.048526 0.000000
0.336199 0.046022 0.000000
0.376114 0.043797 0.000000
0.420539 0.041321 0.000000
0.450371 0.039658 0.000000
0.483679 0.037801 0.000000
0.522950 0.035612 0.000000
0.564754 0.033282 0.000000
0.606451 0.030958 0.000000
0.651021 0.028474 0.000000
0.697643 0.025875 0.000000
0.742708 0.023363 0.000000
0.789411 0.020760 0.000000
0.834548 0.018244 0.000000
0.874924 0.015994 0.000000
0.918806 0.013548 0.000000
0.965497 0.010945 0.000000
1.000000 0.008176 0.000000
1.000000 0.005436 0.000000
1.000000 0.001968 0.000000
1.000000 0.000000 0.000000
1.000000 0.000000 0.000000
1.000000 0.000000 0.000000
0.000000 0.094088 0.000000
0.000000 0.093855 0.000000
0.005639 0.092641 0.000000
0.057420 0.089754 0.000000
0.095943 0.087607 0.000000
0.130271 0.085694 0.000000
0.164718 0.083774 0.000000
0.197845 0.081927 0.000000
0.219588 0.080715 0.000000
0.248450 0.079107 0.000000
0.285103 0.077064 0.000000
0.330036 0.074559 0.000000
0.369950 0.072334 0.000000
0.414376 0.069858 0.000000
0.444207 0.068195 0.000000
0.477516 0.066339 0.000000
0.516787 0.064150 0.000000
0.558591 0.061820 0.000000
0.600287 0.059495 0.000000
0.644858 0.057011 0.000000
0.691480 0.054412 0.000000
0.736545 0.051901 0.000000
0.783248 0.049297 0.000000
0.828385 0.046781 0.000000
0.868761 0.044531 0.000000
0.912643 0.042085 0.000000
0.959334 0.039482 0.000000
1.000000 0.036713 0.000000
1.000000 0.033973 0.000000
1.000000 0.030506 0.000000
1.000000 0.026597 0.000000
1.000000 0.024859 0.000000
1.000000 0.023848 0.000000
0.000000 0.117608 0.000000
0.000000 0.117375 0.000000
0.000559 0.116161 0.000000
0.052341 0.113274 0.000000
0.090864 0.111127 0.000000
0.125192 0.109214 0.000000
0.159638 0.107294 0.000000
0.192765 0.105447 0.000000
0.214509 0.104235 0.000000
0.243370 0.102627 0.000000
0.280023 0.100584 0.000000
0.324956 0.098079 0.000000
0.364871 0.095854 0.000000
0.409296 0.093378 0.000000
0.439128 0.091715 0.000000
0.472436 0.089859 0.000000
0.511707 0.087670 0.000000
0.553512 0.085340 0.000000
0.595208 0.083015 0.000000
0.639778 0.080531 0.000000
0.686401 0.077932 0.000000
0.731465 0.075421 0.000000
0.778168 0.072817 0.000000
0.823305 0.070301 0.000000
0.863682 0.068051 0.000000
0.907563 0.065605 0.000000
0.954254 0.063002 0.000000
1.000000 0.060233 0.000000
1.000000 0.057493 0.000000
1.000000 0.054026 0.000000
1.000000 0.050117 0.000000
1.000000 0.048379 0.000000
1.000000 0.047368 0.000000
0.000000 0.143570 0.000000
0.000000 0.143338 0.000000
0.000000 0.142124 0.000000
0.046733 0.139237 0.000000
0.085256 0.137090 0.000000
0.119584 0.135177 0.000000
0.154031 0.133257 0.000000
0.187158 0.131410 0.000000
0.208901 0.130198 0.000000
0.237763 0.128589 0.000000
0.274416 0.126546 0.000000
0.319349 0.124042 0.000000
0.359264 0.121817 0.000000
0.403689 0.119341 0.000000
0.433521 0.117678 0.000000
0.466829 0.115821 0.000000
0.506100 0.113633 0.000000
0.547904 0.111302 0.000000
0.589601 0.108978 0.000000
0.634171 0.106494 0.000000
0.680793 0.103895 0.000000
0.725858 0.101383 0.000000
0.772561 0.098780 0.000000
0.817698 0.096264 0.000000
0.858074 0.094014 0.000000
0.901956 0.091568 0.000000
0.948647 0.088965 0.000000
0.998333 0.086196 0.000000
1.000000 0.083456 0.000000
1.000000 0.079989 0.000000
1.000000 0.076080 0.000000
1.000000 0.074342 0.000000
1.000000 0.073331 0.000000
0.000000 0.168065 0.000000
0.000000 0.167832 0.000000
0.000000 0.166618 0.000000
0.041444 0.163731 0.000000
0.079967 0.161584 0.000000
0.114295 0.159671 0.000000
0.148741 0.157751 0.000000
0.181868 0.155904 0.000000
0.203611 0.154692 0.000000
0.232473 0.153084 0.000000
0.269126 0.151041 0.000000
0.314059 0.148536 0.000000
0.353974 0.146311 0.000000
0.398399 0.143835 0.000000
0.428231 0.142172 0.000000
0.461539 0.140316 0.000000
0.500810 0.138127 0.000000
0.542614 0.135797 0.000000
0.584311 0.133472 0.000000
0.628881 0.130988 0.000000
0.675503 0.128389 0.000000
0.720568 0.125878 0.000000
0.767271 0.123274 0.000000
0.812408 0.120758 0.000000
0.852784 0.118508 0.000000
0.896666 0.116062 0.000000
0.943357 0.113459 0.000000
0.993043 0.110690 0.000000
1.000000 0.107950 0.000000
1.000000 0.104483 0.000000
1.000000 0.100574 0.000000
1.000000 0.098836 0.000000
1.000000 0.097825 0.000000
0.000000 0.178968 0.000000
0.000000 0.178736 0.000000
0.000000 0.177521 0.000000
0.039089 0.174635 0.000000
0.077612 0.172488 0.000000
0.111940 0.170575 0.000000
0.146386 0.168655 0.000000
0.179513 0.166808 0.000000
0.201257 0.165596 0.000000
0.230118 0.163987 0.000000
0.266771 0.161944 0.000000
0.311704 0.159440 0.000000
0.351619 0.157215 0.000000
0.396044 0.154739 0.000000
0.425876 0.153076 0.000000
0.459184 0.151219 0.000000
0.498455 0.149030 0.000000
0.540260 0.146700 0.000000
0.581956 0.144376 0.000000
0.626526 0.141892 0.000000
0.673148 0.139293 0.000000
0.718213 0.136781 0.000000
0.764916 0.134178 0.000000
0.810053 0.131662 0.000000
0.850430 0.129412 0.000000
0.894311 0.126966 0.000000
0.941002 0.124363 0.000000
0.990689 0.121594 0.000000
1.000000 0.118854 0.000000
1.000000 0.115387 0.000000
1.000000 0.111478 0.000000
1.000000 0.109740 0.000000
1.000000 0.108729 0.000000
0.000000 0.205499 0.000000
0.000000 0.205267 0.000000
0.000000 0.204052 0.000000
0.033359 0.201166 0.000000
0.071882 0.199018 0.000000
0.106210 0.197105 0.000000
0.140657 0.195185 0.000000
0.173783 0.193338 0.000000
0.195527 0.192126 0.000000
0.224389 0.190518 0.000000
0.261041 0.188475 0.000000
0.305974 0.185970 0.000000
0.345889 0.183745 0.000000
0.390314 0.181269 0.000000
0.420146 0.179606 0.000000
0.453455 0.177750 0.000000
0.492726 0.175561 0.000000
0.534530 0.173231 0.000000
0.576226 0.170907 0.000000
0.620797 0.168422 0.000000
0.667419 0.165824 0.000000
0.712483 0.163312 0.000000
0.759186 0.160708 0.000000
0.804324 0.158193 0.000000
0.844700 0.155942 0.000000
0.888581 0.153496 0.000000
0.935272 0.150894 0.000000
0.984959 0.148124 0.000000
1.000000 0.145384 0.000000
1.000000 0.141917 0.000000
1.000000 0.138008 0.000000
1.000000 0.136270 0.000000
1.000000 0.135259 0.000000
0.000000 0.246454 0.000000
0.000000 0.246222 0.000000
0.000000 0.245007 0.000000
0.024514 0.242121 0.000000
0.063037 0.239974 0.000000
0.097365 0.238060 0.000000
0.131812 0.236140 0.000000
0.164938 0.234294 0.000000
0.186682 0.233082 0.000000
0.215544 0.231473 0.000000
0.252196 0.229430 0.000000
0.297129 0.226926 0.000000
0.337044 0.224701 0.000000
0.381469 0.222225 0.000000
0.411301 0.220562 0.000000
0.444610 0.218705 0.000000
0.483881 0.216516 0.000000
0.525685 0.214186 0.000000
0.567381 0.211862 0.000000
0.611952 0.209378 0.000000
0.658574 0.206779 0.000000
0.703638 0.204267 0.000000
0.750341 0.201664 0.000000
0.795479 0.199148 0.000000
0.835855 0.196897 0.000000
0.879736 0.194451 0.000000
0.926427 0.191849 0.000000
0.976114 0.189079 0.000000
1.000000 0.186340 0.000000
1.000000 0.182872 0.000000
1.000000 0.178964 0.000000
1.000000 0.177226 0.000000
1.000000 0.176215 0.000000
0.000000 0.277108 0.000000
0.000000 0.276876 0.000000
0.000000 0.275661 0.000000
0.017894 0.272775 0.000000
0.056417 0.270628 0.000000
0.090745 0.268714 0.000000
0.125191 0.266794 0.000000
0.158318 0.264948 0.000000
0.180061 0.263736 0.000000
0.208923 0.262127 0.000000
0.245576 0.260084 0.000000
0.290509 0.257579 0.000000
0.330424 0.255355 0.000000
0.374849 0.252878 0.000000
0.404681 0.251216 0.000000
0.437989 0.249359 0.000000
0.477260 0.247170 0.000000
0.519064 0.244840 0.000000
0.560761 0.242516 0.000000
0.605331 0.240031 0.000000
0.651953 0.237433 0.000000
0.697018 0.234921 0.000000
0.743721 0.232318 0.000000
0.788858 0.229802 0.000000
0.829234 0.227551 0.000000
0.873116 0.225105 0.000000
0.919807 0.222503 0.000000
0.969493 0.219733 0.000000
1.000000 0.216994 0.000000
1.000000 0.213526 0.000000
1.000000 0.209617 0.000000
1.000000 0.207880 0.000000
1.000000 0.206869 0.000000
0.000000 0.304417 0.000000
0.000000 0.304184 0.000000
0.000000 0.302970 0.000000
0.011996 0.300083 0.000000
0.050519 0.297936 0.000000
0.084847 0.296023 0.000000
0.119294 0.294103 0.000000
0.152420 0.292256 0.000000
0.174164 0.291044 0.000000
0.203026 0.289436 0.000000
0.239678 0.287393 0.000000
0.284611 0.284888 0.000000
0.324526 0.282663 0.000000
0.368951 0.280187 0.000000
0.398783 0.278524 0.000000
0.432092 0.276668 0.000000
0.471362 0.274479 0.000000
0.513167 0.272148 0.000000
0.554863 0.269824 0.000000
0.599434 0.267340 0.000000
0.646056 0.264741 0.000000
0.691120 0.262229 0.000000
0.737823 0.259626 0.000000
0.782961 0.257110 0.000000
0.823337 0.254860 0.000000
0.867218 0.252414 0.000000
0.913909 0.249811 0.000000
0.963596 0.247042 0.000000
1.000000 0.244302 0.000000
1.000000 0.240835 0.000000
1.000000 0.236926 0.000000
1.000000 0.235188 0.000000
1.000000 0.234177 0.000000
0.000000 0.329093 0.000000
0.000000 0.328861 0.000000
0.000000 0.327646 0.000000
0.006666 0.324760 0.000000
0.045189 0.322613 0.000000
0.079517 0.320699 0.000000
0.113964 0.318779 0.000000
0.147091 0.316933 0.000000
0.168834 0.315721 0.000000
0.197696 0.314112 0.000000
0.234349 0.312069 0.000000
0.279282 0.309565 0.000000
0.319197 0.307340 0.000000
0.363622 0.304864 0.000000
0.393453 0.303201 0.000000
0.426762 0.301344 0.000000
0.466033 0.299155 0.000000
0.507837 0.296825 0.000000
0.549534 0.294501 0.000000
0.594104 0.292017 0.000000
0.640726 0.289418 0.000000
0.685791 0.286906 0.000000
0.732494 0.284303 0.000000
0.777631 0.281787 0.000000
0.818007 0.279536 0.000000
0.861889 0.277091 0.000000
0.908580 0.274488 0.000000
0.958266 0.271718 0.000000
1.000000 0.268979 0.000000
1.000000 0.265511 0.000000
1.000000 0.261603 0.000000
1.000000 0.259865 0.000000
1.000000 0.258854 0.000000
0.000000 0.355706 0.000000
0.000000 0.355474 0.000000
0.000000 0.354259 0.000000
0.000919 0.351373 0.000000
0.039442 0.349226 0.000000
0.073770 0.347312 0.000000
0.108217 0.345392 0.000000
0.141343 0.343546 0.000000
0.163087 0.342334 0.000000
0.191949 0.340725 0.000000
0.228601 0.338682 0.000000
0.273534 0.336178 0.000000
0.313449 0.333953 0.000000
0.357874 0.331477 0.000000
0.387706 0.329814 0.000000
0.421015 0.327957 0.000000
0.460285 0.325768 0.000000
0.502090 0.323438 0.000000
0.543786 0.321114 0.000000
0.588357 0.318630 0.000000
0.634979 0.316031 0.000000
0.680043 0.313519 0.000000
0.726746 0.310916 0.000000
0.771884 0.308400 0.000000
0.812260 0.306150 0.000000
0.856141 0.303704 0.000000
0.902832 0.301101 0.000000
0.952519 0.298332 0.000000
1.000000 0.295592 0.000000
1.000000 0.292124 0.000000
1.000000 0.288216 0.000000
1.000000 0.286478 0.000000
1.000000 0.285467 0.000000
0.000000 0.378647 0.000000
0.000000 0.378414 0.000000
0.000000 0.377200 0.000000
0.000000 0.374313 0.000000
0.034487 0.372166 0.000000
0.068815 0.370253 0.000000
0.103262 0.368333 0.000000
0.136389 0.366486 0.000000
0.158132 0.365274 0.000000
0.186994 0.363665 0.000000
0.223647 0.361622 0.000000
0.268580 0.359118 0.000000
0.308495 0.356893 0.000000
0.352920 0.354417 0.000000
0.382751 0.352754 0.000000
0.416060 0.350898 0.000000
0.455331 0.348709 0.000000
0.497135 0.346378 0.000000
0.538832 0.344054 0.000000
0.583402 0.341570 0.000000
0.630024 0.338971 0.000000
0.675089 0.336459 0.000000
0.721792 0.333856 0.000000
0.766929 0.331340 0.000000
0.807305 0.329090 0.000000
0.851187 0.326644 0.000000
0.897878 0.324041 0.000000
0.947564 0.321272 0.000000
0.996715 0.318532 0.000000
1.000000 0.315065 0.000000
1.000000 0.311156 0.000000
1.000000 0.309418 0.000000
1.000000 0.308407 0.000000
0.000000 0.409806 0.000000
0.000000 0.409574 0.000000
0.000000 0.408360 0.000000
0.000000 0.405473 0.000000
0.027758 0.403326 0.000000
0.062086 0.401413 0.000000
0.096533 0.399493 0.000000
0.129659 0.397646 0.000000
0.151403 0.396434 0.000000
0.180265 0.394825 0.000000
0.216917 0.392782 0.000000
0.261850 0.390278 0.000000
0.301765 0.388053 0.000000
0.346190 0.385577 0.000000
0.376022 0.383914 0.000000
0.409331 0.382057 0.000000
0.448601 0.379869 0.000000
0.490406 0.377538 0.000000
0.532102 0.375214 0.000000
0.576673 0.372730 0.000000
0.623295 0.370131 0.000000
0.668359 0.367619 0.000000
0.715062 0.365016 0.000000
0.760200 0.362500 0.000000
0.800576 0.360250 0.000000
0.844457 0.357804 0.000000
0.891148 0.355201 0.000000
0.940835 0.352432 0.000000
0.989986 0.349692 0.000000
1.000000 0.346225 0.000000
1.000000 0.342316 0.000000
1.000000 0.340578 0.000000
1.000000 0.339567 0.000000
0.000000 0.444499 0.000000
0.000000 0.444267 0.000000
0.000000 0.443052 0.000000
0.000000 0.440166 0.000000
0.020265 0.438018 0.000000
0.054593 0.436105 0.000000
0.089040 0.434185 0.000000
0.122167 0.432339 0.000000
0.143910 0.431127 0.000000
0.172772 0.429518 0.000000
0.209425 0.427475 0.000000
0.254358 0.424970 0.000000
0.294273 0.422746 0.000000
0.338698 0.420269 0.000000
0.368529 0.418607 0.000000
0.401838 0.416750 0.000000
0.441109 0.414561 0.000000
0.482913 0.412231 0.000000
0.524610 0.409907 0.000000
0.569180 0.407422 0.000000
0.615802 0.404824 0.000000
0.660867 0.402312 0.000000
0.707570 0.399709 0.000000
0.752707 0.397193 0.000000
0.793083 0.394942 0.000000
0.836965 0.392496 0.000000
0.883656 0.389894 0.000000
0.933342 0.387124 0.000000
0.982493 0.384385 0.000000
1.000000 0.380917 0.000000
1.000000 0.377008 0.000000
1.000000 0.375270 0.000000
1.000000 0.374259 0.000000
0.000000 0.480441 0.000000
0.000000 0.480209 0.000000
0.000000 0.478994 0.000000
0.000000 0.476108 0.000000
0.012503 0.473961 0.000000
0.046831 0.472047 0.000000
0.081278 0.470127 0.000000
0.114404 0.468281 0.000000
0.136148 0.467069 0.000000
0.165010 0.465460 0.000000
0.201662 0.463417 0.000000
0.246595 0.460913 0.000000
0.286510 0.458688 0.000000
0.330935 0.456212 0.000000
0.360767 0.454549 0.000000
0.394076 0.452692 0.000000
0.433347 0.450503 0.000000
0.475151 0.448173 0.000000
0.516847 0.445849 0.000000
0.561418 0.443365 0.000000
0.608040 0.440766 0.000000
0.653104 0.438254 0.000000
0.699807 0.435651 0.000000
0.744945 0.433135 0.000000
0.785321 0.430885 0.000000
0.829202 0.428439 0.000000
0.875893 0.425836 0.000000
0.925580 0.423067 0.000000
0.974731 0.420327 0.000000
1.000000 0.416859 0.000000
1.000000 0.412951 0.000000
1.000000 0.411213 0.000000
1.000000 0.410202 0.000000
0.000000 0.522186 0.000000
0.000000 0.521954 0.000000
0.000000 0.520739 0.000000
0.000000 0.517853 0.000000
0.003487 0.515705 0.000000
0.037815 0.513792 0.000000
0.072262 0.511872 0.000000
0.105389 0.510025 0.000000
0.127132 0.508813 0.000000
0.155994 0.507205 0.000000
0.192647 0.505162 0.000000
0.237580 0.502657 0.000000
0.277495 0.500432 0.000000
0.321920 0.497956 0.000000
0.351751 0.496293 0.000000
0.385060 0.494437 0.000000
0.424331 0.492248 0.000000
0.466135 0.489918 0.000000
0.507832 0.487594 0.000000
0.552402 0.485109 0.000000
0.599024 0.482511 0.000000
0.644089 0.479999 0.000000
0.690792 0.477396 0.000000
0.735929 0.474880 0.000000
0.776305 0.472629 0.000000
0.820187 0.470183 0.000000
0.866878 0.467581 0.000000
0.916564 0.464811 0.000000
0.965715 0.462071 0.000000
1.000000 0.458604 0.000000
1.000000 0.454695 0.000000
1.000000 0.452957 0.000000
1.000000 0.451946 0.000000
0.000000 0.561678 0.000000
0.000000 0.561446 0.000000
0.000000 0.560231 0.000000
0.000000 0.557345 0.000000
0.000000 0.555197 0.000000
0.029286 0.553284 0.000000
0.063733 0.551364 0.000000
0.096860 0.549517 0.000000
0.118603 0.548305 0.000000
0.147465 0.546697 0.000000
0.184118 0.544654 0.000000
0.229051 0.542149 0.000000
0.268966 0.539924 0.000000
0.313391 0.537448 0.000000
0.343222 0.535785 0.000000
0.376531 0.533929 0.000000
0.415802 0.531740 0.000000
0.457606 0.529410 0.000000
0.499303 0.527086 0.000000
0.543873 0.524601 0.000000
0.590495 0.522003 0.000000
0.635560 0.519491 0.000000
0.682263 0.516887 0.000000
0.727400 0.514372 0.000000
0.767776 0.512121 0.000000
0.811658 0.509675 0.000000
0.858349 0.507073 0.000000
0.908035 0.504303 0.000000
0.957186 0.501563 0.000000
1.000000 0.498096 0.000000
1.000000 0.494187 0.000000
1.000000 0.492449 0.000000
1.000000 0.491438 0.000000
0.000000 0.600521 0.000000
0.000000 0.600289 0.000000
0.000000 0.599074 0.000000
0.000000 0.596188 0.000000
0.000000 0.594041 0.000000
0.020897 0.592127 0.000000
0.055344 0.590207 0.000000
0.088471 0.588361 0.000000
0.110214 0.587149 0.000000
0.139076 0.585540 0.000000
0.175729 0.583497 0.000000
0.220662 0.580992 0.000000
0.260577 0.578768 0.000000
0.305002 0.576291 0.000000
0.334833 0.574629 0.000000
0.368142 0.572772 0.000000
0.407413 0.570583 0.000000
0.449217 0.568253 0.000000
0.490914 0.565929 0.000000
0.535484 0.563445 0.000000
0.582106 0.560846 0.000000
0.627171 0.558334 0.000000
0.673874 0.555731 0.000000
0.719011 0.553215 0.000000
0.759387 0.550964 0.000000
0.803269 0.548518 0.000000
0.849960 0.545916 0.000000
0.899646 0.543146 0.000000
0.948797 0.540407 0.000000
1.000000 0.536939 0.000000
1.000000 0.533030 0.000000
1.000000 0.531293 0.000000
1.000000 0.530282 0.000000
0.000000 0.644519 0.000000
0.000000 0.644287 0.000000
0.000000 0.643072 0.000000
0.000000 0.640186 0.000000
0.000000 0.638039 0.000000
0.011395 0.636125 0.000000
0.045842 0.634205 0.000000
0.078969 0.632359 0.000000
0.100712 0.631147 0.000000
0.129574 0.629538 0.000000
0.166227 0.627495 0.000000
0.211160 0.624991 0.000000
0.251074 0.622766 0.000000
0.295499 0.620290 0.000000
0.325331 0.618627 0.000000
0.358640 0.616770 0.000000
0.397911 0.614581 0.000000
0.439715 0.612251 0.000000
0.481411 0.609927 0.000000
0.525982 0.607443 0.000000
0.572604 0.604844 0.000000
0.617669 0.602332 0.000000
0.664372 0.599729 0.000000
0.709509 0.597213 0.000000
0.749885 0.594963 0.000000
0.793766 0.592517 0.000000
0.840458 0.589914 0.000000
0.890144 0.587145 0.000000
0.939295 0.584405 0.000000
1.000000 0.580938 0.000000
1.000000 0.577029 0.000000
1.000000 0.575291 0.000000
1.000000 0.574280 0.000000
0.000000 0.684342 0.000000
0.000000 0.684110 0.000000
0.000000 0.682895 0.000000
0.000000 0.680009 0.000000
0.000000 0.677862 0.000000
0.002795 0.675948 0.000000
0.037241 0.674028 0.000000
0.070368 0.672182 0.000000
0.092112 0.670970 0.000000
0.120973 0.669361 0.000000
0.157626 0.667318 0.000000
0.202559 0.664814 0.000000
0.242474 0.662589 0.000000
0.286899 0.660113 0.000000
0.316731 0.658450 0.000000
0.350039 0.656593 0.000000
0.389310 0.654404 0.000000
0.431115 0.652074 0.000000
0.472811 0.649750 0.000000
0.517381 0.647266 0.000000
0.564003 0.644667 0.000000
0.609068 0.642155 0.000000
0.655771 0.639552 0.000000
0.700908 0.637036 0.000000
0.741285 0.634786 0.000000
0.785166 0.632340 0.000000
0.831857 0.629737 0.000000
0.881544 0.626968 0.000000
0.930695 0.624228 0.000000
0.992904 0.620760 0.000000
1.000000 0.616852 0.000000
1.000000 0.615114 0.000000
1.000000 0.614103 0.000000
0.000000 0.723254 0.000000
0.000000 0.723022 0.000000
0.000000 0.721807 0.000000
0.000000 0.718921 0.000000
0.000000 0.716774 0.000000
0.000000 0.714860 0.000000
0.028838 0.712940 0.000000
0.061964 0.711094 0.000000
0.083708 0.709882 0.000000
0.112570 0.708273 0.000000
0.149222 0.706230 0.000000
0.194155 0.703726 0.000000
0.234070 0.701501 0.000000
0.278495 0.699025 0.000000
0.308327 0.697362 0.000000
0.341636 0.695505 0.000000
0.380906 0.693316 0.000000
0.422711 0.690986 0.000000
0.464407 0.688662 0.000000
0.508978 0.686178 0.000000
0.555600 0.683579 0.000000
0.600664 0.681067 0.000000
0.647367 0.678464 0.000000
0.692505 0.675948 0.000000
0.732881 0.673698 0.000000
0.776762 0.671252 0.000000
0.823453 0.668649 0.000000
0.873140 0.665880 0.000000
0.922291 0.663140 0.000000
0.984500 0.659673 0.000000
1.000000 0.655764 0.000000
1.000000 0.654026 0.000000
1.000000 0.653015 0.000000
0.000000 0.766622 0.000000
0.000000 0.766390 0.000000
0.000000 0.765175 0.000000
0.000000 0.762289 0.000000
0.000000 0.760142 0.000000
0.000000 0.758228 0.000000
0.019471 0.756308 0.000000
0.052598 0.754462 0.000000
0.074342 0.753250 0.000000
0.103203 0.751641 0.000000
0.139856 0.749598 0.000000
0.184789 0.747094 0.000000
0.224704 0.744869 0.000000
0.269129 0.742393 0.000000
0.298961 0.740730 0.000000
0.332269 0.738873 0.000000
0.371540 0.736684 0.000000
0.413345 0.734354 0.000000
0.455041 0.732030 0.000000
0.499612 0.729546 0.000000
0.546234 0.726947 0.000000
0.591298 0.724435 0.000000
0.638001 0.721832 0.000000
0.683138 0.719316 0.000000
0.723515 0.717066 0.000000
0.767396 0.714620 0.000000
0.814087 0.712017 0.000000
0.863774 0.709248 0.000000
0.912925 0.706508 0.000000
0.975134 0.703041 0.000000
1.000000 0.699132 0.000000
1.000000 0.697394 0.000000
1.000000 0.696383 0.000000
0.000000 0.806607 0.000000
0.000000 0.806375 0.000000
0.000000 0.805160 0.000000
0.000000 0.802274 0.000000
0.000000 0.800126 0.000000
0.000000 0.798213 0.000000
0.010836 0.796293 0.000000
0.043963 0.794446 0.000000
0.065706 0.793234 0.000000
0.094568 0.791626 0.000000
0.131221 0.789583 0.000000
0.176154 0.787078 0.000000
0.216069 0.784853 0.000000
0.260494 0.782377 0.000000
0.290325 0.780714 0.000000
0.323634 0.778858 0.000000
0.362905 0.776669 0.000000
0.404709 0.774339 0.000000
0.446406 0.772015 0.000000
0.490976 0.769530 0.000000
0.537598 0.766932 0.000000
0.582663 0.764420 0.000000
