assets/preview/luts/cc_ensolarado.cube
# Recriado de uma referência do usuário (2026-08-17) medindo o vídeo.
# Filtro original: "Ensolarado" (CapCut). Curva por canal + saturação 1.40x.
TITLE "Ensolarado"
LUT_3D_SIZE 9
DOMAIN_MIN 0.0 0.0 0.0
DOMAIN_MAX 1.0 1.0 1.0
0.003012 0.000000 0.010121
0.191947 0.000000 0.000000
0.395028 0.000000 0.000000
0.623945 0.000000 0.000000
0.806765 0.000000 0.000000
0.971117 0.000000 0.000000
1.000000 0.000000 0.000000
1.000000 0.000000 0.000000
1.000000 0.000000 0.000000
0.000000 0.132809 0.000000
0.157627 0.120551 0.000000
0.360708 0.107375 0.000000
0.589626 0.092523 0.000000
0.772445 0.080662 0.000000
0.936798 0.069998 0.000000
1.000000 0.060152 0.000000
1.000000 0.051065 0.000000
1.000000 0.047619 0.000000
0.000000 0.262083 0.000000
0.124300 0.249825 0.000000
0.327381 0.236649 0.000000
0.556298 0.221797 0.000000
0.739118 0.209936 0.000000
0.903470 0.199272 0.000000
1.000000 0.189426 0.000000
1.000000 0.180339 0.000000
1.000000 0.176893 0.000000
0.000000 0.461369 0.000000
0.072923 0.449110 0.000000
0.276005 0.435934 0.000000
0.504922 0.421082 0.000000
0.687741 0.409221 0.000000
0.852094 0.398558 0.000000
1.000000 0.388711 0.000000
1.000000 0.379624 0.000000
1.000000 0.376178 0.000000
0.000000 0.623533 0.000000
0.031117 0.611275 0.000000
0.234198 0.598099 0.000000
0.463115 0.583247 0.000000
0.645935 0.571385 0.000000
0.810287 0.560722 0.000000
0.962048 0.550876 0.000000
1.000000 0.541789 0.000000
1.000000 0.538342 0.000000
0.000000 0.762411 0.000000
0.000000 0.750153 0.000000
0.198395 0.736977 0.000000
0.427312 0.722125 0.000000
0.610131 0.710263 0.000000
0.774484 0.699600 0.000000
0.926245 0.689754 0.000000
1.000000 0.680667 0.000000
1.000000 0.677221 0.000000
0.000000 0.905773 0.000000
0.000000 0.893515 0.000000
0.161435 0.880339 0.000000
0.390352 0.865487 0.000000
0.573172 0.853626 0.000000
0.737525 0.842962 0.000000
0.889286 0.833116 0.000000
1.000000 0.824029 0.000000
1.000000 0.820583 0.000000
0.000000 1.000000 0.000000
0.000000 1.000000 0.000000
0.122044 1.000000 0.000000
0.350961 1.000000 0.000000
0.533781 1.000000 0.000000
0.698134 0.995757 0.000000
0.849895 0.985911 0.000000
0.989953 0.976824 0.000000
1.000000 0.973377 0.000000
0.000000 1.000000 0.000000
0.000000 1.000000 0.000000
0.107760 1.000000 0.000000
0.336677 1.000000 0.000000
0.519497 1.000000 0.000000
0.683850 1.000000 0.000000
0.835611 1.000000 0.000000
0.975669 1.000000 0.000000
1.000000 1.000000 0.000000
0.000207 0.000000 0.142865
0.189142 0.000000 0.130607
0.392224 0.000000 0.117431
0.621141 0.000000 0.102578
0.803960 0.000000 0.090717
0.968313 0.000000 0.080054
1.000000 0.000000 0.070207
1.000000 0.000000 0.061120
1.000000 0.000000 0.057674
0.000000 0.130005 0.108545
0.154823 0.117747 0.096287
0.357904 0.104571 0.083111
0.586821 0.089718 0.068259
0.769640 0.077857 0.056397
0.933993 0.067194 0.045734
1.000000 0.057347 0.035888
1.000000 0.048260 0.026801
1.000000 0.044814 0.023355
0.000000 0.259279 0.075218
0.121495 0.247021 0.062959
0.324576 0.233845 0.049783
0.553494 0.218992 0.034931
0.736313 0.207131 0.023070
0.900666 0.196468 0.012407
1.000000 0.186621 0.002560
1.000000 0.177534 0.000000
1.000000 0.174088 0.000000
0.000000 0.458564 0.023841
0.070119 0.446306 0.011583
0.273200 0.433130 0.000000
0.502117 0.418278 0.000000
0.684936 0.406416 0.000000
0.849289 0.395753 0.000000
1.000000 0.385907 0.000000
1.000000 0.376820 0.000000
1.000000 0.373373 0.000000
0.000000 0.620728 0.000000
0.028312 0.608470 0.000000
0.231393 0.595294 0.000000
0.460310 0.580442 0.000000
0.643130 0.568581 0.000000
0.807483 0.557917 0.000000
0.959244 0.548071 0.000000
1.000000 0.538984 0.000000
1.000000 0.535538 0.000000
0.000000 0.759607 0.000000
0.000000 0.747348 0.000000
0.195590 0.734172 0.000000
0.424507 0.719320 0.000000
0.607327 0.707459 0.000000
0.771679 0.696796 0.000000
0.923440 0.686949 0.000000
1.000000 0.677862 0.000000
1.000000 0.674416 0.000000
0.000000 0.902969 0.000000
0.000000 0.890710 0.000000
0.158631 0.877534 0.000000
0.387548 0.862682 0.000000
0.570367 0.850821 0.000000
0.734720 0.840158 0.000000
0.886481 0.830311 0.000000
1.000000 0.821224 0.000000
1.000000 0.817778 0.000000
0.000000 1.000000 0.000000
0.000000 1.000000 0.000000
0.119240 1.000000 0.000000
0.348157 1.000000 0.000000
0.530976 1.000000 0.000000
0.695329 0.992952 0.000000
0.847090 0.983106 0.000000
0.987148 0.974019 0.000000
1.000000 0.970573 0.000000
0.000000 1.000000 0.000000
0.000000 1.000000 0.000000
0.104956 1.000000 0.000000
0.333873 1.000000 0.000000
0.516692 1.000000 0.000000
0.681045 1.000000 0.000000
0.832806 1.000000 0.000000
0.972864 1.000000 0.000000
1.000000 1.000000 0.000000
0.000000 0.000000 0.313847
0.185530 0.000000 0.301589
0.388611 0.000000 0.288413
0.617528 0.000000 0.273561
0.800348 0.000000 0.261699
0.964700 0.000000 0.251036
1.000000 0.000000 0.241190
1.000000 0.000000 0.232103
1.000000 0.000000 0.228657
0.000000 0.126392 0.279527
0.151210 0.114134 0.267269
0.354291 0.100958 0.254093
0.583208 0.086106 0.239241
0.766028 0.074244 0.227380
0.930380 0.063581 0.216716
1.000000 0.053735 0.206870
1.000000 0.044648 0.197783
1.000000 0.041202 0.194337
0.000000 0.255666 0.246200
0.117883 0.243408 0.233942
0.320964 0.230232 0.220766
0.549881 0.215380 0.205914
0.732700 0.203518 0.194052
0.897053 0.192855 0.183389
1.000000 0.183009 0.173543
1.000000 0.173922 0.164456
1.000000 0.170476 0.161009
0.000000 0.454951 0.194823
0.066506 0.442693 0.182565
0.269587 0.429517 0.169389
0.498504 0.414665 0.154537
0.681324 0.402804 0.142676
0.845677 0.392140 0.132012
0.997438 0.382294 0.122166
1.000000 0.373207 0.113079
1.000000 0.369761 0.109633
0.000000 0.617116 0.153017
0.024700 0.604858 0.140759
0.227781 0.591682 0.127583
0.456698 0.576829 0.112730
0.639517 0.564968 0.100869
0.803870 0.554305 0.090206
0.955631 0.544458 0.080360
1.000000 0.535371 0.071273
1.000000 0.531925 0.067826
0.000000 0.755994 0.117214
0.000000 0.743736 0.104955
0.191977 0.730560 0.091779
0.420895 0.715708 0.076927
0.603714 0.703846 0.065066
0.768067 0.693183 0.054403
0.919828 0.683337 0.044556
1.000000 0.674250 0.035469
1.000000 0.670803 0.032023
0.000000 0.899356 0.080254
0.000000 0.887098 0.067996
0.155018 0.873922 0.054820
0.383935 0.859070 0.039968
0.566755 0.847208 0.028106
0.731107 0.836545 0.017443
0.882868 0.826699 0.007597
1.000000 0.817612 0.000000
1.000000 0.814166 0.000000
0.000000 1.000000 0.040863
0.000000 1.000000 0.028605
0.115627 1.000000 0.015429
0.344544 1.000000 0.000577
0.527364 1.000000 0.000000
0.691716 0.989340 0.000000
0.843477 0.979493 0.000000
0.983536 0.970406 0.000000
1.000000 0.966960 0.000000
0.000000 1.000000 0.026579
0.000000 1.000000 0.014321
0.101343 1.000000 0.001145
0.330260 1.000000 0.000000
0.513080 1.000000 0.000000
0.677432 1.000000 0.000000
0.829193 1.000000 0.000000
0.969252 1.000000 0.000000
1.000000 1.000000 0.000000
0.000000 0.000000 0.512697
0.181328 0.000000 0.500439
0.384410 0.000000 0.487263
0.613327 0.000000 0.472411
0.796146 0.000000 0.460550
0.960499 0.000000 0.449886
1.000000 0.000000 0.440040
1.000000 0.000000 0.430953
1.000000 0.000000 0.427507
0.000000 0.122191 0.478378
0.147009 0.109933 0.466119
0.350090 0.096757 0.452943
0.579007 0.081904 0.438091
0.761826 0.070043 0.426230
0.926179 0.059380 0.415567
1.000000 0.049533 0.405720
1.000000 0.040446 0.396633
1.000000 0.037000 0.393187
0.000000 0.251465 0.445050
0.113681 0.239207 0.432792
0.316762 0.226031 0.419616
0.545680 0.211178 0.404764
0.728499 0.199317 0.392902
0.892852 0.188654 0.382239
1.000000 0.178808 0.372393
1.000000 0.169720 0.363306
1.000000 0.166274 0.359860
0.000000 0.450750 0.393674
0.062305 0.438492 0.381416
0.265386 0.425316 0.368240
0.494303 0.410464 0.353387
0.677123 0.398602 0.341526
0.841475 0.387939 0.330863
0.993236 0.378093 0.321016
1.000000 0.369006 0.311929
1.000000 0.365560 0.308483
0.000000 0.612914 0.351867
0.020498 0.600656 0.339609
0.223579 0.587480 0.326433
0.452497 0.572628 0.311581
0.635316 0.560767 0.299719
0.799669 0.550103 0.289056
0.951430 0.540257 0.279210
1.000000 0.531170 0.270123
1.000000 0.527724 0.266677
0.000000 0.751793 0.316064
0.000000 0.739534 0.303806
0.187776 0.726358 0.290630
0.416693 0.711506 0.275777
0.599513 0.699645 0.263916
0.763865 0.688982 0.253253
0.915626 0.679135 0.243406
1.000000 0.670048 0.234319
1.000000 0.666602 0.230873
0.000000 0.895155 0.279104
0.000000 0.882896 0.266846
0.150817 0.869721 0.253670
0.379734 0.854868 0.238818
0.562553 0.843007 0.226957
0.726906 0.832344 0.216293
0.878667 0.822497 0.206447
1.000000 0.813410 0.197360
1.000000 0.809964 0.193914
0.000000 1.000000 0.239713
0.000000 1.000000 0.227455
0.111426 1.000000 0.214279
0.340343 1.000000 0.199427
0.523162 0.995802 0.187566
0.687515 0.985138 0.176902
0.839276 0.975292 0.167056
0.979334 0.966205 0.157969
1.000000 0.962759 0.154523
0.000000 1.000000 0.225429
0.000000 1.000000 0.213171
0.097142 1.000000 0.199995
0.326059 1.000000 0.185143
0.508878 1.000000 0.173282
0.673231 1.000000 0.162618
0.824992 1.000000 0.152772
0.965050 1.000000 0.143685
1.000000 1.000000 0.140239
0.000000 0.000000 0.673146
0.177938 0.000000 0.660888
0.381020 0.000000 0.647712
0.609937 0.000000 0.632860
0.792756 0.000000 0.620998
0.957109 0.000000 0.610335
1.000000 0.000000 0.600489
1.000000 0.000000 0.591402
1.000000 0.000000 0.587956
0.000000 0.118801 0.638826
0.143619 0.106543 0.626568
0.346700 0.093367 0.613392
0.575617 0.078514 0.598540
0.758436 0.066653 0.586679
0.922789 0.055990 0.576015
1.000000 0.046143 0.566169
1.000000 0.037056 0.557082
1.000000 0.033610 0.553636
0.000000 0.248075 0.605499
0.110291 0.235817 0.593241
0.313372 0.222641 0.580065
0.542290 0.207788 0.565213
0.725109 0.195927 0.553351
0.889462 0.185264 0.542688
1.000000 0.175417 0.532842
1.000000 0.166330 0.523755
1.000000 0.162884 0.520309
0.000000 0.447360 0.554123
0.058915 0.435102 0.541864
0.261996 0.421926 0.528688
0.490913 0.407074 0.513836
0.673732 0.395212 0.501975
0.838085 0.384549 0.491312
0.989846 0.374703 0.481465
1.000000 0.365616 0.472378
1.000000 0.362169 0.468932
0.000000 0.609524 0.512316
0.017108 0.597266 0.500058
0.220189 0.584090 0.486882
0.449106 0.569238 0.472030
0.631926 0.557377 0.460168
0.796279 0.546713 0.449505
0.948040 0.536867 0.439659
1.000000 0.527780 0.430572
1.000000 0.524334 0.427125
0.000000 0.748403 0.476513
0.000000 0.736144 0.464254
0.184386 0.722968 0.451078
0.413303 0.708116 0.436226
0.596123 0.696255 0.424365
0.760475 0.685592 0.413702
0.912236 0.675745 0.403855
1.000000 0.666658 0.394768
1.000000 0.663212 0.391322
0.000000 0.891765 0.439553
0.000000 0.879506 0.427295
0.147427 0.866331 0.414119
0.376344 0.851478 0.399267
0.559163 0.839617 0.387406
0.723516 0.828954 0.376742
0.875277 0.819107 0.366896
1.000000 0.810020 0.357809
1.000000 0.806574 0.354363
0.000000 1.000000 0.400162
0.000000 1.000000 0.387904
0.108036 1.000000 0.374728
0.336953 1.000000 0.359876
0.519772 0.992412 0.348014
0.684125 0.981748 0.337351
0.835886 0.971902 0.327505
0.975944 0.962815 0.318418
1.000000 0.959369 0.314972
0.000000 1.000000 0.385878
0.000000 1.000000 0.373620
0.093752 1.000000 0.360444
0.322669 1.000000 0.345592
0.505488 1.000000 0.333730
0.669841 1.000000 0.323067
0.821602 1.000000 0.313221
0.961660 1.000000 0.304134
1.000000 1.000000 0.300688
0.000000 0.000000 0.858156
0.174029 0.000000 0.845898
0.377111 0.000000 0.832722
0.606028 0.000000 0.817869
0.788847 0.000000 0.806008
0.953200 0.000000 0.795345
1.000000 0.000000 0.785498
1.000000 0.000000 0.776411
1.000000 0.000000 0.772965
0.000000 0.114892 0.823836
0.139710 0.102634 0.811578
0.342791 0.089458 0.798402
0.571708 0.074605 0.783550
0.754527 0.062744 0.771688
0.918880 0.052081 0.761025
1.000000 0.042234 0.751179
1.000000 0.033147 0.742092
1.000000 0.029701 0.738646
0.000000 0.244166 0.790509
0.106382 0.231908 0.778250
0.309463 0.218732 0.765074
0.538381 0.203879 0.750222
0.721200 0.192018 0.738361
0.885553 0.181355 0.727698
1.000000 0.171509 0.717851
1.000000 0.162421 0.708764
1.000000 0.158975 0.705318
0.000000 0.443451 0.739132
0.055006 0.431193 0.726874
0.258087 0.418017 0.713698
0.487004 0.403165 0.698846
0.669824 0.391303 0.686984
0.834176 0.380640 0.676321
0.985937 0.370794 0.666475
1.000000 0.361707 0.657388
1.000000 0.358261 0.653942
0.000000 0.605615 0.697326
0.013199 0.593357 0.685067
0.216280 0.580181 0.671891
0.445198 0.565329 0.657039
0.628017 0.553468 0.645178
0.792370 0.542804 0.634515
0.944131 0.532958 0.624668
1.000000 0.523871 0.615581
1.000000 0.520425 0.612135
0.000000 0.744494 0.661522
0.000000 0.732235 0.649264
0.180477 0.719059 0.636088
0.409394 0.704207 0.621236
0.592214 0.692346 0.609374
0.756566 0.681683 0.598711
0.908327 0.671836 0.588865
1.000000 0.662749 0.579778
1.000000 0.659303 0.576332
0.000000 0.887856 0.624563
0.000000 0.875598 0.612305
0.143518 0.862422 0.599129
0.372435 0.847569 0.584277
0.555254 0.835708 0.572415
0.719607 0.825045 0.561752
0.871368 0.815198 0.551906
1.000000 0.806111 0.542819
1.000000 0.802665 0.539372
0.000000 1.000000 0.585172
0.000000 1.000000 0.572914
0.104127 1.000000 0.559738
0.333044 1.000000 0.544885
0.515863 0.988503 0.533024
0.680216 0.977839 0.522361
0.831977 0.967993 0.512515
0.972035 0.958906 0.503427
1.000000 0.955460 0.499981
0.000000 1.000000 0.570888
0.000000 1.000000 0.558630
0.089843 1.000000 0.545454
0.318760 1.000000 0.530601
0.501579 1.000000 0.518740
0.665932 1.000000 0.508077
0.817693 1.000000 0.498231
0.957751 1.000000 0.489143
1.000000 1.000000 0.485697
0.000000 0.000000 1.000000
0.170250 0.000000 1.000000
0.373331 0.000000 1.000000
0.602248 0.000000 0.996740
0.785068 0.000000 0.984879
0.949421 0.000000 0.974215
1.000000 0.000000 0.964369
1.000000 0.000000 0.955282
1.000000 0.000000 0.951836
0.000000 0.111112 1.000000
0.135930 0.098854 0.990449
0.339012 0.085678 0.977273
0.567929 0.070826 0.962420
0.750748 0.058965 0.950559
0.915101 0.048301 0.939896
1.000000 0.038455 0.930049
1.000000 0.029368 0.920962
1.000000 0.025922 0.917516
0.000000 0.240387 0.969379
0.102603 0.228128 0.957121
0.305684 0.214952 0.943945
0.534601 0.200100 0.929093
0.717421 0.188239 0.917232
0.881774 0.177576 0.906568
1.000000 0.167729 0.896722
1.000000 0.158642 0.887635
1.000000 0.155196 0.884189
0.000000 0.439672 0.918003
0.051227 0.427414 0.905745
0.254308 0.414238 0.892569
0.483225 0.399385 0.877716
0.666044 0.387524 0.865855
0.830397 0.376861 0.855192
0.982158 0.367014 0.845346
1.000000 0.357927 0.836258
1.000000 0.354481 0.832812
0.000000 0.601836 0.876196
0.009420 0.589578 0.863938
0.212501 0.576402 0.850762
0.441418 0.561550 0.835910
0.624238 0.549688 0.824048
0.788590 0.539025 0.813385
0.940351 0.529179 0.803539
1.000000 0.520092 0.794452
1.000000 0.516646 0.791006
0.000000 0.740714 0.840393
0.000000 0.728456 0.828135
0.176698 0.715280 0.814959
0.405615 0.700428 0.800107
0.588434 0.688567 0.788245
0.752787 0.677903 0.777582
0.904548 0.668057 0.767736
1.000000 0.658970 0.758649
1.000000 0.655524 0.755202
0.000000 0.884076 0.803434
0.000000 0.871818 0.791175
0.139738 0.858642 0.777999
0.368656 0.843790 0.763147
0.551475 0.831929 0.751286
0.715828 0.821265 0.740623
0.867589 0.811419 0.730776
1.000000 0.802332 0.721689
1.000000 0.798886 0.718243
0.000000 1.000000 0.764043
0.000000 1.000000 0.751784
0.100347 1.000000 0.738608
0.329265 0.996585 0.723756
0.512084 0.984723 0.711895
0.676437 0.974060 0.701232
0.828198 0.964214 0.691385
0.968256 0.955127 0.682298
1.000000 0.951681 0.678852
0.000000 1.000000 0.749759
0.000000 1.000000 0.737500
0.086063 1.000000 0.724324
0.314981 1.000000 0.709472
0.497800 1.000000 0.697611
0.662153 1.000000 0.686948
0.813914 1.000000 0.677101
0.953972 1.000000 0.668014
1.000000 1.000000 0.664568
0.000000 0.000000 1.000000
0.165724 0.000000 1.000000
0.368805 0.000000 1.000000
0.597722 0.000000 1.000000
0.780542 0.000000 1.000000
0.944895 0.000000 1.000000
1.000000 0.000000 1.000000
1.000000 0.000000 1.000000
1.000000 0.000000 1.000000
0.000000 0.106587 1.000000
0.131404 0.094328 1.000000
0.334486 0.081152 1.000000
0.563403 0.066300 1.000000
0.746222 0.054439 1.000000
0.910575 0.043776 1.000000
1.000000 0.033929 1.000000
1.000000 0.024842 1.000000
1.000000 0.021396 1.000000
0.000000 0.235861 1.000000
0.098077 0.223602 1.000000
0.301158 0.210426 1.000000
0.530075 0.195574 1.000000
0.712895 0.183713 1.000000
0.877248 0.173050 1.000000
1.000000 0.163203 1.000000
1.000000 0.154116 1.000000
1.000000 0.150670 1.000000
0.000000 0.435146 1.000000
0.046701 0.422888 1.000000
0.249782 0.409712 1.000000
0.478699 0.394859 1.000000
0.661518 0.382998 1.000000
0.825871 0.372335 1.000000
0.977632 0.362488 1.000000
1.000000 0.353401 1.000000
1.000000 0.349955 1.000000
0.000000 0.597310 1.000000
0.004894 0.585052 1.000000
0.207975 0.571876 1.000000
0.436892 0.557024 1.000000
0.619712 0.545162 1.000000
0.784064 0.534499 1.000000
0.935825 0.524653 1.000000
1.000000 0.515566 1.000000
1.000000 0.512120 1.000000
0.000000 0.736188 1.000000
0.000000 0.723930 1.000000
0.172172 0.710754 1.000000
0.401089 0.695902 1.000000
0.583908 0.684041 1.000000
0.748261 0.673377 0.991795
0.900022 0.663531 0.981949
1.000000 0.654444 0.972862
1.000000 0.650998 0.969415
0.000000 0.879550 1.000000
0.000000 0.867292 1.000000
0.135213 0.854116 0.992212
0.364130 0.839264 0.977360
0.546949 0.827403 0.965499
0.711302 0.816739 0.954836
0.863063 0.806893 0.944989
1.000000 0.797806 0.935902
1.000000 0.794360 0.932456
0.000000 1.000000 0.978256
0.000000 1.000000 0.965997
0.095821 1.000000 0.952821
0.324739 0.992059 0.937969
0.507558 0.980197 0.926108
0.671911 0.969534 0.915445
0.823672 0.959688 0.905598
0.963730 0.950601 0.896511
1.000000 0.947155 0.893065
0.000000 1.000000 0.963972
0.000000 1.000000 0.951713
0.081537 1.000000 0.938537
0.310455 1.000000 0.923685
0.493274 1.000000 0.911824
0.657627 1.000000 0.901161
0.809388 1.000000 0.891314
0.949446 1.000000 0.882227
1.000000 1.000000 0.878781
0.000000 0.000000 1.000000
0.163163 0.000000 1.000000
0.366244 0.000000 1.000000
0.595161 0.000000 1.000000
0.777981 0.000000 1.000000
0.942334 0.000000 1.000000
1.000000 0.000000 1.000000
1.000000 0.000000 1.000000
1.000000 0.000000 1.000000
0.000000 0.104025 1.000000
0.128843 0.091767 1.000000
0.331924 0.078591 1.000000
0.560842 0.063739 1.000000
0.743661 0.051878 1.000000
0.908014 0.041214 1.000000
1.000000 0.031368 1.000000
1.000000 0.022281 1.000000
1.000000 0.018835 1.000000
0.000000 0.233299 1.000000
0.095516 0.221041 1.000000
0.298597 0.207865 1.000000
0.527514 0.193013 1.000000
0.710334 0.181152 1.000000
0.874686 0.170488 1.000000
1.000000 0.160642 1.000000
1.000000 0.151555 1.000000
1.000000 0.148109 1.000000
0.000000 0.432585 1.000000
0.044139 0.420326 1.000000
0.247221 0.407150 1.000000
0.476138 0.392298 1.000000
0.658957 0.380437 1.000000
0.823310 0.369774 1.000000
0.975071 0.359927 1.000000
1.000000 0.350840 1.000000
1.000000 0.347394 1.000000
0.000000 0.594749 1.000000
0.002333 0.582491 1.000000
0.205414 0.569315 1.000000
0.434331 0.554463 1.000000
0.617151 0.542601 1.000000
0.781503 0.531938 1.000000
0.933264 0.522092 1.000000
1.000000 0.513005 1.000000
1.000000 0.509558 1.000000
0.000000 0.733627 1.000000
0.000000 0.721369 1.000000
0.169611 0.708193 1.000000
0.398528 0.693341 1.000000
0.581347 0.681479 1.000000
0.745700 0.670816 1.000000
0.897461 0.660970 1.000000
1.000000 0.651883 1.000000
1.000000 0.648437 1.000000
0.000000 0.876989 1.000000
0.000000 0.864731 1.000000
0.132651 0.851555 1.000000
0.361568 0.836703 1.000000
0.544388 0.824842 1.000000
0.708741 0.814178 1.000000
0.860502 0.804332 1.000000
1.000000 0.795245 1.000000
1.000000 0.791799 1.000000
0.000000 1.000000 1.000000
0.000000 1.000000 1.000000
0.093260 1.000000 1.000000
0.322177 0.989498 1.000000
0.504997 0.977636 1.000000
0.669350 0.966973 1.000000
0.821111 0.957127 1.000000
0.961169 0.948040 1.000000
1.000000 0.944594 1.000000
0.000000 1.000000 1.000000
0.000000 1.000000 1.000000
0.078976 1.000000 1.000000
0.307893 1.000000 1.000000
0.490713 1.000000 1.000000
0.655066 1.000000 1.000000
0.806827 1.000000 1.000000
0.946885 1.000000 1.000000
1.000000 1.000000 1.000000
