assets/preview/luts/cc_ensolarado.cube
# Recriado de uma referência do usuário (2026-08-17) medindo o vídeo.
# Filtro original: "Ensolarado" (CapCut). Curva por canal + saturação 1.40x.
TITLE "Ensolarado"
LUT_3D_SIZE 5
DOMAIN_MIN 0.0 0.0 0.0
DOMAIN_MAX 1.0 1.0 1.0
0.003012 0.000000 0.010121
0.395028 0.000000 0.000000
0.806765 0.000000 0.000000
1.000000 0.000000 0.000000
1.000000 0.000000 0.000000
0.000000 0.262083 0.000000
0.327381 0.236649 0.000000
0.739118 0.209936 0.000000
1.000000 0.189426 0.000000
1.000000 0.176893 0.000000
0.000000 0.623533 0.000000
0.234198 0.598099 0.000000
0.645935 0.571385 0.000000
0.962048 0.550876 0.000000
1.000000 0.538342 0.000000
0.000000 0.905773 0.000000
0.161435 0.880339 0.000000
0.573172 0.853626 0.000000
0.889286 0.833116 0.000000
1.000000 0.820583 0.000000
0.000000 1.000000 0.000000
0.107760 1.000000 0.000000
0.519497 1.000000 0.000000
0.835611 1.000000 0.000000
1.000000 1.000000 0.000000
0.000000 0.000000 0.313847
0.388611 0.000000 0.288413
0.800348 0.000000 0.261699
1.000000 0.000000 0.241190
1.000000 0.000000 0.228657
0.000000 0.255666 0.246200
0.320964 0.230232 0.220766
0.732700 0.203518 0.194052
1.000000 0.183009 0.173543
1.000000 0.170476 0.161009
0.000000 0.617116 0.153017
0.227781 0.591682 0.127583
0.639517 0.564968 0.100869
0.955631 0.544458 0.080360
1.000000 0.531925 0.067826
0.000000 0.899356 0.080254
0.155018 0.873922 0.054820
0.566755 0.847208 0.028106
0.882868 0.826699 0.007597
1.000000 0.814166 0.000000
0.000000 1.000000 0.026579
0.101343 1.000000 0.001145
0.513080 1.000000 0.000000
0.829193 1.000000 0.000000
1.000000 1.000000 0.000000
0.000000 0.000000 0.673146
0.381020 0.000000 0.647712
0.792756 0.000000 0.620998
1.000000 0.000000 0.600489
1.000000 0.000000 0.587956
0.000000 0.248075 0.605499
0.313372 0.222641 0.580065
0.725109 0.195927 0.553351
1.000000 0.175417 0.532842
1.000000 0.162884 0.520309
0.000000 0.609524 0.512316
0.220189 0.584090 0.486882
0.631926 0.557377 0.460168
0.948040 0.536867 0.439659
1.000000 0.524334 0.427125
0.000000 0.891765 0.439553
0.147427 0.866331 0.414119
0.559163 0.839617 0.387406
0.875277 0.819107 0.366896
1.000000 0.806574 0.354363
0.000000 1.000000 0.385878
0.093752 1.000000 0.360444
0.505488 1.000000 0.333730
0.821602 1.000000 0.313221
1.000000 1.000000 0.300688
0.000000 0.000000 1.000000
0.373331 0.000000 1.000000
0.785068 0.000000 0.984879
1.000000 0.000000 0.964369
1.000000 0.000000 0.951836
0.000000 0.240387 0.969379
0.305684 0.214952 0.943945
0.717421 0.188239 0.917232
1.000000 0.167729 0.896722
1.000000 0.155196 0.884189
0.000000 0.601836 0.876196
0.212501 0.576402 0.850762
0.624238 0.549688 0.824048
0.940351 0.529179 0.803539
1.000000 0.516646 0.791006
0.000000 0.884076 0.803434
0.139738 0.858642 0.777999
0.551475 0.831929 0.751286
0.867589 0.811419 0.730776
1.000000 0.798886 0.718243
0.000000 1.000000 0.749759
0.086063 1.000000 0.724324
0.497800 1.000000 0.697611
0.813914 1.000000 0.677101
1.000000 1.000000 0.664568
0.000000 0.000000 1.000000
0.366244 0.000000 1.000000
0.777981 0.000000 1.000000
1.000000 0.000000 1.000000
1.000000 0.000000 1.000000
0.000000 0.233299 1.000000
0.298597 0.207865 1.000000
0.710334 0.181152 1.000000
1.000000 0.160642 1.000000
1.000000 0.148109 1.000000
0.000000 0.594749 1.000000
0.205414 0.569315 1.000000
0.617151 0.542601 1.000000
0.933264 0.522092 1.000000
1.000000 0.509558 1.000000
0.000000 0.876989 1.000000
0.132651 0.851555 1.000000
0.544388 0.824842 1.000000
0.860502 0.804332 1.000000
1.000000 0.791799 1.000000
0.000000 1.000000 1.000000
0.078976 1.000000 1.000000
0.490713 1.000000 1.000000
0.806827 1.000000 1.000000
1.000000 1.000000 1.000000
