assets/preview/luts/cc_ensolarado.cube
# Recriado de uma referência do usuário (2026-08-17) medindo o vídeo.
# Filtro original: "Ensolarado" (CapCut). Curva por canal + saturação 1.40x.
TITLE "Ensolarado"
LUT_3D_SIZE 33
DOMAIN_MIN 0.0 0.0 0.0
DOMAIN_MAX 1.0 1.0 1.0
0.003012 0.000000 0.010121
0.053247 0.000000 0.006862
0.092040 0.000000 0.004345
0.136056 0.000000 0.001489
0.191947 0.000000 0.000000
0.242459 0.000000 0.000000
0.300841 0.000000 0.000000
0.352918 0.000000 0.000000
0.395028 0.000000 0.000000
0.461642 0.000000 0.000000
0.526674 0.000000 0.000000
0.583941 0.000000 0.000000
0.623945 0.000000 0.000000
0.678631 0.000000 0.000000
0.721756 0.000000 0.000000
0.766036 0.000000 0.000000
0.806765 0.000000 0.000000
0.847156 0.000000 0.000000
0.887765 0.000000 0.000000
0.928280 0.000000 0.000000
0.971117 0.000000 0.000000
1.000000 0.000000 0.000000
1.000000 0.000000 0.000000
1.000000 0.000000 0.000000
1.000000 0.000000 0.000000
1.000000 0.000000 0.000000
1.000000 0.000000 0.000000
1.000000 0.000000 0.000000
1.000000 0.000000 0.000000
1.000000 0.000000 0.000000
1.000000 0.000000 0.000000
1.000000 0.000000 0.000000
1.000000 0.000000 0.000000
0.000000 0.021344 0.004538
0.047664 0.018085 0.001278
0.086456 0.015568 0.000000
0.130473 0.012712 0.000000
0.186363 0.009086 0.000000
0.236876 0.005809 0.000000
0.295258 0.002021 0.000000
0.347334 0.000000 0.000000
0.389445 0.000000 0.000000
0.456059 0.000000 0.000000
0.521091 0.000000 0.000000
0.578358 0.000000 0.000000
0.618362 0.000000 0.000000
0.673047 0.000000 0.000000
0.716173 0.000000 0.000000
0.760452 0.000000 0.000000
0.801181 0.000000 0.000000
0.841572 0.000000 0.000000
0.882182 0.000000 0.000000
0.922696 0.000000 0.000000
0.965534 0.000000 0.000000
1.000000 0.000000 0.000000
1.000000 0.000000 0.000000
1.000000 0.000000 0.000000
1.000000 0.000000 0.000000
1.000000 0.000000 0.000000
1.000000 0.000000 0.000000
1.000000 0.000000 0.000000
1.000000 0.000000 0.000000
1.000000 0.000000 0.000000
1.000000 0.000000 0.000000
1.000000 0.000000 0.000000
1.000000 0.000000 0.000000
0.000000 0.060644 0.000000
0.037532 0.057384 0.000000
0.076325 0.054867 0.000000
0.120341 0.052012 0.000000
0.176232 0.048385 0.000000
0.226744 0.045108 0.000000
0.285126 0.041320 0.000000
0.337202 0.037942 0.000000
0.379313 0.035210 0.000000
0.445927 0.030888 0.000000
0.510959 0.026668 0.000000
0.568226 0.022953 0.000000
0.608230 0.020357 0.000000
0.662915 0.016809 0.000000
0.706041 0.014011 0.000000
0.750321 0.011138 0.000000
0.791050 0.008496 0.000000
0.831440 0.005875 0.000000
0.872050 0.003241 0.000000
0.912565 0.000612 0.000000
0.955402 0.000000 0.000000
0.998401 0.000000 0.000000
1.000000 0.000000 0.000000
1.000000 0.000000 0.000000
1.000000 0.000000 0.000000
1.000000 0.000000 0.000000
1.000000 0.000000 0.000000
1.000000 0.000000 0.000000
1.000000 0.000000 0.000000
1.000000 0.000000 0.000000
1.000000 0.000000 0.000000
1.000000 0.000000 0.000000
1.000000 0.000000 0.000000
0.000000 0.095695 0.000000
0.028496 0.092436 0.000000
0.067288 0.089919 0.000000
0.111305 0.087063 0.000000
0.167195 0.083437 0.000000
0.217708 0.080160 0.000000
0.276090 0.076372 0.000000
0.328166 0.072993 0.000000
0.370277 0.070261 0.000000
0.436891 0.065939 0.000000
0.501923 0.061720 0.000000
0.559190 0.058004 0.000000
0.599194 0.055409 0.000000
0.653879 0.051861 0.000000
0.697005 0.049063 0.000000
0.741284 0.046190 0.000000
0.782013 0.043548 0.000000
0.822404 0.040927 0.000000
0.863014 0.038292 0.000000
0.903528 0.035664 0.000000
0.946366 0.032884 0.000000
0.989364 0.030095 0.000000
1.000000 0.027635 0.000000
1.000000 0.025426 0.000000
1.000000 0.023038 0.000000
1.000000 0.020472 0.000000
1.000000 0.018011 0.000000
1.000000 0.015845 0.000000
1.000000 0.013951 0.000000
1.000000 0.012534 0.000000
1.000000 0.011671 0.000000
1.000000 0.011023 0.000000
1.000000 0.010505 0.000000
0.000000 0.132809 0.000000
0.018928 0.129550 0.000000
0.057720 0.127033 0.000000
0.101737 0.124177 0.000000
0.157627 0.120551 0.000000
0.208139 0.117274 0.000000
0.266522 0.113486 0.000000
0.318598 0.110107 0.000000
0.360708 0.107375 0.000000
0.427323 0.103053 0.000000
0.492354 0.098834 0.000000
0.549621 0.095118 0.000000
0.589626 0.092523 0.000000
0.644311 0.088975 0.000000
0.687437 0.086177 0.000000
0.731716 0.083304 0.000000
0.772445 0.080662 0.000000
0.812836 0.078041 0.000000
0.853445 0.075406 0.000000
0.893960 0.072778 0.000000
0.936798 0.069998 0.000000
0.979796 0.067209 0.000000
1.000000 0.064749 0.000000
1.000000 0.062540 0.000000
1.000000 0.060152 0.000000
1.000000 0.057586 0.000000
1.000000 0.055125 0.000000
1.000000 0.052960 0.000000
1.000000 0.051065 0.000000
1.000000 0.049648 0.000000
1.000000 0.048785 0.000000
1.000000 0.048137 0.000000
1.000000 0.047619 0.000000
0.000000 0.168104 0.000000
0.009829 0.164845 0.000000
0.048621 0.162328 0.000000
0.092638 0.159472 0.000000
0.148528 0.155846 0.000000
0.199040 0.152568 0.000000
0.257422 0.148781 0.000000
0.309499 0.145402 0.000000
0.351609 0.142670 0.000000
0.418224 0.138348 0.000000
0.483255 0.134128 0.000000
0.540522 0.130413 0.000000
0.580527 0.127817 0.000000
0.635212 0.124269 0.000000
0.678338 0.121471 0.000000
0.722617 0.118599 0.000000
0.763346 0.115956 0.000000
0.803737 0.113335 0.000000
0.844346 0.110701 0.000000
0.884861 0.108072 0.000000
0.927699 0.105293 0.000000
0.970697 0.102503 0.000000
1.000000 0.100043 0.000000
1.000000 0.097834 0.000000
1.000000 0.095446 0.000000
1.000000 0.092881 0.000000
1.000000 0.090419 0.000000
1.000000 0.088254 0.000000
1.000000 0.086359 0.000000
1.000000 0.084942 0.000000
1.000000 0.084079 0.000000
1.000000 0.083431 0.000000
1.000000 0.082913 0.000000
0.000000 0.200415 0.000000
0.001499 0.197156 0.000000
0.040291 0.194639 0.000000
0.084308 0.191783 0.000000
0.140198 0.188157 0.000000
0.190710 0.184879 0.000000
0.249093 0.181092 0.000000
0.301169 0.177713 0.000000
0.343279 0.174981 0.000000
0.409894 0.170659 0.000000
0.474926 0.166439 0.000000
0.532192 0.162724 0.000000
0.572197 0.160128 0.000000
0.626882 0.156580 0.000000
0.670008 0.153782 0.000000
0.714287 0.150910 0.000000
0.755016 0.148267 0.000000
0.795407 0.145647 0.000000
0.836016 0.143012 0.000000
0.876531 0.140383 0.000000
0.919369 0.137604 0.000000
0.962367 0.134814 0.000000
1.000000 0.132354 0.000000
1.000000 0.130145 0.000000
1.000000 0.127758 0.000000
1.000000 0.125192 0.000000
1.000000 0.122730 0.000000
1.000000 0.120565 0.000000
1.000000 0.118671 0.000000
1.000000 0.117253 0.000000
1.000000 0.116390 0.000000
1.000000 0.115742 0.000000
1.000000 0.115224 0.000000
0.000000 0.233693 0.000000
0.000000 0.230434 0.000000
0.031712 0.227917 0.000000
0.075728 0.225061 0.000000
0.131619 0.221435 0.000000
0.182131 0.218158 0.000000
0.240513 0.214370 0.000000
0.292590 0.210991 0.000000
0.334700 0.208259 0.000000
0.401314 0.203937 0.000000
0.466346 0.199718 0.000000
0.523613 0.196002 0.000000
0.563617 0.193407 0.000000
0.618303 0.189859 0.000000
0.661428 0.187061 0.000000
0.705708 0.184188 0.000000
0.746437 0.181545 0.000000
0.786828 0.178925 0.000000
0.827437 0.176290 0.000000
0.867952 0.173661 0.000000
0.910790 0.170882 0.000000
0.953788 0.168092 0.000000
0.991702 0.165632 0.000000
1.000000 0.163424 0.000000
1.000000 0.161036 0.000000
1.000000 0.158470 0.000000
1.000000 0.156008 0.000000
1.000000 0.153843 0.000000
1.000000 0.151949 0.000000
1.000000 0.150532 0.000000
1.000000 0.149668 0.000000
1.000000 0.149020 0.000000
1.000000 0.148503 0.000000
0.000000 0.262083 0.000000
0.000000 0.258824 0.000000
0.024393 0.256307 0.000000
0.068409 0.253451 0.000000
0.124300 0.249825 0.000000
0.174812 0.246548 0.000000
0.233194 0.242760 0.000000
0.285270 0.239381 0.000000
0.327381 0.236649 0.000000
0.393995 0.232327 0.000000
0.459027 0.228108 0.000000
0.516294 0.224393 0.000000
0.556298 0.221797 0.000000
0.610984 0.218249 0.000000
0.654109 0.215451 0.000000
0.698389 0.212578 0.000000
0.739118 0.209936 0.000000
0.779508 0.207315 0.000000
0.820118 0.204680 0.000000
0.860633 0.202052 0.000000
0.903470 0.199272 0.000000
0.946469 0.196483 0.000000
0.984383 0.194023 0.000000
1.000000 0.191814 0.000000
1.000000 0.189426 0.000000
1.000000 0.186860 0.000000
1.000000 0.184399 0.000000
1.000000 0.182234 0.000000
1.000000 0.180339 0.000000
1.000000 0.178922 0.000000
1.000000 0.178059 0.000000
1.000000 0.177411 0.000000
1.000000 0.176893 0.000000
0.000000 0.305722 0.000000
0.000000 0.302463 0.000000
0.013143 0.299946 0.000000
0.057159 0.297090 0.000000
0.113050 0.293464 0.000000
0.163562 0.290186 0.000000
0.221944 0.286399 0.000000
0.274020 0.283020 0.000000
0.316131 0.280288 0.000000
0.382745 0.275966 0.000000
0.447777 0.271746 0.000000
0.505044 0.268031 0.000000
0.545048 0.265435 0.000000
0.599733 0.261887 0.000000
0.642859 0.259089 0.000000
0.687139 0.256217 0.000000
0.727867 0.253574 0.000000
0.768258 0.250954 0.000000
0.808868 0.248319 0.000000
0.849383 0.245690 0.000000
0.892220 0.242911 0.000000
0.935219 0.240121 0.000000
0.973133 0.237661 0.000000
1.000000 0.235452 0.000000
1.000000 0.233065 0.000000
1.000000 0.230499 0.000000
1.000000 0.228037 0.000000
1.000000 0.225872 0.000000
1.000000 0.223978 0.000000
1.000000 0.222560 0.000000
1.000000 0.221697 0.000000
1.000000 0.221049 0.000000
1.000000 0.220531 0.000000
0.000000 0.367966 0.000000
0.000000 0.364707 0.000000
0.000000 0.362190 0.000000
0.041112 0.359335 0.000000
0.097003 0.355708 0.000000
0.147515 0.352431 0.000000
0.205897 0.348643 0.000000
0.257973 0.345264 0.000000
0.300084 0.342532 0.000000
0.366698 0.338210 0.000000
0.431730 0.333991 0.000000
0.488997 0.330276 0.000000
0.529001 0.327680 0.000000
0.583686 0.324132 0.000000
0.626812 0.321334 0.000000
0.671092 0.318461 0.000000
0.711821 0.315819 0.000000
0.752211 0.313198 0.000000
0.792821 0.310563 0.000000
0.833336 0.307935 0.000000
0.876173 0.305155 0.000000
0.919172 0.302366 0.000000
0.957086 0.299906 0.000000
0.991130 0.297697 0.000000
1.000000 0.295309 0.000000
1.000000 0.292743 0.000000
1.000000 0.290282 0.000000
1.000000 0.288117 0.000000
1.000000 0.286222 0.000000
1.000000 0.284805 0.000000
1.000000 0.283942 0.000000
1.000000 0.283294 0.000000
1.000000 0.282776 0.000000
0.000000 0.421680 0.000000
0.000000 0.418421 0.000000
0.000000 0.415904 0.000000
0.027265 0.413048 0.000000
0.083155 0.409422 0.000000
0.133667 0.406145 0.000000
0.192050 0.402357 0.000000
0.244126 0.398978 0.000000
0.286236 0.396246 0.000000
0.352851 0.391924 0.000000
0.417883 0.387705 0.000000
0.475149 0.383989 0.000000
0.515154 0.381394 0.000000
0.569839 0.377846 0.000000
0.612965 0.375048 0.000000
0.657244 0.372175 0.000000
0.697973 0.369532 0.000000
0.738364 0.366912 0.000000
0.778973 0.364277 0.000000
0.819488 0.361648 0.000000
0.862326 0.358869 0.000000
0.905324 0.356079 0.000000
0.943238 0.353619 0.000000
0.977282 0.351410 0.000000
1.000000 0.349023 0.000000
1.000000 0.346457 0.000000
1.000000 0.343995 0.000000
1.000000 0.341830 0.000000
1.000000 0.339936 0.000000
1.000000 0.338518 0.000000
1.000000 0.337655 0.000000
1.000000 0.337007 0.000000
1.000000 0.336489 0.000000
0.000000 0.461369 0.000000
0.000000 0.458109 0.000000
0.000000 0.455592 0.000000
0.017033 0.452737 0.000000
0.072923 0.449110 0.000000
0.123436 0.445833 0.000000
0.181818 0.442045 0.000000
0.233894 0.438667 0.000000
0.276005 0.435934 0.000000
0.342619 0.431613 0.000000
0.407651 0.427393 0.000000
0.464918 0.423678 0.000000
0.504922 0.421082 0.000000
0.559607 0.417534 0.000000
0.602733 0.414736 0.000000
0.647012 0.411863 0.000000
0.687741 0.409221 0.000000
0.728132 0.406600 0.000000
0.768742 0.403966 0.000000
0.809256 0.401337 0.000000
0.852094 0.398558 0.000000
0.895092 0.395768 0.000000
0.933006 0.393308 0.000000
0.967050 0.391099 0.000000
1.000000 0.388711 0.000000
1.000000 0.386146 0.000000
1.000000 0.383684 0.000000
1.000000 0.381519 0.000000
1.000000 0.379624 0.000000
1.000000 0.378207 0.000000
1.000000 0.377344 0.000000
1.000000 0.376696 0.000000
1.000000 0.376178 0.000000
0.000000 0.501309 0.000000
0.000000 0.498050 0.000000
0.000000 0.495533 0.000000
0.006736 0.492677 0.000000
0.062627 0.489051 0.000000
0.113139 0.485774 0.000000
0.171521 0.481986 0.000000
0.223597 0.478607 0.000000
0.265708 0.475875 0.000000
0.332322 0.471553 0.000000
0.397354 0.467334 0.000000
0.454621 0.463618 0.000000
0.494625 0.461023 0.000000
0.549310 0.457475 0.000000
0.592436 0.454677 0.000000
0.636716 0.451804 0.000000
0.677444 0.449161 0.000000
0.717835 0.446541 0.000000
0.758445 0.443906 0.000000
0.798959 0.441277 0.000000
0.841797 0.438498 0.000000
0.884795 0.435708 0.000000
0.922709 0.433248 0.000000
0.956754 0.431040 0.000000
0.993558 0.428652 0.000000
1.000000 0.426086 0.000000
1.000000 0.423624 0.000000
1.000000 0.421459 0.000000
1.000000 0.419565 0.000000
1.000000 0.418148 0.000000
1.000000 0.417284 0.000000
1.000000 0.416636 0.000000
1.000000 0.416119 0.000000
0.000000 0.547081 0.000000
0.000000 0.543822 0.000000
0.000000 0.541305 0.000000
0.000000 0.538449 0.000000
0.050826 0.534823 0.000000
0.101339 0.531546 0.000000
0.159721 0.527758 0.000000
0.211797 0.524379 0.000000
0.253908 0.521647 0.000000
0.320522 0.517325 0.000000
0.385554 0.513106 0.000000
0.442821 0.509390 0.000000
0.482825 0.506795 0.000000
0.537510 0.503247 0.000000
0.580636 0.500449 0.000000
0.624915 0.497576 0.000000
0.665644 0.494933 0.000000
0.706035 0.492313 0.000000
0.746645 0.489678 0.000000
0.787159 0.487050 0.000000
0.829997 0.484270 0.000000
0.872995 0.481480 0.000000
0.910909 0.479021 0.000000
0.944953 0.476812 0.000000
0.981758 0.474424 0.000000
1.000000 0.471858 0.000000
1.000000 0.469397 0.000000
1.000000 0.467231 0.000000
1.000000 0.465337 0.000000
1.000000 0.463920 0.000000
1.000000 0.463057 0.000000
1.000000 0.462408 0.000000
1.000000 0.461891 0.000000
0.000000 0.587248 0.000000
0.000000 0.583989 0.000000
0.000000 0.581472 0.000000
0.000000 0.578616 0.000000
0.040471 0.574990 0.000000
0.090983 0.571713 0.000000
0.149366 0.567925 0.000000
0.201442 0.564546 0.000000
0.243552 0.561814 0.000000
0.310167 0.557492 0.000000
0.375198 0.553273 0.000000
0.432465 0.549557 0.000000
0.472470 0.546962 0.000000
0.527155 0.543414 0.000000
0.570281 0.540616 0.000000
0.614560 0.537743 0.000000
0.655289 0.535100 0.000000
0.695680 0.532480 0.000000
0.736289 0.529845 0.000000
0.776804 0.527216 0.000000
0.819642 0.524437 0.000000
0.862640 0.521647 0.000000
0.900554 0.519187 0.000000
0.934598 0.516979 0.000000
0.971403 0.514591 0.000000
1.000000 0.512025 0.000000
1.000000 0.509563 0.000000
1.000000 0.507398 0.000000
1.000000 0.505504 0.000000
1.000000 0.504087 0.000000
1.000000 0.503223 0.000000
1.000000 0.502575 0.000000
1.000000 0.502058 0.000000
0.000000 0.623533 0.000000
0.000000 0.620274 0.000000
0.000000 0.617757 0.000000
0.000000 0.614901 0.000000
0.031117 0.611275 0.000000
0.081629 0.607998 0.000000
0.140011 0.604210 0.000000
0.192087 0.600831 0.000000
0.234198 0.598099 0.000000
0.300812 0.593777 0.000000
0.365844 0.589558 0.000000
0.423111 0.585842 0.000000
0.463115 0.583247 0.000000
0.517800 0.579699 0.000000
0.560926 0.576901 0.000000
0.605206 0.574028 0.000000
0.645935 0.571385 0.000000
0.686325 0.568765 0.000000
0.726935 0.566130 0.000000
0.767450 0.563501 0.000000
0.810287 0.560722 0.000000
0.853286 0.557932 0.000000
0.891200 0.555472 0.000000
0.925244 0.553264 0.000000
0.962048 0.550876 0.000000
1.000000 0.548310 0.000000
1.000000 0.545848 0.000000
1.000000 0.543683 0.000000
1.000000 0.541789 0.000000
1.000000 0.540372 0.000000
1.000000 0.539508 0.000000
1.000000 0.538860 0.000000
1.000000 0.538342 0.000000
0.000000 0.653400 0.000000
0.000000 0.650140 0.000000
0.000000 0.647623 0.000000
0.000000 0.644768 0.000000
0.023417 0.641141 0.000000
0.073929 0.637864 0.000000
0.132311 0.634076 0.000000
0.184388 0.630698 0.000000
0.226498 0.627965 0.000000
0.293112 0.623644 0.000000
0.358144 0.619424 0.000000
0.415411 0.615709 0.000000
0.455415 0.613113 0.000000
0.510101 0.609565 0.000000
0.553226 0.606767 0.000000
0.597506 0.603894 0.000000
0.638235 0.601252 0.000000
0.678626 0.598631 0.000000
0.719235 0.595997 0.000000
0.759750 0.593368 0.000000
0.802588 0.590589 0.000000
0.845586 0.587799 0.000000
0.883500 0.585339 0.000000
0.917544 0.583130 0.000000
0.954348 0.580742 0.000000
0.993893 0.578177 0.000000
1.000000 0.575715 0.000000
1.000000 0.573550 0.000000
1.000000 0.571655 0.000000
1.000000 0.570238 0.000000
1.000000 0.569375 0.000000
1.000000 0.568727 0.000000
1.000000 0.568209 0.000000
0.000000 0.692545 0.000000
0.000000 0.689285 0.000000
0.000000 0.686769 0.000000
0.000000 0.683913 0.000000
0.013325 0.680287 0.000000
0.063837 0.677009 0.000000
0.122220 0.673221 0.000000
0.174296 0.669843 0.000000
0.216406 0.667111 0.000000
0.283021 0.662789 0.000000
0.348053 0.658569 0.000000
0.405319 0.654854 0.000000
0.445324 0.652258 0.000000
0.500009 0.648710 0.000000
0.543135 0.645912 0.000000
0.587414 0.643039 0.000000
0.628143 0.640397 0.000000
0.668534 0.637776 0.000000
0.709143 0.635142 0.000000
0.749658 0.632513 0.000000
0.792496 0.629734 0.000000
0.835494 0.626944 0.000000
0.873408 0.624484 0.000000
0.907452 0.622275 0.000000
0.944257 0.619887 0.000000
0.983801 0.617322 0.000000
1.000000 0.614860 0.000000
1.000000 0.612695 0.000000
1.000000 0.610800 0.000000
1.000000 0.609383 0.000000
1.000000 0.608520 0.000000
1.000000 0.607872 0.000000
1.000000 0.607354 0.000000
0.000000 0.732048 0.000000
0.000000 0.728789 0.000000
0.000000 0.726272 0.000000
0.000000 0.723416 0.000000
0.003141 0.719790 0.000000
0.053653 0.716513 0.000000
0.112036 0.712725 0.000000
0.164112 0.709346 0.000000
0.206222 0.706614 0.000000
0.272837 0.702292 0.000000
0.337868 0.698073 0.000000
0.395135 0.694357 0.000000
0.435140 0.691762 0.000000
0.489825 0.688214 0.000000
0.532951 0.685416 0.000000
0.577230 0.682543 0.000000
0.617959 0.679900 0.000000
0.658350 0.677280 0.000000
0.698959 0.674645 0.000000
0.739474 0.672016 0.000000
0.782312 0.669237 0.000000
0.825310 0.666447 0.000000
0.863224 0.663987 0.000000
0.897268 0.661779 0.000000
0.934073 0.659391 0.000000
0.973617 0.656825 0.000000
1.000000 0.654363 0.000000
1.000000 0.652198 0.000000
1.000000 0.650304 0.000000
1.000000 0.648887 0.000000
1.000000 0.648023 0.000000
1.000000 0.647375 0.000000
1.000000 0.646857 0.000000
0.000000 0.762411 0.000000
0.000000 0.759152 0.000000
0.000000 0.756635 0.000000
0.000000 0.753779 0.000000
0.000000 0.750153 0.000000
0.045826 0.746876 0.000000
0.104208 0.743088 0.000000
0.156284 0.739709 0.000000
0.198395 0.736977 0.000000
0.265009 0.732655 0.000000
0.330041 0.728436 0.000000
0.387308 0.724720 0.000000
0.427312 0.722125 0.000000
0.481997 0.718577 0.000000
0.525123 0.715779 0.000000
0.569402 0.712906 0.000000
0.610131 0.710263 0.000000
0.650522 0.707643 0.000000
0.691132 0.705008 0.000000
0.731646 0.702380 0.000000
0.774484 0.699600 0.000000
0.817482 0.696810 0.000000
0.855396 0.694351 0.000000
0.889440 0.692142 0.000000
0.926245 0.689754 0.000000
0.965790 0.687188 0.000000
1.000000 0.684727 0.000000
1.000000 0.682561 0.000000
1.000000 0.680667 0.000000
1.000000 0.679250 0.000000
1.000000 0.678387 0.000000
1.000000 0.677738 0.000000
1.000000 0.677221 0.000000
0.000000 0.798173 0.000000
0.000000 0.794913 0.000000
0.000000 0.792397 0.000000
0.000000 0.789541 0.000000
0.000000 0.785915 0.000000
0.036606 0.782637 0.000000
0.094988 0.778850 0.000000
0.147065 0.775471 0.000000
0.189175 0.772739 0.000000
0.255789 0.768417 0.000000
0.320821 0.764197 0.000000
0.378088 0.760482 0.000000
0.418092 0.757886 0.000000
0.472778 0.754338 0.000000
0.515903 0.751540 0.000000
0.560183 0.748668 0.000000
0.600912 0.746025 0.000000
0.641303 0.743404 0.000000
0.681912 0.740770 0.000000
0.722427 0.738141 0.000000
0.765264 0.735362 0.000000
0.808263 0.732572 0.000000
0.846177 0.730112 0.000000
0.880221 0.727903 0.000000
0.917025 0.725515 0.000000
0.956570 0.722950 0.000000
0.994511 0.720488 0.000000
1.000000 0.718323 0.000000
1.000000 0.716428 0.000000
1.000000 0.715011 0.000000
1.000000 0.714148 0.000000
1.000000 0.713500 0.000000
1.000000 0.712982 0.000000
0.000000 0.832134 0.000000
0.000000 0.828875 0.000000
0.000000 0.826358 0.000000
0.000000 0.823502 0.000000
0.000000 0.819876 0.000000
0.027851 0.816599 0.000000
0.086233 0.812811 0.000000
0.138309 0.809432 0.000000
0.180420 0.806700 0.000000
0.247034 0.802378 0.000000
0.312066 0.798159 0.000000
0.369333 0.794444 0.000000
0.409337 0.791848 0.000000
0.464022 0.788300 0.000000
0.507148 0.785502 0.000000
0.551428 0.782629 0.000000
0.592156 0.779987 0.000000
0.632547 0.777366 0.000000
0.673157 0.774731 0.000000
0.713671 0.772103 0.000000
0.756509 0.769323 0.000000
0.799507 0.766534 0.000000
0.837421 0.764074 0.000000
0.871465 0.761865 0.000000
0.908270 0.759477 0.000000
0.947815 0.756911 0.000000
0.985756 0.754450 0.000000
1.000000 0.752285 0.000000
1.000000 0.750390 0.000000
1.000000 0.748973 0.000000
1.000000 0.748110 0.000000
1.000000 0.747462 0.000000
1.000000 0.746944 0.000000
0.000000 0.869819 0.000000
0.000000 0.866560 0.000000
0.000000 0.864043 0.000000
0.000000 0.861187 0.000000
0.000000 0.857561 0.000000
0.018136 0.854284 0.000000
0.076518 0.850496 0.000000
0.128594 0.847117 0.000000
0.170705 0.844385 0.000000
0.237319 0.840063 0.000000
0.302351 0.835844 0.000000
0.359617 0.832128 0.000000
0.399622 0.829533 0.000000
0.454307 0.825985 0.000000
0.497433 0.823187 0.000000
0.541712 0.820314 0.000000
0.582441 0.817671 0.000000
0.622832 0.815051 0.000000
0.663442 0.812416 0.000000
0.703956 0.809787 0.000000
0.746794 0.807008 0.000000
0.789792 0.804218 0.000000
0.827706 0.801758 0.000000
0.861750 0.799550 0.000000
0.898555 0.797162 0.000000
0.938100 0.794596 0.000000
0.976040 0.792134 0.000000
1.000000 0.789969 0.000000
1.000000 0.788075 0.000000
1.000000 0.786657 0.000000
1.000000 0.785794 0.000000
1.000000 0.785146 0.000000
1.000000 0.784628 0.000000
0.000000 0.905773 0.000000
0.000000 0.902514 0.000000
0.000000 0.899997 0.000000
0.000000 0.897141 0.000000
0.000000 0.893515 0.000000
0.008866 0.890238 0.000000
0.067248 0.886450 0.000000
0.119325 0.883071 0.000000
0.161435 0.880339 0.000000
0.228050 0.876017 0.000000
0.293081 0.871798 0.000000
0.350348 0.868082 0.000000
0.390352 0.865487 0.000000
0.445038 0.861939 0.000000
0.488163 0.859141 0.000000
0.532443 0.856268 0.000000
0.573172 0.853626 0.000000
0.613563 0.851005 0.000000
0.654172 0.848370 0.000000
0.694687 0.845742 0.000000
0.737525 0.842962 0.000000
0.780523 0.840173 0.000000
0.818437 0.837713 0.000000
0.852481 0.835504 0.000000
0.889286 0.833116 0.000000
0.928830 0.830550 0.000000
0.966771 0.828089 0.000000
1.000000 0.825923 0.000000
1.000000 0.824029 0.000000
1.000000 0.822612 0.000000
1.000000 0.821749 0.000000
1.000000 0.821101 0.000000
1.000000 0.820583 0.000000
0.000000 0.942703 0.000000
0.000000 0.939444 0.000000
0.000000 0.936927 0.000000
0.000000 0.934071 0.000000
0.000000 0.930445 0.000000
0.000000 0.927168 0.000000
0.057728 0.923380 0.000000
0.109804 0.920001 0.000000
0.151915 0.917269 0.000000
0.218529 0.912947 0.000000
0.283561 0.908728 0.000000
0.340828 0.905012 0.000000
0.380832 0.902417 0.000000
0.435517 0.898869 0.000000
0.478643 0.896071 0.000000
0.522922 0.893198 0.000000
0.563651 0.890556 0.000000
0.604042 0.887935 0.000000
0.644652 0.885300 0.000000
0.685166 0.882672 0.000000
0.728004 0.879892 0.000000
0.771002 0.877103 0.000000
0.808916 0.874643 0.000000
0.842960 0.872434 0.000000
0.879765 0.870046 0.000000
0.919310 0.867480 0.000000
0.957251 0.865019 0.000000
0.990623 0.862853 0.000000
1.000000 0.860959 0.000000
1.000000 0.859542 0.000000
1.000000 0.858679 0.000000
1.000000 0.858031 0.000000
1.000000 0.857513 0.000000
0.000000 0.984979 0.000000
0.000000 0.981720 0.000000
0.000000 0.979203 0.000000
0.000000 0.976347 0.000000
0.000000 0.972721 0.000000
0.000000 0.969444 0.000000
0.046829 0.965656 0.000000
0.098905 0.962277 0.000000
0.141016 0.959545 0.000000
0.207630 0.955223 0.000000
0.272662 0.951004 0.000000
0.329929 0.947288 0.000000
0.369933 0.944693 0.000000
0.424618 0.941145 0.000000
0.467744 0.938347 0.000000
0.512024 0.935474 0.000000
0.552752 0.932832 0.000000
0.593143 0.930211 0.000000
0.633753 0.927576 0.000000
0.674267 0.924948 0.000000
0.717105 0.922168 0.000000
0.760103 0.919379 0.000000
