assets/preview/luts/cc_laranja_azul.cube
# Recriado de uma referência do usuário (2026-08-17) medindo o vídeo.
# Filtro original: "Laranja Azul" (CapCut). Curva por canal + saturação 1.27x.
TITLE "Laranja Azul"
LUT_3D_SIZE 5
DOMAIN_MIN 0.0 0.0 0.0
DOMAIN_MAX 1.0 1.0 1.0
0.000000 0.000000 0.000000
0.255122 0.000000 0.000000
0.646614 0.000000 0.000000
1.000000 0.000000 0.000000
1.000000 0.000000 0.000000
0.000000 0.221233 0.000000
0.215373 0.209135 0.000000
0.606864 0.190570 0.000000
0.963180 0.173673 0.000000
1.000000 0.163709 0.000000
0.000000 0.532026 0.000000
0.159532 0.519928 0.000000
0.551024 0.501363 0.000000
0.907339 0.484466 0.000000
1.000000 0.474501 0.000000
0.000000 0.827479 0.000000
0.106448 0.815381 0.000000
0.497940 0.796816 0.000000
0.854255 0.779919 0.000000
1.000000 0.769955 0.000000
0.000000 1.000000 0.000000
0.061605 1.000000 0.000000
0.453097 1.000000 0.000000
0.809413 1.000000 0.000000
1.000000 1.000000 0.000000
0.000000 0.000000 0.298298
0.250464 0.000000 0.286200
0.641955 0.000000 0.267635
0.998271 0.000000 0.250738
1.000000 0.000000 0.240774
0.000000 0.216575 0.258549
0.210714 0.204477 0.246451
0.602206 0.185912 0.227886
0.958522 0.169015 0.210989
1.000000 0.159051 0.201025
0.000000 0.527368 0.202709
0.154874 0.515270 0.190611
0.546366 0.496705 0.172046
0.902681 0.479808 0.155149
1.000000 0.469843 0.145184
0.000000 0.822821 0.149625
0.101790 0.810723 0.137526
0.493282 0.792158 0.118961
0.849597 0.775261 0.102064
1.000000 0.765297 0.092100
0.000000 1.000000 0.104782
0.056947 1.000000 0.092684
0.448439 1.000000 0.074119
0.804755 1.000000 0.057222
1.000000 1.000000 0.047258
0.000000 0.000000 0.602625
0.245711 0.000000 0.590526
0.637203 0.000000 0.571961
0.993518 0.000000 0.555064
1.000000 0.000000 0.545100
0.000000 0.211823 0.562875
0.205962 0.199725 0.550777
0.597454 0.181160 0.532212
0.953769 0.164263 0.515315
1.000000 0.154298 0.505351
0.000000 0.522616 0.507035
0.150122 0.510517 0.494937
0.541614 0.491952 0.476372
0.897929 0.475055 0.459475
1.000000 0.465091 0.449511
0.000000 0.818069 0.453951
0.097038 0.805971 0.441853
0.488529 0.787406 0.423288
0.844845 0.770509 0.406391
1.000000 0.760544 0.396426
0.000000 1.000000 0.409108
0.052195 1.000000 0.397010
0.443687 1.000000 0.378445
0.800002 1.000000 0.361548
1.000000 1.000000 0.351584
0.000000 0.000000 0.929752
0.240603 0.000000 0.917654
0.632095 0.000000 0.899089
0.988410 0.000000 0.882192
1.000000 0.000000 0.872228
0.000000 0.206715 0.890003
0.200854 0.194616 0.877905
0.592346 0.176051 0.859340
0.948661 0.159154 0.842443
1.000000 0.149190 0.832478
0.000000 0.517507 0.834163
0.145014 0.505409 0.822064
0.536506 0.486844 0.803499
0.892821 0.469947 0.786602
1.000000 0.459983 0.776638
0.000000 0.812961 0.781078
0.091929 0.800863 0.768980
0.483421 0.782297 0.750415
0.839736 0.765401 0.733518
1.000000 0.755436 0.723554
0.000000 1.000000 0.736236
0.047087 1.000000 0.724138
0.438579 1.000000 0.705573
0.794894 1.000000 0.688676
1.000000 1.000000 0.678711
0.000000 0.000000 1.000000
0.235586 0.000000 1.000000
0.627078 0.000000 1.000000
0.983393 0.000000 1.000000
1.000000 0.000000 1.000000
0.000000 0.201698 1.000000
0.195837 0.189599 1.000000
0.587329 0.171034 1.000000
0.943644 0.154137 1.000000
1.000000 0.144173 1.000000
0.000000 0.512490 1.000000
0.139997 0.500392 1.000000
0.531488 0.481827 1.000000
0.887804 0.464930 1.000000
1.000000 0.454966 1.000000
0.000000 0.807944 1.000000
0.086912 0.795845 1.000000
0.478404 0.777280 1.000000
0.834719 0.760383 1.000000
1.000000 0.750419 1.000000
0.000000 1.000000 1.000000
0.042070 1.000000 1.000000
0.433562 1.000000 1.000000
0.789877 1.000000 1.000000
1.000000 1.000000 1.000000
