assets/preview/luts/cc_laranja_azul.cube
# Recriado de uma referência do usuário (2026-08-17) medindo o vídeo.
# Filtro original: "Laranja Azul" (CapCut). Curva por canal + saturação 1.27x.
TITLE "Laranja Azul"
LUT_3D_SIZE 33
DOMAIN_MIN 0.0 0.0 0.0
DOMAIN_MAX 1.0 1.0 1.0
0.000000 0.000000 0.000000
0.002244 0.000000 0.000000
0.009161 0.000000 0.000000
0.021041 0.000000 0.000000
0.055373 0.000000 0.000000
0.104744 0.000000 0.000000
0.163214 0.000000 0.000000
0.215880 0.000000 0.000000
0.255122 0.000000 0.000000
0.297265 0.000000 0.000000
0.356499 0.000000 0.000000
0.405343 0.000000 0.000000
0.444691 0.000000 0.000000
0.480469 0.000000 0.000000
0.516130 0.000000 0.000000
0.575002 0.000000 0.000000
0.646614 0.000000 0.000000
0.679907 0.000000 0.000000
0.698990 0.000000 0.000000
0.749989 0.000000 0.000000
0.813254 0.000000 0.000000
0.878038 0.000000 0.000000
0.923179 0.000000 0.000000
0.963846 0.000000 0.000000
1.000000 0.000000 0.000000
1.000000 0.000000 0.000000
1.000000 0.000000 0.000000
1.000000 0.000000 0.000000
1.000000 0.000000 0.000000
1.000000 0.000000 0.000000
1.000000 0.000000 0.000000
1.000000 0.000000 0.000000
1.000000 0.000000 0.000000
0.000000 0.012411 0.000000
0.000014 0.012304 0.000000
0.006931 0.011976 0.000000
0.018811 0.011413 0.000000
0.053143 0.009785 0.000000
0.102515 0.007443 0.000000
0.160984 0.004671 0.000000
0.213651 0.002173 0.000000
0.252892 0.000312 0.000000
0.295035 0.000000 0.000000
0.354269 0.000000 0.000000
0.403114 0.000000 0.000000
0.442462 0.000000 0.000000
0.478239 0.000000 0.000000
0.513900 0.000000 0.000000
0.572773 0.000000 0.000000
0.644384 0.000000 0.000000
0.677678 0.000000 0.000000
0.696760 0.000000 0.000000
0.747759 0.000000 0.000000
0.811024 0.000000 0.000000
0.875808 0.000000 0.000000
0.920950 0.000000 0.000000
0.961616 0.000000 0.000000
1.000000 0.000000 0.000000
1.000000 0.000000 0.000000
1.000000 0.000000 0.000000
1.000000 0.000000 0.000000
1.000000 0.000000 0.000000
1.000000 0.000000 0.000000
1.000000 0.000000 0.000000
1.000000 0.000000 0.000000
1.000000 0.000000 0.000000
0.000000 0.035552 0.000000
0.000000 0.035445 0.000000
0.002773 0.035117 0.000000
0.014654 0.034554 0.000000
0.048986 0.032926 0.000000
0.098357 0.030584 0.000000
0.156826 0.027812 0.000000
0.209493 0.025314 0.000000
0.248734 0.023453 0.000000
0.290878 0.021455 0.000000
0.350112 0.018646 0.000000
0.398956 0.016330 0.000000
0.438304 0.014464 0.000000
0.474081 0.012767 0.000000
0.509742 0.011076 0.000000
0.568615 0.008284 0.000000
0.640226 0.004888 0.000000
0.673520 0.003309 0.000000
0.692602 0.002404 0.000000
0.743602 0.000000 0.000000
0.806866 0.000000 0.000000
0.871651 0.000000 0.000000
0.916792 0.000000 0.000000
0.957459 0.000000 0.000000
0.996541 0.000000 0.000000
1.000000 0.000000 0.000000
1.000000 0.000000 0.000000
1.000000 0.000000 0.000000
1.000000 0.000000 0.000000
1.000000 0.000000 0.000000
1.000000 0.000000 0.000000
1.000000 0.000000 0.000000
1.000000 0.000000 0.000000
0.000000 0.065249 0.000000
0.000000 0.065142 0.000000
0.000000 0.064814 0.000000
0.009318 0.064251 0.000000
0.043650 0.062623 0.000000
0.093021 0.060282 0.000000
0.151490 0.057509 0.000000
0.204157 0.055011 0.000000
0.243398 0.053150 0.000000
0.285542 0.051152 0.000000
0.344776 0.048343 0.000000
0.393620 0.046027 0.000000
0.432968 0.044161 0.000000
0.468746 0.042464 0.000000
0.504407 0.040773 0.000000
0.563279 0.037981 0.000000
0.634890 0.034585 0.000000
0.668184 0.033007 0.000000
0.687266 0.032102 0.000000
0.738266 0.029683 0.000000
0.801530 0.026683 0.000000
0.866315 0.023611 0.000000
0.911456 0.021470 0.000000
0.952123 0.019542 0.000000
0.991205 0.017688 0.000000
1.000000 0.015904 0.000000
1.000000 0.014418 0.000000
1.000000 0.012990 0.000000
1.000000 0.011657 0.000000
1.000000 0.010465 0.000000
1.000000 0.009679 0.000000
1.000000 0.008755 0.000000
1.000000 0.007724 0.000000
0.000000 0.095857 0.000000
0.000000 0.095750 0.000000
0.000000 0.095422 0.000000
0.003818 0.094859 0.000000
0.038151 0.093231 0.000000
0.087522 0.090890 0.000000
0.145991 0.088117 0.000000
0.198658 0.085619 0.000000
0.237899 0.083759 0.000000
0.280043 0.081760 0.000000
0.339277 0.078951 0.000000
0.388121 0.076635 0.000000
0.427469 0.074769 0.000000
0.463246 0.073072 0.000000
0.498907 0.071381 0.000000
0.557780 0.068589 0.000000
0.629391 0.065194 0.000000
0.662685 0.063615 0.000000
0.681767 0.062710 0.000000
0.732766 0.060291 0.000000
0.796031 0.057291 0.000000
0.860816 0.054219 0.000000
0.905957 0.052078 0.000000
0.946623 0.050150 0.000000
0.985706 0.048297 0.000000
1.000000 0.046512 0.000000
1.000000 0.045026 0.000000
1.000000 0.043598 0.000000
1.000000 0.042265 0.000000
1.000000 0.041073 0.000000
1.000000 0.040287 0.000000
1.000000 0.039363 0.000000
1.000000 0.038332 0.000000
0.000000 0.123898 0.000000
0.000000 0.123792 0.000000
0.000000 0.123464 0.000000
0.000000 0.122900 0.000000
0.033112 0.121272 0.000000
0.082484 0.118931 0.000000
0.140953 0.116158 0.000000
0.193620 0.113661 0.000000
0.232861 0.111800 0.000000
0.275004 0.109801 0.000000
0.334238 0.106992 0.000000
0.383082 0.104676 0.000000
0.422431 0.102810 0.000000
0.458208 0.101114 0.000000
0.493869 0.099422 0.000000
0.552742 0.096631 0.000000
0.624353 0.093235 0.000000
0.657647 0.091656 0.000000
0.676729 0.090751 0.000000
0.727728 0.088333 0.000000
0.790993 0.085332 0.000000
0.855777 0.082260 0.000000
0.900918 0.080120 0.000000
0.941585 0.078191 0.000000
0.980668 0.076338 0.000000
1.000000 0.074553 0.000000
1.000000 0.073068 0.000000
1.000000 0.071640 0.000000
1.000000 0.070307 0.000000
1.000000 0.069114 0.000000
1.000000 0.068328 0.000000
1.000000 0.067405 0.000000
1.000000 0.066374 0.000000
0.000000 0.155882 0.000000
0.000000 0.155775 0.000000
0.000000 0.155447 0.000000
0.000000 0.154884 0.000000
0.027366 0.153256 0.000000
0.076737 0.150915 0.000000
0.135206 0.148142 0.000000
0.187873 0.145644 0.000000
0.227114 0.143784 0.000000
0.269258 0.141785 0.000000
0.328492 0.138976 0.000000
0.377336 0.136660 0.000000
0.416684 0.134794 0.000000
0.452461 0.133097 0.000000
0.488122 0.131406 0.000000
0.546995 0.128614 0.000000
0.618606 0.125218 0.000000
0.651900 0.123640 0.000000
0.670982 0.122735 0.000000
0.721982 0.120316 0.000000
0.785246 0.117316 0.000000
0.850031 0.114244 0.000000
0.895172 0.112103 0.000000
0.935839 0.110175 0.000000
0.974921 0.108322 0.000000
1.000000 0.106537 0.000000
1.000000 0.105051 0.000000
1.000000 0.103623 0.000000
1.000000 0.102290 0.000000
1.000000 0.101098 0.000000
1.000000 0.100312 0.000000
1.000000 0.099388 0.000000
1.000000 0.098357 0.000000
0.000000 0.197012 0.000000
0.000000 0.196905 0.000000
0.000000 0.196577 0.000000
0.000000 0.196014 0.000000
0.019976 0.194386 0.000000
0.069347 0.192045 0.000000
0.127816 0.189272 0.000000
0.180483 0.186774 0.000000
0.219724 0.184914 0.000000
0.261868 0.182915 0.000000
0.321102 0.180106 0.000000
0.369946 0.177790 0.000000
0.409294 0.175924 0.000000
0.445072 0.174227 0.000000
0.480733 0.172536 0.000000
0.539605 0.169744 0.000000
0.611216 0.166349 0.000000
0.644510 0.164770 0.000000
0.663593 0.163865 0.000000
0.714592 0.161446 0.000000
0.777857 0.158446 0.000000
0.842641 0.155374 0.000000
0.887782 0.153233 0.000000
0.928449 0.151305 0.000000
0.967532 0.149452 0.000000
1.000000 0.147667 0.000000
1.000000 0.146181 0.000000
1.000000 0.144753 0.000000
1.000000 0.143420 0.000000
1.000000 0.142228 0.000000
1.000000 0.141442 0.000000
1.000000 0.140518 0.000000
1.000000 0.139487 0.000000
0.000000 0.221233 0.000000
0.000000 0.221127 0.000000
0.000000 0.220799 0.000000
0.000000 0.220235 0.000000
0.015624 0.218607 0.000000
0.064995 0.216266 0.000000
0.123465 0.213493 0.000000
0.176131 0.210996 0.000000
0.215373 0.209135 0.000000
0.257516 0.207136 0.000000
0.316750 0.204327 0.000000
0.365594 0.202011 0.000000
0.404942 0.200145 0.000000
0.440720 0.198449 0.000000
0.476381 0.196758 0.000000
0.535253 0.193966 0.000000
0.606864 0.190570 0.000000
0.640158 0.188991 0.000000
0.659241 0.188086 0.000000
0.710240 0.185668 0.000000
0.773505 0.182668 0.000000
0.838289 0.179595 0.000000
0.883430 0.177455 0.000000
0.924097 0.175526 0.000000
0.963180 0.173673 0.000000
1.000000 0.171888 0.000000
1.000000 0.170403 0.000000
1.000000 0.168975 0.000000
1.000000 0.167642 0.000000
1.000000 0.166449 0.000000
1.000000 0.165664 0.000000
1.000000 0.164740 0.000000
1.000000 0.163709 0.000000
0.000000 0.256039 0.000000
0.000000 0.255932 0.000000
0.000000 0.255604 0.000000
0.000000 0.255041 0.000000
0.009371 0.253413 0.000000
0.058742 0.251071 0.000000
0.117211 0.248299 0.000000
0.169878 0.245801 0.000000
0.209119 0.243940 0.000000
0.251263 0.241942 0.000000
0.310497 0.239133 0.000000
0.359341 0.236817 0.000000
0.398689 0.234951 0.000000
0.434466 0.233254 0.000000
0.470127 0.231563 0.000000
0.529000 0.228771 0.000000
0.600611 0.225375 0.000000
0.633905 0.223796 0.000000
0.652987 0.222891 0.000000
0.703987 0.220473 0.000000
0.767251 0.217473 0.000000
0.832036 0.214401 0.000000
0.877177 0.212260 0.000000
0.917844 0.210332 0.000000
0.956926 0.208478 0.000000
0.994557 0.206694 0.000000
1.000000 0.205208 0.000000
1.000000 0.203780 0.000000
1.000000 0.202447 0.000000
1.000000 0.201254 0.000000
1.000000 0.200469 0.000000
1.000000 0.199545 0.000000
1.000000 0.198514 0.000000
0.000000 0.328877 0.000000
0.000000 0.328770 0.000000
0.000000 0.328442 0.000000
0.000000 0.327879 0.000000
0.000000 0.326251 0.000000
0.045655 0.323909 0.000000
0.104124 0.321137 0.000000
0.156791 0.318639 0.000000
0.196032 0.316778 0.000000
0.238176 0.314780 0.000000
0.297410 0.311971 0.000000
0.346254 0.309655 0.000000
0.385602 0.307789 0.000000
0.421379 0.306092 0.000000
0.457040 0.304401 0.000000
0.515913 0.301609 0.000000
0.587524 0.298213 0.000000
0.620818 0.296634 0.000000
0.639900 0.295730 0.000000
0.690900 0.293311 0.000000
0.754164 0.290311 0.000000
0.818949 0.287239 0.000000
0.864090 0.285098 0.000000
0.904757 0.283170 0.000000
0.943839 0.281316 0.000000
0.981471 0.279532 0.000000
1.000000 0.278046 0.000000
1.000000 0.276618 0.000000
1.000000 0.275285 0.000000
1.000000 0.274093 0.000000
1.000000 0.273307 0.000000
1.000000 0.272383 0.000000
1.000000 0.271352 0.000000
0.000000 0.371366 0.000000
0.000000 0.371260 0.000000
0.000000 0.370932 0.000000
0.000000 0.370368 0.000000
0.000000 0.368740 0.000000
0.038021 0.366399 0.000000
0.096490 0.363626 0.000000
0.149157 0.361129 0.000000
0.188398 0.359268 0.000000
0.230542 0.357270 0.000000
0.289776 0.354461 0.000000
0.338620 0.352144 0.000000
0.377968 0.350278 0.000000
0.413745 0.348582 0.000000
0.449406 0.346891 0.000000
0.508279 0.344099 0.000000
0.579890 0.340703 0.000000
0.613184 0.339124 0.000000
0.632266 0.338219 0.000000
0.683266 0.335801 0.000000
0.746530 0.332801 0.000000
0.811315 0.329729 0.000000
0.856456 0.327588 0.000000
0.897122 0.325659 0.000000
0.936205 0.323806 0.000000
0.973836 0.322022 0.000000
1.000000 0.320536 0.000000
1.000000 0.319108 0.000000
1.000000 0.317775 0.000000
1.000000 0.316582 0.000000
1.000000 0.315797 0.000000
1.000000 0.314873 0.000000
1.000000 0.313842 0.000000
0.000000 0.397541 0.000000
0.000000 0.397435 0.000000
0.000000 0.397107 0.000000
0.000000 0.396544 0.000000
0.000000 0.394916 0.000000
0.033318 0.392574 0.000000
0.091787 0.389802 0.000000
0.144454 0.387304 0.000000
0.183695 0.385443 0.000000
0.225839 0.383445 0.000000
0.285073 0.380636 0.000000
0.333917 0.378320 0.000000
0.373265 0.376454 0.000000
0.409042 0.374757 0.000000
0.444703 0.373066 0.000000
0.503576 0.370274 0.000000
0.575187 0.366878 0.000000
0.608481 0.365299 0.000000
0.627563 0.364394 0.000000
0.678563 0.361976 0.000000
0.741827 0.358976 0.000000
0.806612 0.355904 0.000000
0.851753 0.353763 0.000000
0.892420 0.351835 0.000000
0.931502 0.349981 0.000000
0.969133 0.348197 0.000000
1.000000 0.346711 0.000000
1.000000 0.345283 0.000000
1.000000 0.343950 0.000000
1.000000 0.342757 0.000000
1.000000 0.341972 0.000000
1.000000 0.341048 0.000000
1.000000 0.340017 0.000000
0.000000 0.427625 0.000000
0.000000 0.427518 0.000000
0.000000 0.427190 0.000000
0.000000 0.426627 0.000000
0.000000 0.424999 0.000000
0.027913 0.422658 0.000000
0.086382 0.419885 0.000000
0.139049 0.417387 0.000000
0.178290 0.415526 0.000000
0.220434 0.413528 0.000000
0.279668 0.410719 0.000000
0.328512 0.408403 0.000000
0.367860 0.406537 0.000000
0.403637 0.404840 0.000000
0.439298 0.403149 0.000000
0.498171 0.400357 0.000000
0.569782 0.396961 0.000000
0.603076 0.395383 0.000000
0.622158 0.394478 0.000000
0.673158 0.392059 0.000000
0.736422 0.389059 0.000000
0.801207 0.385987 0.000000
0.846348 0.383846 0.000000
0.887014 0.381918 0.000000
0.926097 0.380064 0.000000
0.963728 0.378280 0.000000
0.995057 0.376794 0.000000
1.000000 0.375366 0.000000
1.000000 0.374033 0.000000
1.000000 0.372841 0.000000
1.000000 0.372055 0.000000
1.000000 0.371131 0.000000
1.000000 0.370100 0.000000
0.000000 0.467087 0.000000
0.000000 0.466980 0.000000
0.000000 0.466652 0.000000
0.000000 0.466089 0.000000
0.000000 0.464461 0.000000
0.020823 0.462120 0.000000
0.079292 0.459347 0.000000
0.131959 0.456850 0.000000
0.171200 0.454989 0.000000
0.213343 0.452990 0.000000
0.272577 0.450181 0.000000
0.321422 0.447865 0.000000
0.360770 0.445999 0.000000
0.396547 0.444302 0.000000
0.432208 0.442611 0.000000
0.491081 0.439820 0.000000
0.562692 0.436424 0.000000
0.595986 0.434845 0.000000
0.615068 0.433940 0.000000
0.666067 0.431521 0.000000
0.729332 0.428521 0.000000
0.794116 0.425449 0.000000
0.839258 0.423309 0.000000
0.879924 0.421380 0.000000
0.919007 0.419527 0.000000
0.956638 0.417742 0.000000
0.987967 0.416257 0.000000
1.000000 0.414829 0.000000
1.000000 0.413496 0.000000
1.000000 0.412303 0.000000
1.000000 0.411517 0.000000
1.000000 0.410593 0.000000
1.000000 0.409562 0.000000
0.000000 0.502643 0.000000
0.000000 0.502537 0.000000
0.000000 0.502209 0.000000
0.000000 0.501645 0.000000
0.000000 0.500017 0.000000
0.014434 0.497676 0.000000
0.072903 0.494903 0.000000
0.125570 0.492406 0.000000
0.164811 0.490545 0.000000
0.206955 0.488546 0.000000
0.266189 0.485738 0.000000
0.315033 0.483421 0.000000
0.354381 0.481555 0.000000
0.390159 0.479859 0.000000
0.425820 0.478168 0.000000
0.484692 0.475376 0.000000
0.556303 0.471980 0.000000
0.589597 0.470401 0.000000
0.608680 0.469496 0.000000
0.659679 0.467078 0.000000
0.722944 0.464078 0.000000
0.787728 0.461005 0.000000
0.832869 0.458865 0.000000
0.873536 0.456936 0.000000
0.912619 0.455083 0.000000
0.950250 0.453298 0.000000
0.981579 0.451813 0.000000
1.000000 0.450385 0.000000
1.000000 0.449052 0.000000
1.000000 0.447859 0.000000
1.000000 0.447074 0.000000
1.000000 0.446150 0.000000
1.000000 0.445119 0.000000
0.000000 0.532026 0.000000
0.000000 0.531919 0.000000
0.000000 0.531591 0.000000
0.000000 0.531028 0.000000
0.000000 0.529400 0.000000
0.009155 0.527059 0.000000
0.067624 0.524286 0.000000
0.120291 0.521789 0.000000
0.159532 0.519928 0.000000
0.201676 0.517929 0.000000
0.260910 0.515120 0.000000
0.309754 0.512804 0.000000
0.349102 0.510938 0.000000
0.384879 0.509241 0.000000
0.420540 0.507550 0.000000
0.479413 0.504758 0.000000
0.551024 0.501363 0.000000
0.584318 0.499784 0.000000
0.603400 0.498879 0.000000
0.654400 0.496460 0.000000
0.717664 0.493460 0.000000
0.782449 0.490388 0.000000
0.827590 0.488247 0.000000
0.868257 0.486319 0.000000
0.907339 0.484466 0.000000
0.944971 0.482681 0.000000
0.976299 0.481195 0.000000
1.000000 0.479767 0.000000
1.000000 0.478435 0.000000
1.000000 0.477242 0.000000
1.000000 0.476456 0.000000
1.000000 0.475532 0.000000
1.000000 0.474501 0.000000
0.000000 0.566792 0.000000
0.000000 0.566685 0.000000
0.000000 0.566357 0.000000
0.000000 0.565794 0.000000
0.000000 0.564166 0.000000
0.002909 0.561824 0.000000
0.061378 0.559052 0.000000
0.114045 0.556554 0.000000
0.153286 0.554693 0.000000
0.195429 0.552695 0.000000
0.254663 0.549886 0.000000
0.303508 0.547570 0.000000
0.342856 0.545704 0.000000
0.378633 0.544007 0.000000
0.414294 0.542316 0.000000
0.473167 0.539524 0.000000
0.544778 0.536128 0.000000
0.578072 0.534549 0.000000
0.597154 0.533644 0.000000
0.648153 0.531226 0.000000
0.711418 0.528226 0.000000
0.776202 0.525154 0.000000
0.821344 0.523013 0.000000
0.862010 0.521085 0.000000
0.901093 0.519231 0.000000
0.938724 0.517447 0.000000
0.970053 0.515961 0.000000
1.000000 0.514533 0.000000
1.000000 0.513200 0.000000
1.000000 0.512007 0.000000
1.000000 0.511222 0.000000
1.000000 0.510298 0.000000
1.000000 0.509267 0.000000
0.000000 0.616238 0.000000
0.000000 0.616132 0.000000
0.000000 0.615804 0.000000
0.000000 0.615240 0.000000
0.000000 0.613612 0.000000
0.000000 0.611271 0.000000
0.052494 0.608498 0.000000
0.105160 0.606001 0.000000
0.144402 0.604140 0.000000
0.186545 0.602142 0.000000
0.245779 0.599333 0.000000
0.294623 0.597016 0.000000
0.333971 0.595150 0.000000
0.369749 0.593454 0.000000
0.405410 0.591763 0.000000
0.464283 0.588971 0.000000
0.535894 0.585575 0.000000
0.569187 0.583996 0.000000
0.588270 0.583091 0.000000
0.639269 0.580673 0.000000
0.702534 0.577673 0.000000
0.767318 0.574601 0.000000
0.812459 0.572460 0.000000
0.853126 0.570531 0.000000
0.892209 0.568678 0.000000
0.929840 0.566894 0.000000
0.961169 0.565408 0.000000
0.991282 0.563980 0.000000
1.000000 0.562647 0.000000
1.000000 0.561454 0.000000
1.000000 0.560669 0.000000
1.000000 0.559745 0.000000
1.000000 0.558714 0.000000
0.000000 0.663205 0.000000
0.000000 0.663099 0.000000
0.000000 0.662771 0.000000
0.000000 0.662208 0.000000
0.000000 0.660580 0.000000
0.000000 0.658238 0.000000
0.044055 0.655466 0.000000
0.096722 0.652968 0.000000
0.135963 0.651107 0.000000
0.178107 0.649109 0.000000
0.237341 0.646300 0.000000
0.286185 0.643983 0.000000
0.325533 0.642118 0.000000
0.361310 0.640421 0.000000
0.396971 0.638730 0.000000
0.455844 0.635938 0.000000
0.527455 0.632542 0.000000
0.560749 0.630963 0.000000
0.579831 0.630058 0.000000
0.630831 0.627640 0.000000
0.694095 0.624640 0.000000
0.758880 0.621568 0.000000
0.804021 0.619427 0.000000
0.844688 0.617499 0.000000
0.883770 0.615645 0.000000
0.921401 0.613861 0.000000
0.952730 0.612375 0.000000
0.982843 0.610947 0.000000
1.000000 0.609614 0.000000
1.000000 0.608421 0.000000
1.000000 0.607636 0.000000
1.000000 0.606712 0.000000
1.000000 0.605681 0.000000
0.000000 0.692271 0.000000
0.000000 0.692165 0.000000
0.000000 0.691837 0.000000
0.000000 0.691274 0.000000
0.000000 0.689645 0.000000
0.000000 0.687304 0.000000
0.038833 0.684532 0.000000
0.091500 0.682034 0.000000
0.130741 0.680173 0.000000
0.172884 0.678175 0.000000
0.232118 0.675366 0.000000
0.280962 0.673049 0.000000
0.320311 0.671184 0.000000
0.356088 0.669487 0.000000
0.391749 0.667796 0.000000
0.450622 0.665004 0.000000
0.522233 0.661608 0.000000
0.555527 0.660029 0.000000
0.574609 0.659124 0.000000
0.625608 0.656706 0.000000
0.688873 0.653706 0.000000
0.753657 0.650634 0.000000
0.798798 0.648493 0.000000
0.839465 0.646565 0.000000
0.878548 0.644711 0.000000
0.916179 0.642927 0.000000
0.947508 0.641441 0.000000
0.977621 0.640013 0.000000
1.000000 0.638680 0.000000
1.000000 0.637487 0.000000
1.000000 0.636702 0.000000
1.000000 0.635778 0.000000
1.000000 0.634747 0.000000
0.000000 0.726501 0.000000
0.000000 0.726394 0.000000
0.000000 0.726066 0.000000
0.000000 0.725503 0.000000
0.000000 0.723875 0.000000
0.000000 0.721534 0.000000
0.032683 0.718761 0.000000
0.085350 0.716263 0.000000
0.124591 0.714403 0.000000
0.166734 0.712404 0.000000
0.225968 0.709595 0.000000
0.274812 0.707279 0.000000
0.314161 0.705413 0.000000
0.349938 0.703716 0.000000
0.385599 0.702025 0.000000
0.444472 0.699233 0.000000
0.516083 0.695837 0.000000
0.549377 0.694259 0.000000
0.568459 0.693354 0.000000
0.619458 0.690935 0.000000
0.682723 0.687935 0.000000
0.747507 0.684863 0.000000
0.792648 0.682722 0.000000
0.833315 0.680794 0.000000
0.872398 0.678941 0.000000
0.910029 0.677156 0.000000
0.941358 0.675670 0.000000
0.971471 0.674242 0.000000
0.999579 0.672909 0.000000
1.000000 0.671717 0.000000
1.000000 0.670931 0.000000
1.000000 0.670007 0.000000
1.000000 0.668976 0.000000
0.000000 0.761418 0.000000
0.000000 0.761311 0.000000
0.000000 0.760983 0.000000
0.000000 0.760420 0.000000
0.000000 0.758792 0.000000
0.000000 0.756451 0.000000
0.026409 0.753678 0.000000
0.079076 0.751180 0.000000
0.118317 0.749320 0.000000
0.160461 0.747321 0.000000
0.219695 0.744512 0.000000
0.268539 0.742196 0.000000
0.307887 0.740330 0.000000
0.343664 0.738633 0.000000
0.379325 0.736942 0.000000
0.438198 0.734150 0.000000
0.509809 0.730754 0.000000
0.543103 0.729176 0.000000
0.562185 0.728271 0.000000
0.613185 0.725852 0.000000
0.676449 0.722852 0.000000
0.741234 0.719780 0.000000
0.786375 0.717639 0.000000
0.827042 0.715711 0.000000
0.866124 0.713857 0.000000
0.903756 0.712073 0.000000
0.935084 0.710587 0.000000
0.965197 0.709159 0.000000
0.993306 0.707826 0.000000
1.000000 0.706634 0.000000
1.000000 0.705848 0.000000
1.000000 0.704924 0.000000
1.000000 0.703893 0.000000
0.000000 0.794207 0.000000
0.000000 0.794101 0.000000
0.000000 0.793773 0.000000
0.000000 0.793209 0.000000
0.000000 0.791581 0.000000
0.000000 0.789240 0.000000
0.020518 0.786467 0.000000
0.073185 0.783970 0.000000
0.112426 0.782109 0.000000
0.154570 0.780110 0.000000
0.213804 0.777301 0.000000
0.262648 0.774985 0.000000
0.301996 0.773119 0.000000
0.337773 0.771423 0.000000
0.373434 0.769732 0.000000
0.432307 0.766940 0.000000
0.503918 0.763544 0.000000
0.537212 0.761965 0.000000
0.556294 0.761060 0.000000
0.607293 0.758642 0.000000
0.670558 0.755642 0.000000
0.735342 0.752569 0.000000
0.780484 0.750429 0.000000
0.821150 0.748500 0.000000
0.860233 0.746647 0.000000
0.897864 0.744862 0.000000
0.929193 0.743377 0.000000
0.959306 0.741949 0.000000
0.987414 0.740616 0.000000
1.000000 0.739423 0.000000
1.000000 0.738638 0.000000
1.000000 0.737714 0.000000
1.000000 0.736683 0.000000
0.000000 0.827479 0.000000
0.000000 0.827373 0.000000
0.000000 0.827045 0.000000
0.000000 0.826481 0.000000
0.000000 0.824853 0.000000
0.000000 0.822512 0.000000
0.014540 0.819739 0.000000
0.067207 0.817242 0.000000
0.106448 0.815381 0.000000
0.148592 0.813383 0.000000
0.207825 0.810574 0.000000
0.256670 0.808257 0.000000
0.296018 0.806391 0.000000
0.331795 0.804695 0.000000
0.367456 0.803004 0.000000
0.426329 0.800212 0.000000
0.497940 0.796816 0.000000
0.531234 0.795237 0.000000
0.550316 0.794332 0.000000
0.601315 0.791914 0.000000
0.664580 0.788914 0.000000
0.729364 0.785842 0.000000
0.774506 0.783701 0.000000
0.815172 0.781772 0.000000
0.854255 0.779919 0.000000
0.891886 0.778135 0.000000
0.923215 0.776649 0.000000
0.953328 0.775221 0.000000
0.981436 0.773888 0.000000
1.000000 0.772695 0.000000
1.000000 0.771910 0.000000
1.000000 0.770986 0.000000
1.000000 0.769955 0.000000
0.000000 0.861009 0.000000
0.000000 0.860903 0.000000
0.000000 0.860575 0.000000
0.000000 0.860011 0.000000
0.000000 0.858383 0.000000
0.000000 0.856042 0.000000
0.008515 0.853269 0.000000
0.061182 0.850772 0.000000
0.100423 0.848911 0.000000
0.142567 0.846913 0.000000
0.201801 0.844104 0.000000
0.250645 0.841787 0.000000
0.289993 0.839921 0.000000
0.325771 0.838225 0.000000
0.361432 0.836534 0.000000
0.420304 0.833742 0.000000
0.491915 0.830346 0.000000
0.525209 0.828767 0.000000
0.544292 0.827862 0.000000
0.595291 0.825444 0.000000
0.658556 0.822444 0.000000
0.723340 0.819372 0.000000
0.768481 0.817231 0.000000
0.809148 0.815302 0.000000
0.848231 0.813449 0.000000
0.885862 0.811665 0.000000
0.917191 0.810179 0.000000
0.947303 0.808751 0.000000
0.975412 0.807418 0.000000
1.000000 0.806225 0.000000
1.000000 0.805440 0.000000
1.000000 0.804516 0.000000
1.000000 0.803485 0.000000
0.000000 0.894185 0.000000
0.000000 0.894079 0.000000
0.000000 0.893751 0.000000
0.000000 0.893187 0.000000
0.000000 0.891559 0.000000
0.000000 0.889218 0.000000
0.002555 0.886445 0.000000
0.055222 0.883948 0.000000
0.094463 0.882087 0.000000
0.136606 0.880089 0.000000
0.195840 0.877280 0.000000
0.244684 0.874963 0.000000
0.284033 0.873097 0.000000
0.319810 0.871401 0.000000
0.355471 0.869710 0.000000
0.414344 0.866918 0.000000
0.485955 0.863522 0.000000
0.519249 0.861943 0.000000
0.538331 0.861038 0.000000
0.589330 0.858620 0.000000
0.652595 0.855620 0.000000
0.717379 0.852548 0.000000
