assets/preview/luts/cc_laranja_azul.cube
# Recriado de uma referência do usuário (2026-08-17) medindo o vídeo.
# Filtro original: "Laranja Azul" (CapCut). Curva por canal + saturação 1.27x.
TITLE "Laranja Azul"
LUT_3D_SIZE 9
DOMAIN_MIN 0.0 0.0 0.0
DOMAIN_MAX 1.0 1.0 1.0
0.000000 0.000000 0.000000
0.055373 0.000000 0.000000
0.255122 0.000000 0.000000
0.444691 0.000000 0.000000
0.646614 0.000000 0.000000
0.813254 0.000000 0.000000
1.000000 0.000000 0.000000
1.000000 0.000000 0.000000
1.000000 0.000000 0.000000
0.000000 0.095857 0.000000
0.038151 0.093231 0.000000
0.237899 0.083759 0.000000
0.427469 0.074769 0.000000
0.629391 0.065194 0.000000
0.796031 0.057291 0.000000
0.985706 0.048297 0.000000
1.000000 0.042265 0.000000
1.000000 0.038332 0.000000
0.000000 0.221233 0.000000
0.015624 0.218607 0.000000
0.215373 0.209135 0.000000
0.404942 0.200145 0.000000
0.606864 0.190570 0.000000
0.773505 0.182668 0.000000
0.963180 0.173673 0.000000
1.000000 0.167642 0.000000
1.000000 0.163709 0.000000
0.000000 0.397541 0.000000
0.000000 0.394916 0.000000
0.183695 0.385443 0.000000
0.373265 0.376454 0.000000
0.575187 0.366878 0.000000
0.741827 0.358976 0.000000
0.931502 0.349981 0.000000
1.000000 0.343950 0.000000
1.000000 0.340017 0.000000
0.000000 0.532026 0.000000
0.000000 0.529400 0.000000
0.159532 0.519928 0.000000
0.349102 0.510938 0.000000
0.551024 0.501363 0.000000
0.717664 0.493460 0.000000
0.907339 0.484466 0.000000
1.000000 0.478435 0.000000
1.000000 0.474501 0.000000
0.000000 0.692271 0.000000
0.000000 0.689645 0.000000
0.130741 0.680173 0.000000
0.320311 0.671184 0.000000
0.522233 0.661608 0.000000
0.688873 0.653706 0.000000
0.878548 0.644711 0.000000
1.000000 0.638680 0.000000
1.000000 0.634747 0.000000
0.000000 0.827479 0.000000
0.000000 0.824853 0.000000
0.106448 0.815381 0.000000
0.296018 0.806391 0.000000
0.497940 0.796816 0.000000
0.664580 0.788914 0.000000
0.854255 0.779919 0.000000
0.981436 0.773888 0.000000
1.000000 0.769955 0.000000
0.000000 0.971594 0.000000
0.000000 0.968968 0.000000
0.080555 0.959495 0.000000
0.270125 0.950506 0.000000
0.472047 0.940930 0.000000
0.638687 0.933028 0.000000
0.828362 0.924033 0.000000
0.955543 0.918002 0.000000
1.000000 0.914069 0.000000
0.000000 1.000000 0.000000
0.000000 1.000000 0.000000
0.061605 1.000000 0.000000
0.251175 1.000000 0.000000
0.453097 1.000000 0.000000
0.619738 1.000000 0.000000
0.809413 1.000000 0.000000
0.936594 1.000000 0.000000
1.000000 1.000000 0.000000
0.000000 0.000000 0.144416
0.053118 0.000000 0.141790
0.252867 0.000000 0.132318
0.442436 0.000000 0.123328
0.644358 0.000000 0.113753
0.810999 0.000000 0.105850
1.000000 0.000000 0.096856
1.000000 0.000000 0.090825
1.000000 0.000000 0.086891
0.000000 0.093602 0.127193
0.035896 0.090976 0.124567
0.235644 0.081503 0.115095
0.425214 0.072514 0.106105
0.627136 0.062938 0.096530
0.793776 0.055036 0.088628
0.983451 0.046041 0.079633
1.000000 0.040010 0.073602
1.000000 0.036077 0.069669
0.000000 0.218978 0.104667
0.013369 0.216352 0.102041
0.213117 0.206880 0.092569
0.402687 0.197890 0.083579
0.604609 0.188315 0.074003
0.771250 0.180412 0.066101
0.960925 0.171418 0.057107
1.000000 0.165387 0.051075
1.000000 0.161454 0.047142
0.000000 0.395286 0.072989
0.000000 0.392660 0.070363
0.181440 0.383188 0.060891
0.371010 0.374198 0.051901
0.572932 0.364623 0.042326
0.739572 0.356721 0.034424
0.929247 0.347726 0.025429
1.000000 0.341695 0.019398
1.000000 0.337762 0.015465
0.000000 0.529771 0.048826
0.000000 0.527145 0.046201
0.157277 0.517673 0.036728
0.346847 0.508683 0.027739
0.548769 0.499107 0.018163
0.715409 0.491205 0.010261
0.905084 0.482211 0.001266
1.000000 0.476179 0.000000
1.000000 0.472246 0.000000
0.000000 0.690016 0.020035
0.000000 0.687390 0.017409
0.128486 0.677918 0.007937
0.318055 0.668928 0.000000
0.519978 0.659353 0.000000
0.686618 0.651451 0.000000
0.876293 0.642456 0.000000
1.000000 0.636425 0.000000
1.000000 0.632492 0.000000
0.000000 0.825224 0.000000
0.000000 0.822598 0.000000
0.104193 0.813126 0.000000
0.293763 0.804136 0.000000
0.495685 0.794561 0.000000
0.662325 0.786659 0.000000
0.852000 0.777664 0.000000
0.979181 0.771633 0.000000
1.000000 0.767700 0.000000
0.000000 0.969338 0.000000
0.000000 0.966713 0.000000
0.078300 0.957240 0.000000
0.267869 0.948251 0.000000
0.469791 0.938675 0.000000
0.636432 0.930773 0.000000
0.826107 0.921778 0.000000
0.953288 0.915747 0.000000
1.000000 0.911814 0.000000
0.000000 1.000000 0.000000
0.000000 1.000000 0.000000
0.059350 1.000000 0.000000
0.248920 1.000000 0.000000
0.450842 1.000000 0.000000
0.617482 1.000000 0.000000
0.807157 1.000000 0.000000
0.934339 1.000000 0.000000
1.000000 1.000000 0.000000
0.000000 0.000000 0.298298
0.050715 0.000000 0.295673
0.250464 0.000000 0.286200
0.440033 0.000000 0.277211
0.641955 0.000000 0.267635
0.808596 0.000000 0.259733
0.998271 0.000000 0.250738
1.000000 0.000000 0.244707
1.000000 0.000000 0.240774
0.000000 0.091199 0.281076
0.033493 0.088573 0.278450
0.233241 0.079101 0.268978
0.422811 0.070111 0.259988
0.624733 0.060535 0.250413
0.791373 0.052633 0.242510
0.981048 0.043639 0.233516
1.000000 0.037607 0.227484
1.000000 0.033674 0.223551
0.000000 0.216575 0.258549
0.010966 0.213949 0.255923
0.210714 0.204477 0.246451
0.400284 0.195487 0.237461
0.602206 0.185912 0.227886
0.768847 0.178010 0.219984
0.958522 0.169015 0.210989
1.000000 0.162984 0.204958
1.000000 0.159051 0.201025
0.000000 0.392883 0.226872
0.000000 0.390257 0.224246
0.179037 0.380785 0.214774
0.368607 0.371796 0.205784
0.570529 0.362220 0.196209
0.737169 0.354318 0.188306
0.926844 0.345323 0.179312
1.000000 0.339292 0.173281
1.000000 0.335359 0.169347
0.000000 0.527368 0.202709
0.000000 0.524742 0.200083
0.154874 0.515270 0.190611
0.344444 0.506280 0.181621
0.546366 0.496705 0.172046
0.713006 0.488802 0.164143
0.902681 0.479808 0.155149
1.000000 0.473776 0.149118
1.000000 0.469843 0.145184
0.000000 0.687613 0.173918
0.000000 0.684987 0.171292
0.126083 0.675515 0.161819
0.315652 0.666525 0.152830
0.517575 0.656950 0.143254
0.684215 0.649048 0.135352
0.873890 0.640053 0.126357
1.000000 0.634022 0.120326
1.000000 0.630089 0.116393
0.000000 0.822821 0.149625
0.000000 0.820195 0.146999
0.101790 0.810723 0.137526
0.291360 0.801733 0.128537
0.493282 0.792158 0.118961
0.659922 0.784256 0.111059
0.849597 0.775261 0.102064
0.976778 0.769230 0.096033
1.000000 0.765297 0.092100
0.000000 0.966935 0.123732
0.000000 0.964310 0.121106
0.075897 0.954837 0.111633
0.265466 0.945848 0.102644
0.467389 0.936272 0.093068
0.634029 0.928370 0.085166
0.823704 0.919375 0.076171
0.950885 0.913344 0.070140
1.000000 0.909411 0.066207
0.000000 1.000000 0.104782
0.000000 1.000000 0.102156
0.056947 1.000000 0.092684
0.246517 1.000000 0.083694
0.448439 1.000000 0.074119
0.615080 1.000000 0.066217
0.804755 1.000000 0.057222
0.931936 1.000000 0.051191
1.000000 1.000000 0.047258
0.000000 0.000000 0.475034
0.047955 0.000000 0.472408
0.247704 0.000000 0.462936
0.437274 0.000000 0.453946
0.639196 0.000000 0.444371
0.805836 0.000000 0.436468
0.995511 0.000000 0.427474
1.000000 0.000000 0.421443
1.000000 0.000000 0.417509
0.000000 0.088439 0.457811
0.030733 0.085813 0.455185
0.230481 0.076341 0.445713
0.420051 0.067351 0.436723
0.621973 0.057776 0.427148
0.788613 0.049873 0.419246
0.978288 0.040879 0.410251
1.000000 0.034848 0.404220
1.000000 0.030914 0.400287
0.000000 0.213815 0.435285
0.008206 0.211189 0.432659
0.207955 0.201717 0.423187
0.397524 0.192727 0.414197
0.599447 0.183152 0.404622
0.766087 0.175250 0.396719
0.955762 0.166255 0.387725
1.000000 0.160224 0.381694
1.000000 0.156291 0.377760
0.000000 0.390124 0.403607
0.000000 0.387498 0.400982
0.176277 0.378025 0.391509
0.365847 0.369036 0.382520
0.567769 0.359460 0.372944
0.734409 0.351558 0.365042
0.924084 0.342563 0.356047
1.000000 0.336532 0.350016
1.000000 0.332599 0.346083
0.000000 0.524608 0.379444
0.000000 0.521982 0.376819
0.152114 0.512510 0.367346
0.341684 0.503520 0.358357
0.543606 0.493945 0.348781
0.710246 0.486042 0.340879
0.899921 0.477048 0.331884
1.000000 0.471017 0.325853
1.000000 0.467083 0.321920
0.000000 0.684853 0.350653
0.000000 0.682228 0.348027
0.123323 0.672755 0.338555
0.312893 0.663766 0.329565
0.514815 0.654190 0.319990
0.681455 0.646288 0.312087
0.871130 0.637293 0.303093
0.998311 0.631262 0.297062
1.000000 0.627329 0.293129
0.000000 0.820061 0.326360
0.000000 0.817435 0.323734
0.099030 0.807963 0.314262
0.288600 0.798974 0.305272
0.490522 0.789398 0.295697
0.657162 0.781496 0.287795
0.846837 0.772501 0.278800
0.974018 0.766470 0.272769
1.000000 0.762537 0.268836
0.000000 0.964176 0.300467
0.000000 0.961550 0.297841
0.073137 0.952077 0.288369
0.262707 0.943088 0.279379
0.464629 0.933512 0.269804
0.631269 0.925610 0.261901
0.820944 0.916615 0.252907
0.948125 0.910584 0.246876
1.000000 0.906651 0.242943
0.000000 1.000000 0.281518
0.000000 1.000000 0.278892
0.054188 1.000000 0.269420
0.243757 1.000000 0.260430
0.445679 1.000000 0.250855
0.612320 1.000000 0.242952
0.801995 1.000000 0.233958
0.929176 1.000000 0.227926
1.000000 1.000000 0.223993
0.000000 0.000000 0.602625
0.045963 0.000000 0.599999
0.245711 0.000000 0.590526
0.435281 0.000000 0.581537
0.637203 0.000000 0.571961
0.803843 0.000000 0.564059
0.993518 0.000000 0.555064
1.000000 0.000000 0.549033
1.000000 0.000000 0.545100
0.000000 0.086447 0.585402
0.028740 0.083821 0.582776
0.228489 0.074348 0.573304
0.418059 0.065359 0.564314
0.619981 0.055783 0.554739
0.786621 0.047881 0.546836
0.976296 0.038886 0.537842
1.000000 0.032855 0.531811
1.000000 0.028922 0.527877
0.000000 0.211823 0.562875
0.006214 0.209197 0.560250
0.205962 0.199725 0.550777
0.395532 0.190735 0.541788
0.597454 0.181160 0.532212
0.764094 0.173257 0.524310
0.953769 0.164263 0.515315
1.000000 0.158232 0.509284
1.000000 0.154298 0.505351
0.000000 0.388131 0.531198
0.000000 0.385505 0.528572
0.174285 0.376033 0.519100
0.363855 0.367043 0.510110
0.565777 0.357468 0.500535
0.732417 0.349566 0.492632
0.922092 0.340571 0.483638
1.000000 0.334540 0.477607
1.000000 0.330607 0.473673
0.000000 0.522616 0.507035
0.000000 0.519990 0.504409
0.150122 0.510517 0.494937
0.339692 0.501528 0.485947
0.541614 0.491952 0.476372
0.708254 0.484050 0.468470
0.897929 0.475055 0.459475
1.000000 0.469024 0.453444
1.000000 0.465091 0.449511
0.000000 0.682861 0.478244
0.000000 0.680235 0.475618
0.121330 0.670763 0.466145
0.310900 0.661773 0.457156
0.512822 0.652198 0.447580
0.679463 0.644296 0.439678
0.869138 0.635301 0.430683
0.996319 0.629270 0.424652
1.000000 0.625337 0.420719
0.000000 0.818069 0.453951
0.000000 0.815443 0.451325
0.097038 0.805971 0.441853
0.286607 0.796981 0.432863
0.488529 0.787406 0.423288
0.655170 0.779503 0.415385
0.844845 0.770509 0.406391
0.972026 0.764478 0.400359
1.000000 0.760544 0.396426
0.000000 0.962183 0.428058
0.000000 0.959557 0.425432
0.071144 0.950085 0.415959
0.260714 0.941095 0.406970
0.462636 0.931520 0.397394
0.629277 0.923618 0.389492
0.818952 0.914623 0.380497
0.946133 0.908592 0.374466
1.000000 0.904659 0.370533
0.000000 1.000000 0.409108
0.000000 1.000000 0.406483
0.052195 1.000000 0.397010
0.241765 1.000000 0.388021
0.443687 1.000000 0.378445
0.610327 1.000000 0.370543
0.800002 1.000000 0.361548
0.927184 1.000000 0.355517
1.000000 1.000000 0.351584
0.000000 0.000000 0.789444
0.043046 0.000000 0.786818
0.242794 0.000000 0.777346
0.432364 0.000000 0.768356
0.634286 0.000000 0.758781
0.800926 0.000000 0.750878
0.990601 0.000000 0.741884
1.000000 0.000000 0.735853
1.000000 0.000000 0.731919
0.000000 0.083529 0.772221
0.025823 0.080903 0.769595
0.225571 0.071431 0.760123
0.415141 0.062441 0.751133
0.617063 0.052866 0.741558
0.783704 0.044964 0.733656
0.973379 0.035969 0.724661
1.000000 0.029938 0.718630
1.000000 0.026005 0.714697
0.000000 0.208906 0.749695
0.003297 0.206280 0.747069
0.203045 0.196807 0.737597
0.392615 0.187818 0.728607
0.594537 0.178242 0.719032
0.761177 0.170340 0.711129
0.950852 0.161345 0.702135
1.000000 0.155314 0.696103
1.000000 0.151381 0.692170
0.000000 0.385214 0.718017
0.000000 0.382588 0.715391
0.171368 0.373116 0.705919
0.360937 0.364126 0.696930
0.562859 0.354551 0.687354
0.729500 0.346648 0.679452
0.919175 0.337654 0.670457
1.000000 0.331623 0.664426
1.000000 0.327689 0.660493
0.000000 0.519698 0.693854
0.000000 0.517072 0.691229
0.147205 0.507600 0.681756
0.336774 0.498610 0.672767
0.538697 0.489035 0.663191
0.705337 0.481133 0.655289
0.895012 0.472138 0.646294
1.000000 0.466107 0.640263
1.000000 0.462174 0.636330
0.000000 0.679944 0.665063
0.000000 0.677318 0.662437
0.118413 0.667846 0.652965
0.307983 0.658856 0.643975
0.509905 0.649281 0.634400
0.676545 0.641378 0.626497
0.866220 0.632384 0.617503
0.993402 0.626352 0.611472
1.000000 0.622419 0.607539
0.000000 0.815152 0.640770
0.000000 0.812526 0.638144
0.094120 0.803053 0.628672
0.283690 0.794064 0.619682
0.485612 0.784488 0.610107
0.652252 0.776586 0.602205
0.841927 0.767591 0.593210
0.969109 0.761560 0.587179
1.000000 0.757627 0.583246
0.000000 0.959266 0.614877
0.000000 0.956640 0.612251
0.068227 0.947168 0.602779
0.257797 0.938178 0.593789
0.459719 0.928603 0.584214
0.626359 0.920700 0.576311
0.816034 0.911706 0.567317
0.943216 0.905675 0.561286
1.000000 0.901741 0.557353
0.000000 1.000000 0.595928
0.000000 1.000000 0.593302
0.049278 1.000000 0.583830
0.238848 1.000000 0.574840
0.440770 1.000000 0.565264
0.607410 1.000000 0.557362
0.797085 1.000000 0.548368
0.924266 1.000000 0.542336
1.000000 1.000000 0.538403
0.000000 0.000000 0.929752
0.040855 0.000000 0.927126
0.240603 0.000000 0.917654
0.430173 0.000000 0.908664
0.632095 0.000000 0.899089
0.798735 0.000000 0.891187
0.988410 0.000000 0.882192
1.000000 0.000000 0.876161
1.000000 0.000000 0.872228
0.000000 0.081338 0.912529
0.023632 0.078712 0.909904
0.223380 0.069240 0.900431
0.412950 0.060250 0.891442
0.614872 0.050675 0.881866
0.781513 0.042773 0.873964
0.971188 0.033778 0.864969
1.000000 0.027747 0.858938
1.000000 0.023814 0.855005
0.000000 0.206715 0.890003
0.001106 0.204089 0.887377
0.200854 0.194616 0.877905
0.390424 0.185627 0.868915
0.592346 0.176051 0.859340
0.758986 0.168149 0.851437
0.948661 0.159154 0.842443
1.000000 0.153123 0.836412
1.000000 0.149190 0.832478
0.000000 0.383023 0.858326
0.000000 0.380397 0.855700
0.169177 0.370925 0.846227
0.358746 0.361935 0.837238
0.560668 0.352360 0.827662
0.727309 0.344457 0.819760
0.916984 0.335463 0.810765
1.000000 0.329432 0.804734
1.000000 0.325498 0.800801
0.000000 0.517507 0.834163
0.000000 0.514881 0.831537
0.145014 0.505409 0.822064
0.334583 0.496419 0.813075
0.536506 0.486844 0.803499
0.703146 0.478942 0.795597
0.892821 0.469947 0.786602
1.000000 0.463916 0.780571
1.000000 0.459983 0.776638
0.000000 0.677753 0.805371
0.000000 0.675127 0.802745
0.116222 0.665655 0.793273
0.305792 0.656665 0.784283
0.507714 0.647090 0.774708
0.674354 0.639187 0.766806
0.864029 0.630193 0.757811
0.991211 0.624162 0.751780
1.000000 0.620228 0.747847
0.000000 0.812961 0.781078
0.000000 0.810335 0.778452
0.091929 0.800863 0.768980
0.281499 0.791873 0.759990
0.483421 0.782297 0.750415
0.650061 0.774395 0.742513
0.839736 0.765401 0.733518
0.966918 0.759369 0.727487
1.000000 0.755436 0.723554
0.000000 0.957075 0.755185
0.000000 0.954449 0.752559
0.066036 0.944977 0.743087
0.255606 0.935987 0.734097
0.457528 0.926412 0.724522
0.624168 0.918509 0.716620
0.813843 0.909515 0.707625
0.941025 0.903484 0.701594
1.000000 0.899551 0.697661
0.000000 1.000000 0.736236
0.000000 1.000000 0.733610
0.047087 1.000000 0.724138
0.236657 1.000000 0.715148
0.438579 1.000000 0.705573
0.605219 1.000000 0.697670
0.794894 1.000000 0.688676
0.922075 1.000000 0.682645
1.000000 1.000000 0.678711
0.000000 0.000000 1.000000
0.038042 0.000000 1.000000
0.237790 0.000000 1.000000
0.427360 0.000000 1.000000
0.629282 0.000000 1.000000
0.795923 0.000000 1.000000
0.985598 0.000000 1.000000
1.000000 0.000000 1.000000
1.000000 0.000000 1.000000
0.000000 0.078526 1.000000
0.020819 0.075900 1.000000
0.220568 0.066427 1.000000
0.410138 0.057438 1.000000
0.612060 0.047862 1.000000
0.778700 0.039960 1.000000
0.968375 0.030965 1.000000
1.000000 0.024934 1.000000
1.000000 0.021001 1.000000
0.000000 0.203902 1.000000
0.000000 0.201276 1.000000
0.198041 0.191804 1.000000
0.387611 0.182814 1.000000
0.589533 0.173239 1.000000
0.756173 0.165336 1.000000
0.945848 0.156342 1.000000
1.000000 0.150311 1.000000
1.000000 0.146377 1.000000
0.000000 0.380210 1.000000
0.000000 0.377584 1.000000
0.166364 0.368112 1.000000
0.355934 0.359122 1.000000
0.557856 0.349547 1.000000
0.724496 0.341645 0.999884
0.914171 0.332650 0.990889
1.000000 0.326619 0.984858
1.000000 0.322686 0.980925
0.000000 0.514695 1.000000
0.000000 0.512069 1.000000
0.142201 0.502596 1.000000
0.331771 0.493607 0.993199
0.533693 0.484031 0.983623
0.700333 0.476129 0.975721
0.890008 0.467134 0.966726
1.000000 0.461103 0.960695
1.000000 0.457170 0.956762
0.000000 0.674940 0.985495
0.000000 0.672314 0.982869
0.113409 0.662842 0.973397
0.302979 0.653852 0.964407
0.504901 0.644277 0.954832
0.671542 0.636375 0.946930
0.861217 0.627380 0.937935
0.988398 0.621349 0.931904
1.000000 0.617416 0.927971
0.000000 0.810148 0.961202
0.000000 0.807522 0.958576
0.089117 0.798050 0.949104
0.278686 0.789060 0.940114
0.480608 0.779485 0.930539
0.647249 0.771582 0.922637
0.836924 0.762588 0.913642
0.964105 0.756557 0.907611
1.000000 0.752623 0.903678
0.000000 0.954262 0.935309
0.000000 0.951636 0.932683
0.063223 0.942164 0.923211
0.252793 0.933174 0.914221
0.454715 0.923599 0.904646
0.621356 0.915697 0.896744
0.811031 0.906702 0.887749
0.938212 0.900671 0.881718
1.000000 0.896738 0.877785
0.000000 1.000000 0.916360
0.000000 1.000000 0.913734
0.044274 1.000000 0.904262
0.233844 1.000000 0.895272
0.435766 1.000000 0.885697
0.602406 1.000000 0.877794
0.792081 1.000000 0.868800
0.919263 1.000000 0.862769
1.000000 1.000000 0.858835
0.000000 0.000000 1.000000
0.035838 0.000000 1.000000
0.235586 0.000000 1.000000
0.425156 0.000000 1.000000
0.627078 0.000000 1.000000
0.793718 0.000000 1.000000
0.983393 0.000000 1.000000
1.000000 0.000000 1.000000
1.000000 0.000000 1.000000
0.000000 0.076321 1.000000
0.018615 0.073695 1.000000
0.218363 0.064223 1.000000
0.407933 0.055233 1.000000
0.609855 0.045658 1.000000
0.776496 0.037756 1.000000
0.966171 0.028761 1.000000
1.000000 0.022730 1.000000
1.000000 0.018797 1.000000
0.000000 0.201698 1.000000
0.000000 0.199072 1.000000
0.195837 0.189599 1.000000
0.385407 0.180610 1.000000
0.587329 0.171034 1.000000
0.753969 0.163132 1.000000
0.943644 0.154137 1.000000
1.000000 0.148106 1.000000
1.000000 0.144173 1.000000
0.000000 0.378006 1.000000
0.000000 0.375380 1.000000
0.164159 0.365908 1.000000
0.353729 0.356918 1.000000
0.555651 0.347343 1.000000
0.722292 0.339440 1.000000
0.911967 0.330446 1.000000
1.000000 0.324415 1.000000
1.000000 0.320481 1.000000
0.000000 0.512490 1.000000
0.000000 0.509864 1.000000
0.139997 0.500392 1.000000
0.329566 0.491402 1.000000
0.531488 0.481827 1.000000
0.698129 0.473925 1.000000
0.887804 0.464930 1.000000
1.000000 0.458899 1.000000
1.000000 0.454966 1.000000
0.000000 0.672736 1.000000
0.000000 0.670110 1.000000
0.111205 0.660638 1.000000
0.300775 0.651648 1.000000
0.502697 0.642072 1.000000
0.669337 0.634170 1.000000
0.859012 0.625176 1.000000
0.986194 0.619144 1.000000
1.000000 0.615211 1.000000
0.000000 0.807944 1.000000
0.000000 0.805318 1.000000
0.086912 0.795845 1.000000
0.276482 0.786856 1.000000
0.478404 0.777280 1.000000
0.645044 0.769378 1.000000
0.834719 0.760383 1.000000
0.961901 0.754352 1.000000
1.000000 0.750419 1.000000
0.000000 0.952058 1.000000
0.000000 0.949432 1.000000
0.061019 0.939960 1.000000
0.250589 0.930970 1.000000
0.452511 0.921395 1.000000
0.619151 0.913492 1.000000
0.808826 0.904498 1.000000
0.936008 0.898467 1.000000
1.000000 0.894533 1.000000
0.000000 1.000000 1.000000
0.000000 1.000000 1.000000
0.042070 1.000000 1.000000
0.231640 1.000000 1.000000
0.433562 1.000000 1.000000
0.600202 1.000000 1.000000
0.789877 1.000000 1.000000
0.917058 1.000000 1.000000
1.000000 1.000000 1.000000
