assets/preview/luts/cc_qualidade2.cube
# Recriado de uma referência do usuário (2026-08-17) medindo o vídeo.
# Filtro original: "Qualidade II" (CapCut). Curva por canal + saturação 1.11x.
TITLE "Qualidade II"
LUT_3D_SIZE 9
DOMAIN_MIN 0.0 0.0 0.0
DOMAIN_MAX 1.0 1.0 1.0
0.006440 0.000000 0.000000
0.063427 0.000000 0.000000
0.177648 0.000000 0.000000
0.323926 0.000000 0.000000
0.462021 0.000000 0.000000
0.648883 0.000000 0.000000
0.766927 0.000000 0.000000
0.902126 0.000000 0.000000
1.000000 0.000000 0.000000
0.000000 0.085022 0.000000
0.056696 0.083753 0.000000
0.170917 0.081211 0.000000
0.317195 0.077955 0.000000
0.455290 0.074881 0.000000
0.642152 0.070722 0.000000
0.760196 0.068095 0.000000
0.895395 0.065085 0.000000
1.000000 0.060907 0.000000
0.000000 0.206920 0.000000
0.047062 0.205652 0.000000
0.161282 0.203109 0.000000
0.307560 0.199854 0.000000
0.445656 0.196780 0.000000
0.632518 0.192621 0.000000
0.750561 0.189993 0.000000
0.885761 0.186984 0.000000
1.000000 0.182806 0.000000
0.000000 0.309247 0.000000
0.038974 0.307978 0.000000
0.153195 0.305436 0.000000
0.299473 0.302180 0.000000
0.437568 0.299106 0.000000
0.624430 0.294947 0.000000
0.742474 0.292320 0.000000
0.877673 0.289310 0.000000
1.000000 0.285132 0.000000
0.000000 0.429270 0.000000
0.029488 0.428001 0.000000
0.143709 0.425459 0.000000
0.289986 0.422203 0.000000
0.428082 0.419129 0.000000
0.614944 0.414970 0.000000
0.732988 0.412343 0.000000
0.868187 0.409333 0.000000
1.000000 0.405155 0.000000
0.000000 0.590759 0.000000
0.016724 0.589491 0.000000
0.130945 0.586948 0.000000
0.277223 0.583693 0.000000
0.415318 0.580619 0.000000
0.602180 0.576460 0.000000
0.720224 0.573832 0.000000
0.855423 0.570823 0.000000
1.000000 0.566645 0.000000
0.000000 0.720091 0.000000
0.006503 0.718822 0.000000
0.120723 0.716280 0.000000
0.267001 0.713024 0.000000
0.405096 0.709950 0.000000
0.591958 0.705791 0.000000
0.710002 0.703164 0.000000
0.845201 0.700155 0.000000
1.000000 0.695976 0.000000
0.000000 0.904468 0.000000
0.000000 0.903200 0.000000
0.106150 0.900657 0.000000
0.252428 0.897401 0.000000
0.390524 0.894328 0.000000
0.577386 0.890169 0.000000
0.695429 0.887541 0.000000
0.830629 0.884532 0.000000
1.000000 0.880354 0.000000
0.000000 1.000000 0.000000
0.000000 1.000000 0.000000
0.096043 1.000000 0.000000
0.242321 1.000000 0.000000
0.380416 1.000000 0.000000
0.567278 1.000000 0.000000
0.685322 1.000000 0.000000
0.820521 1.000000 0.000000
1.000000 1.000000 0.000000
0.005604 0.000000 0.112114
0.062591 0.000000 0.110845
0.176812 0.000000 0.108303
0.323090 0.000000 0.105047
0.461185 0.000000 0.101973
0.648047 0.000000 0.097814
0.766091 0.000000 0.095187
0.901290 0.000000 0.092177
1.000000 0.000000 0.087999
0.000000 0.084185 0.105382
0.055860 0.082917 0.104114
0.170081 0.080375 0.101572
0.316358 0.077119 0.098316
0.454454 0.074045 0.095242
0.641316 0.069886 0.091083
0.759360 0.067258 0.088455
0.894559 0.064249 0.085446
1.000000 0.060071 0.081268
0.000000 0.206084 0.095748
0.046226 0.204816 0.094480
0.160446 0.202273 0.091937
0.306724 0.199017 0.088681
0.444819 0.195944 0.085608
0.631681 0.191784 0.081448
0.749725 0.189157 0.078821
0.884924 0.186148 0.075812
1.000000 0.181969 0.071633
0.000000 0.308410 0.087660
0.038138 0.307142 0.086392
0.152359 0.304600 0.083850
0.298636 0.301344 0.080594
0.436732 0.298270 0.077520
0.623594 0.294111 0.073361
0.741638 0.291483 0.070733
0.876837 0.288474 0.067724
1.000000 0.284296 0.063546
0.000000 0.428433 0.078174
0.028652 0.427165 0.076906
0.142872 0.424622 0.074364
0.289150 0.421367 0.071108
0.427246 0.418293 0.068034
0.614108 0.414134 0.063875
0.732151 0.411506 0.061247
0.867351 0.408497 0.058238
1.000000 0.404319 0.054060
0.000000 0.589923 0.065411
0.015888 0.588655 0.064142
0.130109 0.586112 0.061600
0.276387 0.582856 0.058344
0.414482 0.579783 0.055270
0.601344 0.575623 0.051111
0.719388 0.572996 0.048484
0.854587 0.569987 0.045474
1.000000 0.565808 0.041296
0.000000 0.719255 0.055189
0.005666 0.717986 0.053920
0.119887 0.715444 0.051378
0.266165 0.712188 0.048122
0.404260 0.709114 0.045048
0.591122 0.704955 0.040889
0.709166 0.702328 0.038262
0.844365 0.699318 0.035252
1.000000 0.695140 0.031074
0.000000 0.903632 0.040616
0.000000 0.902363 0.039348
0.105314 0.899821 0.036805
0.251592 0.896565 0.033550
0.389688 0.893491 0.030476
0.576550 0.889332 0.026317
0.694593 0.886705 0.023689
0.829793 0.883696 0.020680
1.000000 0.879517 0.016502
0.000000 1.000000 0.030509
0.000000 1.000000 0.029240
0.095207 1.000000 0.026698
0.241485 1.000000 0.023442
0.379580 1.000000 0.020368
0.566442 1.000000 0.016209
0.684486 1.000000 0.013582
0.819685 1.000000 0.010572
1.000000 1.000000 0.006394
0.004806 0.000000 0.219266
0.061793 0.000000 0.217998
0.176013 0.000000 0.215456
0.322291 0.000000 0.212200
0.460387 0.000000 0.209126
0.647249 0.000000 0.204967
0.765292 0.000000 0.202339
0.900492 0.000000 0.199330
1.000000 0.000000 0.195152
0.000000 0.083387 0.212535
0.055062 0.082119 0.211267
0.169282 0.079576 0.208725
0.315560 0.076320 0.205469
0.453656 0.073247 0.202395
0.640518 0.069087 0.198236
0.758561 0.066460 0.195608
0.893761 0.063451 0.192599
1.000000 0.059273 0.188421
0.000000 0.205286 0.202901
0.045427 0.204017 0.201632
0.159648 0.201475 0.199090
0.305926 0.198219 0.195834
0.444021 0.195145 0.192760
0.630883 0.190986 0.188601
0.748927 0.188359 0.185974
0.884126 0.185349 0.182965
1.000000 0.181171 0.178786
0.000000 0.307612 0.194813
0.037340 0.306344 0.193545
0.151560 0.303801 0.191003
0.297838 0.300545 0.187747
0.435934 0.297472 0.184673
0.622796 0.293313 0.180514
0.740839 0.290685 0.177886
0.876039 0.287676 0.174877
1.000000 0.283498 0.170699
0.000000 0.427635 0.185327
0.027854 0.426367 0.184059
0.142074 0.423824 0.181516
0.288352 0.420568 0.178261
0.426447 0.417495 0.175187
0.613309 0.413335 0.171028
0.731353 0.410708 0.168400
0.866552 0.407699 0.165391
1.000000 0.403521 0.161213
0.000000 0.589125 0.172564
0.015090 0.587856 0.171295
0.129310 0.585314 0.168753
0.275588 0.582058 0.165497
0.413684 0.578984 0.162423
0.600546 0.574825 0.158264
0.718589 0.572198 0.155637
0.853789 0.569188 0.152627
1.000000 0.565010 0.148449
0.000000 0.718456 0.162342
0.004868 0.717188 0.161073
0.119089 0.714646 0.158531
0.265366 0.711390 0.155275
0.403462 0.708316 0.152201
0.590324 0.704157 0.148042
0.708368 0.701529 0.145415
0.843567 0.698520 0.142405
1.000000 0.694342 0.138227
0.000000 0.902834 0.147769
0.000000 0.901565 0.146501
0.104516 0.899023 0.143958
0.250794 0.895767 0.140702
0.388889 0.892693 0.137629
0.575751 0.888534 0.133469
0.693795 0.885907 0.130842
0.828994 0.882897 0.127833
1.000000 0.878719 0.123655
0.000000 1.000000 0.137661
0.000000 1.000000 0.136393
0.094408 1.000000 0.133851
0.240686 1.000000 0.130595
0.378782 1.000000 0.127521
0.565644 1.000000 0.123362
0.683687 1.000000 0.120734
0.818887 1.000000 0.117725
1.000000 1.000000 0.113547
0.003862 0.000000 0.345978
0.060849 0.000000 0.344710
0.175069 0.000000 0.342167
0.321347 0.000000 0.338911
0.459443 0.000000 0.335838
0.646305 0.000000 0.331678
0.764349 0.000000 0.329051
0.899548 0.000000 0.326042
1.000000 0.000000 0.321864
0.000000 0.082443 0.339247
0.054118 0.081175 0.337978
0.168338 0.078632 0.335436
0.314616 0.075376 0.332180
0.452712 0.072303 0.329107
0.639574 0.068144 0.324947
0.757617 0.065516 0.322320
0.892817 0.062507 0.319311
1.000000 0.058329 0.315132
0.000000 0.204342 0.329612
0.044483 0.203073 0.328344
0.158704 0.200531 0.325802
0.304982 0.197275 0.322546
0.443077 0.194201 0.319472
0.629939 0.190042 0.315313
0.747983 0.187415 0.312685
0.883182 0.184406 0.309676
1.000000 0.180227 0.305498
0.000000 0.306668 0.321525
0.036396 0.305400 0.320256
0.150616 0.302857 0.317714
0.296894 0.299602 0.314458
0.434990 0.296528 0.311385
0.621852 0.292369 0.307225
0.739895 0.289741 0.304598
0.875095 0.286732 0.301589
1.000000 0.282554 0.297410
0.000000 0.426691 0.312039
0.026910 0.425423 0.310770
0.141130 0.422880 0.308228
0.287408 0.419624 0.304972
0.425504 0.416551 0.301898
0.612366 0.412392 0.297739
0.730409 0.409764 0.295112
0.865609 0.406755 0.292102
1.000000 0.402577 0.287924
0.000000 0.588181 0.299275
0.014146 0.586912 0.298007
0.128367 0.584370 0.295464
0.274644 0.581114 0.292208
0.412740 0.578040 0.289135
0.599602 0.573881 0.284976
0.717646 0.571254 0.282348
0.852845 0.568245 0.279339
1.000000 0.564066 0.275161
0.000000 0.717512 0.289053
0.003924 0.716244 0.287785
0.118145 0.713702 0.285242
0.264422 0.710446 0.281987
0.402518 0.707372 0.278913
0.589380 0.703213 0.274754
0.707424 0.700585 0.272126
0.842623 0.697576 0.269117
1.000000 0.693398 0.264939
0.000000 0.901890 0.274481
0.000000 0.900621 0.273212
0.103572 0.898079 0.270670
0.249850 0.894823 0.267414
0.387945 0.891749 0.264340
0.574807 0.887590 0.260181
0.692851 0.884963 0.257554
0.828050 0.881953 0.254544
1.000000 0.877775 0.250366
0.000000 1.000000 0.264373
0.000000 1.000000 0.263105
0.093464 1.000000 0.260562
0.239742 1.000000 0.257306
0.377838 1.000000 0.254233
0.564700 1.000000 0.250073
0.682744 1.000000 0.247446
0.817943 1.000000 0.244437
1.000000 1.000000 0.240259
0.002755 0.000000 0.494596
0.059742 0.000000 0.493327
0.173962 0.000000 0.490785
0.320240 0.000000 0.487529
0.458336 0.000000 0.484455
0.645198 0.000000 0.480296
0.763241 0.000000 0.477669
0.898441 0.000000 0.474659
1.000000 0.000000 0.470481
0.000000 0.081336 0.487865
0.053011 0.080068 0.486596
0.167231 0.077525 0.484054
0.313509 0.074269 0.480798
0.451605 0.071196 0.477724
0.638467 0.067036 0.473565
0.756510 0.064409 0.470938
0.891710 0.061400 0.467928
1.000000 0.057221 0.463750
0.000000 0.203235 0.478230
0.043376 0.201966 0.476962
0.157597 0.199424 0.474419
0.303875 0.196168 0.471163
0.441970 0.193094 0.468090
0.628832 0.188935 0.463930
0.746876 0.186308 0.461303
0.882075 0.183298 0.458294
1.000000 0.179120 0.454116
0.000000 0.305561 0.470143
0.035289 0.304293 0.468874
0.149509 0.301750 0.466332
0.295787 0.298494 0.463076
0.433883 0.295421 0.460002
0.620745 0.291261 0.455843
0.738788 0.288634 0.453216
0.873988 0.285625 0.450206
1.000000 0.281447 0.446028
0.000000 0.425584 0.460656
0.025803 0.424316 0.459388
0.140023 0.421773 0.456846
0.286301 0.418517 0.453590
0.424396 0.415444 0.450516
0.611258 0.411284 0.446357
0.729302 0.408657 0.443729
0.864501 0.405648 0.440720
1.000000 0.401469 0.436542
0.000000 0.587074 0.447893
0.013039 0.585805 0.446624
0.127259 0.583263 0.444082
0.273537 0.580007 0.440826
0.411633 0.576933 0.437752
0.598495 0.572774 0.433593
0.716538 0.570147 0.430966
0.851738 0.567137 0.427956
1.000000 0.562959 0.423778
0.000000 0.716405 0.437671
0.002817 0.715137 0.436402
0.117037 0.712595 0.433860
0.263315 0.709339 0.430604
0.401411 0.706265 0.427530
0.588273 0.702106 0.423371
0.706317 0.699478 0.420744
0.841516 0.696469 0.417734
1.000000 0.692291 0.413556
0.000000 0.900783 0.423098
0.000000 0.899514 0.421830
0.102465 0.896972 0.419287
0.248743 0.893716 0.416032
0.386838 0.890642 0.412958
0.573700 0.886483 0.408799
0.691744 0.883856 0.406171
0.826943 0.880846 0.403162
1.000000 0.876668 0.398984
0.000000 1.000000 0.412991
0.000000 1.000000 0.411722
0.092357 1.000000 0.409180
0.238635 1.000000 0.405924
0.376731 1.000000 0.402850
0.563593 1.000000 0.398691
0.681636 1.000000 0.396064
0.816836 1.000000 0.393054
1.000000 1.000000 0.388876
0.001877 0.000000 0.612437
0.058864 0.000000 0.611168
0.173085 0.000000 0.608626
0.319362 0.000000 0.605370
0.457458 0.000000 0.602296
0.644320 0.000000 0.598137
0.762364 0.000000 0.595510
0.897563 0.000000 0.592500
1.000000 0.000000 0.588322
0.000000 0.080458 0.605706
0.052133 0.079190 0.604437
0.166353 0.076647 0.601895
0.312631 0.073391 0.598639
0.450727 0.070318 0.595565
0.637589 0.066159 0.591406
0.755632 0.063531 0.588779
0.890832 0.060522 0.585769
1.000000 0.056344 0.581591
0.000000 0.202357 0.596071
0.042498 0.201088 0.594803
0.156719 0.198546 0.592260
0.302997 0.195290 0.589004
0.441092 0.192216 0.585931
0.627954 0.188057 0.581772
0.745998 0.185430 0.579144
0.881197 0.182421 0.576135
1.000000 0.178242 0.571957
0.000000 0.304683 0.587984
0.034411 0.303415 0.586715
0.148631 0.300872 0.584173
0.294909 0.297617 0.580917
0.433005 0.294543 0.577843
0.619867 0.290384 0.573684
0.737910 0.287756 0.571057
0.873110 0.284747 0.568047
1.000000 0.280569 0.563869
0.000000 0.424706 0.578497
0.024925 0.423438 0.577229
0.139145 0.420895 0.574687
0.285423 0.417639 0.571431
0.423519 0.414566 0.568357
0.610381 0.410407 0.564198
0.728424 0.407779 0.561570
0.863624 0.404770 0.558561
1.000000 0.400592 0.554383
0.000000 0.586196 0.565734
0.012161 0.584927 0.564465
0.126382 0.582385 0.561923
0.272659 0.579129 0.558667
0.410755 0.576055 0.555593
0.597617 0.571896 0.551434
0.715661 0.569269 0.548807
0.850860 0.566260 0.545797
1.000000 0.562081 0.541619
0.000000 0.715527 0.555512
0.001939 0.714259 0.554243
0.116160 0.711717 0.551701
0.262437 0.708461 0.548445
0.400533 0.705387 0.545371
0.587395 0.701228 0.541212
0.705439 0.698600 0.538585
0.840638 0.695591 0.535576
1.000000 0.691413 0.531397
0.000000 0.899905 0.540939
0.000000 0.898636 0.539671
0.101587 0.896094 0.537129
0.247865 0.892838 0.533873
0.385960 0.889764 0.530799
0.572822 0.885605 0.526640
0.690866 0.882978 0.524012
0.826065 0.879968 0.521003
1.000000 0.875790 0.516825
0.000000 1.000000 0.530832
0.000000 1.000000 0.529563
0.091480 1.000000 0.527021
0.237757 1.000000 0.523765
0.375853 1.000000 0.520691
0.562715 1.000000 0.516532
0.680759 1.000000 0.513905
0.815958 1.000000 0.510895
1.000000 1.000000 0.506717
0.000804 0.000000 0.756422
0.057791 0.000000 0.755154
0.172012 0.000000 0.752612
0.318290 0.000000 0.749356
0.456385 0.000000 0.746282
0.643247 0.000000 0.742123
0.761291 0.000000 0.739495
0.896490 0.000000 0.736486
1.000000 0.000000 0.732308
0.000000 0.079386 0.749691
0.051060 0.078117 0.748423
0.165281 0.075575 0.745881
0.311559 0.072319 0.742625
0.449654 0.069245 0.739551
0.636516 0.065086 0.735392
0.754560 0.062459 0.732764
0.889759 0.059449 0.729755
1.000000 0.055271 0.725577
0.000000 0.201284 0.740057
0.041426 0.200016 0.738788
0.155646 0.197473 0.736246
0.301924 0.194218 0.732990
0.440020 0.191144 0.729916
0.626882 0.186985 0.725757
0.744925 0.184357 0.723130
0.880125 0.181348 0.720121
1.000000 0.177170 0.715942
0.000000 0.303611 0.731969
0.033338 0.302342 0.730701
0.147559 0.299800 0.728159
0.293837 0.296544 0.724903
0.431932 0.293470 0.721829
0.618794 0.289311 0.717670
0.736838 0.286684 0.715042
0.872037 0.283674 0.712033
1.000000 0.279496 0.707855
0.000000 0.423633 0.722483
0.023852 0.422365 0.721215
0.138073 0.419823 0.718672
0.284350 0.416567 0.715416
0.422446 0.413493 0.712343
0.609308 0.409334 0.708184
0.727352 0.406706 0.705556
0.862551 0.403697 0.702547
1.000000 0.399519 0.698369
0.000000 0.585123 0.709720
0.011088 0.583855 0.708451
0.125309 0.581312 0.705909
0.271587 0.578057 0.702653
0.409682 0.574983 0.699579
0.596544 0.570824 0.695420
0.714588 0.568196 0.692793
0.849787 0.565187 0.689783
1.000000 0.561009 0.685605
0.000000 0.714455 0.699498
0.000867 0.713186 0.698229
0.115087 0.710644 0.695687
0.261365 0.707388 0.692431
0.399460 0.704314 0.689357
0.586322 0.700155 0.685198
0.704366 0.697528 0.682571
0.839565 0.694519 0.679561
1.000000 0.690340 0.675383
0.000000 0.898832 0.684925
0.000000 0.897564 0.683657
0.100514 0.895021 0.681114
0.246792 0.891765 0.677858
0.384888 0.888692 0.674785
0.571750 0.884532 0.670625
0.689793 0.881905 0.667998
0.824993 0.878896 0.664989
1.000000 0.874718 0.660811
0.000000 1.000000 0.674817
0.000000 1.000000 0.673549
0.090407 1.000000 0.671007
0.236685 1.000000 0.667751
0.374780 1.000000 0.664677
0.561642 1.000000 0.660518
0.679686 1.000000 0.657890
0.814885 1.000000 0.654881
1.000000 1.000000 0.650703
0.000000 0.000000 0.902250
0.056705 0.000000 0.900981
0.170926 0.000000 0.898439
0.317203 0.000000 0.895183
0.455299 0.000000 0.892109
0.642161 0.000000 0.887950
0.760205 0.000000 0.885323
0.895404 0.000000 0.882313
1.000000 0.000000 0.878135
0.000000 0.078299 0.895518
0.049974 0.077031 0.894250
0.164194 0.074488 0.891708
0.310472 0.071233 0.888452
0.448568 0.068159 0.885378
0.635430 0.064000 0.881219
0.753473 0.061372 0.878591
0.888673 0.058363 0.875582
1.000000 0.054185 0.871404
0.000000 0.200198 0.885884
0.040339 0.198929 0.884615
0.154560 0.196387 0.882073
0.300838 0.193131 0.878817
0.438933 0.190058 0.875744
0.625795 0.185898 0.871584
0.743839 0.183271 0.868957
0.879038 0.180262 0.865948
1.000000 0.176083 0.861769
0.000000 0.302524 0.877796
0.032252 0.301256 0.876528
0.146472 0.298713 0.873986
0.292750 0.295458 0.870730
0.430846 0.292384 0.867656
0.617708 0.288225 0.863497
0.735751 0.285597 0.860869
0.870951 0.282588 0.857860
1.000000 0.278410 0.853682
0.000000 0.422547 0.868310
0.022766 0.421279 0.867042
0.136986 0.418736 0.864499
0.283264 0.415481 0.861244
0.421360 0.412407 0.858170
0.608222 0.408248 0.854011
0.726265 0.405620 0.851383
0.861465 0.402611 0.848374
1.000000 0.398433 0.844196
0.000000 0.584037 0.855547
0.010002 0.582768 0.854278
0.124223 0.580226 0.851736
0.270500 0.576970 0.848480
0.408596 0.573896 0.845406
0.595458 0.569737 0.841247
0.713502 0.567110 0.838620
0.848701 0.564101 0.835610
1.000000 0.559922 0.831432
0.000000 0.713368 0.845325
0.000000 0.712100 0.844056
0.114001 0.709558 0.841514
0.260279 0.706302 0.838258
0.398374 0.703228 0.835184
0.585236 0.699069 0.831025
0.703280 0.696441 0.828398
0.838479 0.693432 0.825388
1.000000 0.689254 0.821210
0.000000 0.897746 0.830752
0.000000 0.896477 0.829484
0.099428 0.893935 0.826941
0.245706 0.890679 0.823685
0.383801 0.887605 0.820612
0.570663 0.883446 0.816452
0.688707 0.880819 0.813825
0.823907 0.877809 0.810816
1.000000 0.873631 0.806638
0.000000 1.000000 0.820645
0.000000 1.000000 0.819376
0.089321 1.000000 0.816834
0.235598 1.000000 0.813578
0.373694 1.000000 0.810504
0.560556 1.000000 0.806345
0.678600 1.000000 0.803717
0.813799 1.000000 0.800708
1.000000 1.000000 0.796530
0.000000 0.000000 1.000000
0.055189 0.000000 1.000000
0.169410 0.000000 1.000000
0.315688 0.000000 1.000000
0.453783 0.000000 1.000000
0.640645 0.000000 1.000000
0.758689 0.000000 1.000000
0.893888 0.000000 1.000000
1.000000 0.000000 1.000000
0.000000 0.076783 1.000000
0.048458 0.075515 1.000000
0.162679 0.072973 1.000000
0.308957 0.069717 1.000000
0.447052 0.066643 1.000000
0.633914 0.062484 1.000000
0.751958 0.059856 1.000000
0.887157 0.056847 1.000000
1.000000 0.052669 1.000000
0.000000 0.198682 1.000000
0.038824 0.197414 1.000000
0.153044 0.194871 1.000000
0.299322 0.191616 1.000000
0.437418 0.188542 1.000000
0.624280 0.184383 1.000000
0.742323 0.181755 1.000000
0.877523 0.178746 1.000000
1.000000 0.174568 1.000000
0.000000 0.301009 1.000000
0.030736 0.299740 1.000000
0.144957 0.297198 1.000000
0.291235 0.293942 1.000000
0.429330 0.290868 1.000000
0.616192 0.286709 1.000000
0.734236 0.284082 1.000000
0.869435 0.281072 1.000000
1.000000 0.276894 1.000000
0.000000 0.421031 1.000000
0.021250 0.419763 1.000000
0.135470 0.417221 1.000000
0.281748 0.413965 1.000000
0.419844 0.410891 1.000000
0.606706 0.406732 1.000000
0.724749 0.404104 1.000000
0.859949 0.401095 1.000000
1.000000 0.396917 1.000000
0.000000 0.582521 1.000000
0.008486 0.581253 1.000000
0.122707 0.578710 1.000000
0.268985 0.575454 1.000000
0.407080 0.572381 1.000000
0.593942 0.568222 1.000000
0.711986 0.565594 1.000000
0.847185 0.562585 1.000000
1.000000 0.558407 1.000000
0.000000 0.711853 1.000000
0.000000 0.710584 1.000000
0.112485 0.708042 1.000000
0.258763 0.704786 1.000000
0.396858 0.701712 1.000000
0.583720 0.697553 1.000000
0.701764 0.694926 1.000000
0.836963 0.691916 1.000000
1.000000 0.687738 1.000000
0.000000 0.896230 1.000000
0.000000 0.894962 1.000000
0.097912 0.892419 1.000000
0.244190 0.889163 1.000000
0.382286 0.886090 1.000000
0.569148 0.881930 1.000000
0.687191 0.879303 1.000000
0.822391 0.876294 1.000000
1.000000 0.872115 1.000000
0.000000 1.000000 1.000000
0.000000 1.000000 1.000000
0.087805 1.000000 1.000000
0.234083 1.000000 1.000000
0.372178 1.000000 1.000000
0.559040 1.000000 1.000000
0.677084 1.000000 1.000000
0.812283 1.000000 1.000000
1.000000 1.000000 1.000000
