assets/preview/luts/cc_qualidade2.cube
# Recriado de uma referência do usuário (2026-08-17) medindo o vídeo.
# Filtro original: "Qualidade II" (CapCut). Curva por canal + saturação 1.11x.
TITLE "Qualidade II"
LUT_3D_SIZE 5
DOMAIN_MIN 0.0 0.0 0.0
DOMAIN_MAX 1.0 1.0 1.0
0.006440 0.000000 0.000000
0.177648 0.000000 0.000000
0.462021 0.000000 0.000000
0.766927 0.000000 0.000000
1.000000 0.000000 0.000000
0.000000 0.206920 0.000000
0.161282 0.203109 0.000000
0.445656 0.196780 0.000000
0.750561 0.189993 0.000000
1.000000 0.182806 0.000000
0.000000 0.429270 0.000000
0.143709 0.425459 0.000000
0.428082 0.419129 0.000000
0.732988 0.412343 0.000000
1.000000 0.405155 0.000000
0.000000 0.720091 0.000000
0.120723 0.716280 0.000000
0.405096 0.709950 0.000000
0.710002 0.703164 0.000000
1.000000 0.695976 0.000000
0.000000 1.000000 0.000000
0.096043 1.000000 0.000000
0.380416 1.000000 0.000000
0.685322 1.000000 0.000000
1.000000 1.000000 0.000000
0.004806 0.000000 0.219266
0.176013 0.000000 0.215456
0.460387 0.000000 0.209126
0.765292 0.000000 0.202339
1.000000 0.000000 0.195152
0.000000 0.205286 0.202901
0.159648 0.201475 0.199090
0.444021 0.195145 0.192760
0.748927 0.188359 0.185974
1.000000 0.181171 0.178786
0.000000 0.427635 0.185327
0.142074 0.423824 0.181516
0.426447 0.417495 0.175187
0.731353 0.410708 0.168400
1.000000 0.403521 0.161213
0.000000 0.718456 0.162342
0.119089 0.714646 0.158531
0.403462 0.708316 0.152201
0.708368 0.701529 0.145415
1.000000 0.694342 0.138227
0.000000 1.000000 0.137661
0.094408 1.000000 0.133851
0.378782 1.000000 0.127521
0.683687 1.000000 0.120734
1.000000 1.000000 0.113547
0.002755 0.000000 0.494596
0.173962 0.000000 0.490785
0.458336 0.000000 0.484455
0.763241 0.000000 0.477669
1.000000 0.000000 0.470481
0.000000 0.203235 0.478230
0.157597 0.199424 0.474419
0.441970 0.193094 0.468090
0.746876 0.186308 0.461303
1.000000 0.179120 0.454116
0.000000 0.425584 0.460656
0.140023 0.421773 0.456846
0.424396 0.415444 0.450516
0.729302 0.408657 0.443729
1.000000 0.401469 0.436542
0.000000 0.716405 0.437671
0.117037 0.712595 0.433860
0.401411 0.706265 0.427530
0.706317 0.699478 0.420744
1.000000 0.692291 0.413556
0.000000 1.000000 0.412991
0.092357 1.000000 0.409180
0.376731 1.000000 0.402850
0.681636 1.000000 0.396064
1.000000 1.000000 0.388876
0.000804 0.000000 0.756422
0.172012 0.000000 0.752612
0.456385 0.000000 0.746282
0.761291 0.000000 0.739495
1.000000 0.000000 0.732308
0.000000 0.201284 0.740057
0.155646 0.197473 0.736246
0.440020 0.191144 0.729916
0.744925 0.184357 0.723130
1.000000 0.177170 0.715942
0.000000 0.423633 0.722483
0.138073 0.419823 0.718672
0.422446 0.413493 0.712343
0.727352 0.406706 0.705556
1.000000 0.399519 0.698369
0.000000 0.714455 0.699498
0.115087 0.710644 0.695687
0.399460 0.704314 0.689357
0.704366 0.697528 0.682571
1.000000 0.690340 0.675383
0.000000 1.000000 0.674817
0.090407 1.000000 0.671007
0.374780 1.000000 0.664677
0.679686 1.000000 0.657890
1.000000 1.000000 0.650703
0.000000 0.000000 1.000000
0.169410 0.000000 1.000000
0.453783 0.000000 1.000000
0.758689 0.000000 1.000000
1.000000 0.000000 1.000000
0.000000 0.198682 1.000000
0.153044 0.194871 1.000000
0.437418 0.188542 1.000000
0.742323 0.181755 1.000000
1.000000 0.174568 1.000000
0.000000 0.421031 1.000000
0.135470 0.417221 1.000000
0.419844 0.410891 1.000000
0.724749 0.404104 1.000000
1.000000 0.396917 1.000000
0.000000 0.711853 1.000000
0.112485 0.708042 1.000000
0.396858 0.701712 1.000000
0.701764 0.694926 1.000000
1.000000 0.687738 1.000000
0.000000 1.000000 1.000000
0.087805 1.000000 1.000000
0.372178 1.000000 1.000000
0.677084 1.000000 1.000000
1.000000 1.000000 1.000000
