assets/preview/luts/cc_qualidade2.cube
# Recriado de uma referência do usuário (2026-08-17) medindo o vídeo.
# Filtro original: "Qualidade II" (CapCut). Curva por canal + saturação 1.11x.
TITLE "Qualidade II"
LUT_3D_SIZE 33
DOMAIN_MIN 0.0 0.0 0.0
DOMAIN_MAX 1.0 1.0 1.0
0.006440 0.000000 0.000000
0.021090 0.000000 0.000000
0.031650 0.000000 0.000000
0.039494 0.000000 0.000000
0.063427 0.000000 0.000000
0.093685 0.000000 0.000000
0.123696 0.000000 0.000000
0.154247 0.000000 0.000000
0.177648 0.000000 0.000000
0.216623 0.000000 0.000000
0.251412 0.000000 0.000000
0.290180 0.000000 0.000000
0.323926 0.000000 0.000000
0.367551 0.000000 0.000000
0.401947 0.000000 0.000000
0.428346 0.000000 0.000000
0.462021 0.000000 0.000000
0.514967 0.000000 0.000000
0.560479 0.000000 0.000000
0.603661 0.000000 0.000000
0.648883 0.000000 0.000000
0.685689 0.000000 0.000000
0.716545 0.000000 0.000000
0.741417 0.000000 0.000000
0.766927 0.000000 0.000000
0.794976 0.000000 0.000000
0.824775 0.000000 0.000000
0.859681 0.000000 0.000000
0.902126 0.000000 0.000000
0.960175 0.000000 0.000000
1.000000 0.000000 0.000000
1.000000 0.000000 0.000000
1.000000 0.000000 0.000000
0.005248 0.014937 0.000000
0.019898 0.014611 0.000000
0.030458 0.014376 0.000000
0.038302 0.014202 0.000000
0.062235 0.013669 0.000000
0.092493 0.012995 0.000000
0.122504 0.012327 0.000000
0.153055 0.011647 0.000000
0.176456 0.011127 0.000000
0.215431 0.010259 0.000000
0.250220 0.009485 0.000000
0.288988 0.008622 0.000000
0.322734 0.007871 0.000000
0.366359 0.006900 0.000000
0.400756 0.006134 0.000000
0.427154 0.005546 0.000000
0.460829 0.004797 0.000000
0.513775 0.003618 0.000000
0.559287 0.002605 0.000000
0.602469 0.001644 0.000000
0.647691 0.000638 0.000000
0.684497 0.000000 0.000000
0.715353 0.000000 0.000000
0.740225 0.000000 0.000000
0.765735 0.000000 0.000000
0.793784 0.000000 0.000000
0.823583 0.000000 0.000000
0.858489 0.000000 0.000000
0.900934 0.000000 0.000000
0.958983 0.000000 0.000000
1.000000 0.000000 0.000000
1.000000 0.000000 0.000000
1.000000 0.000000 0.000000
0.003184 0.041055 0.000000
0.017834 0.040729 0.000000
0.028393 0.040494 0.000000
0.036238 0.040320 0.000000
0.060171 0.039787 0.000000
0.090429 0.039114 0.000000
0.120439 0.038446 0.000000
0.150990 0.037766 0.000000
0.174392 0.037245 0.000000
0.213367 0.036377 0.000000
0.248156 0.035603 0.000000
0.286923 0.034740 0.000000
0.320670 0.033989 0.000000
0.364295 0.033018 0.000000
0.398691 0.032252 0.000000
0.425090 0.031665 0.000000
0.458765 0.030915 0.000000
0.511710 0.029737 0.000000
0.557223 0.028724 0.000000
0.600404 0.027762 0.000000
0.645627 0.026756 0.000000
0.682433 0.025937 0.000000
0.713289 0.025250 0.000000
0.738161 0.024696 0.000000
0.763671 0.024128 0.000000
0.791719 0.023504 0.000000
0.821518 0.022841 0.000000
0.856424 0.022064 0.000000
0.898870 0.021119 0.000000
0.956919 0.019827 0.000000
1.000000 0.018395 0.000000
1.000000 0.017458 0.000000
1.000000 0.016941 0.000000
0.001366 0.064063 0.000000
0.016015 0.063737 0.000000
0.026575 0.063502 0.000000
0.034419 0.063328 0.000000
0.058353 0.062795 0.000000
0.088610 0.062121 0.000000
0.118621 0.061453 0.000000
0.149172 0.060773 0.000000
0.172573 0.060253 0.000000
0.211548 0.059385 0.000000
0.246337 0.058611 0.000000
0.285105 0.057748 0.000000
0.318851 0.056997 0.000000
0.362477 0.056026 0.000000
0.396873 0.055260 0.000000
0.423271 0.054672 0.000000
0.456947 0.053923 0.000000
0.509892 0.052744 0.000000
0.555405 0.051731 0.000000
0.598586 0.050770 0.000000
0.643809 0.049764 0.000000
0.680615 0.048944 0.000000
0.711470 0.048258 0.000000
0.736342 0.047704 0.000000
0.761852 0.047136 0.000000
0.789901 0.046512 0.000000
0.819700 0.045849 0.000000
0.854606 0.045072 0.000000
0.897052 0.044127 0.000000
0.955101 0.042835 0.000000
1.000000 0.041403 0.000000
1.000000 0.040466 0.000000
1.000000 0.039949 0.000000
0.000000 0.085022 0.000000
0.014359 0.084695 0.000000
0.024918 0.084460 0.000000
0.032763 0.084286 0.000000
0.056696 0.083753 0.000000
0.086954 0.083080 0.000000
0.116965 0.082412 0.000000
0.147516 0.081732 0.000000
0.170917 0.081211 0.000000
0.209892 0.080343 0.000000
0.244681 0.079569 0.000000
0.283448 0.078706 0.000000
0.317195 0.077955 0.000000
0.360820 0.076984 0.000000
0.395216 0.076218 0.000000
0.421615 0.075631 0.000000
0.455290 0.074881 0.000000
0.508236 0.073703 0.000000
0.553748 0.072690 0.000000
0.596929 0.071729 0.000000
0.642152 0.070722 0.000000
0.678958 0.069903 0.000000
0.709814 0.069216 0.000000
0.734686 0.068662 0.000000
0.760196 0.068095 0.000000
0.788245 0.067470 0.000000
0.818043 0.066807 0.000000
0.852949 0.066030 0.000000
0.895395 0.065085 0.000000
0.953444 0.063793 0.000000
1.000000 0.062361 0.000000
1.000000 0.061424 0.000000
1.000000 0.060907 0.000000
0.000000 0.109429 0.000000
0.012430 0.109103 0.000000
0.022989 0.108868 0.000000
0.030834 0.108694 0.000000
0.054767 0.108161 0.000000
0.085025 0.107487 0.000000
0.115035 0.106819 0.000000
0.145586 0.106139 0.000000
0.168988 0.105619 0.000000
0.207963 0.104751 0.000000
0.242752 0.103977 0.000000
0.281519 0.103114 0.000000
0.315266 0.102363 0.000000
0.358891 0.101392 0.000000
0.393287 0.100626 0.000000
0.419686 0.100039 0.000000
0.453361 0.099289 0.000000
0.506306 0.098111 0.000000
0.551819 0.097098 0.000000
0.595000 0.096136 0.000000
0.640223 0.095130 0.000000
0.677029 0.094311 0.000000
0.707885 0.093624 0.000000
0.732757 0.093070 0.000000
0.758267 0.092502 0.000000
0.786315 0.091878 0.000000
0.816114 0.091215 0.000000
0.851020 0.090438 0.000000
0.893466 0.089493 0.000000
0.951515 0.088201 0.000000
1.000000 0.086769 0.000000
1.000000 0.085832 0.000000
1.000000 0.085315 0.000000
0.000000 0.136189 0.000000
0.010315 0.135863 0.000000
0.020874 0.135628 0.000000
0.028719 0.135453 0.000000
0.052652 0.134921 0.000000
0.082910 0.134247 0.000000
0.112920 0.133579 0.000000
0.143471 0.132899 0.000000
0.166873 0.132378 0.000000
0.205848 0.131511 0.000000
0.240637 0.130737 0.000000
0.279404 0.129874 0.000000
0.313151 0.129122 0.000000
0.356776 0.128151 0.000000
0.391172 0.127386 0.000000
0.417571 0.126798 0.000000
0.451246 0.126049 0.000000
0.504191 0.124870 0.000000
0.549704 0.123857 0.000000
0.592885 0.122896 0.000000
0.638108 0.121890 0.000000
0.674914 0.121070 0.000000
0.705770 0.120384 0.000000
0.730642 0.119830 0.000000
0.756152 0.119262 0.000000
0.784200 0.118638 0.000000
0.813999 0.117975 0.000000
0.848905 0.117198 0.000000
0.891351 0.116253 0.000000
0.949400 0.114961 0.000000
1.000000 0.113529 0.000000
1.000000 0.112592 0.000000
1.000000 0.112075 0.000000
0.000000 0.177895 0.000000
0.007018 0.177569 0.000000
0.017578 0.177334 0.000000
0.025422 0.177159 0.000000
0.049356 0.176626 0.000000
0.079613 0.175953 0.000000
0.109624 0.175285 0.000000
0.140175 0.174605 0.000000
0.163576 0.174084 0.000000
0.202551 0.173217 0.000000
0.237340 0.172442 0.000000
0.276108 0.171579 0.000000
0.309854 0.170828 0.000000
0.353480 0.169857 0.000000
0.387876 0.169092 0.000000
0.414274 0.168504 0.000000
0.447950 0.167754 0.000000
0.500895 0.166576 0.000000
0.546408 0.165563 0.000000
0.589589 0.164602 0.000000
0.634812 0.163595 0.000000
0.671618 0.162776 0.000000
0.702473 0.162089 0.000000
0.727346 0.161536 0.000000
0.752855 0.160968 0.000000
0.780904 0.160343 0.000000
0.810703 0.159680 0.000000
0.845609 0.158903 0.000000
0.888055 0.157958 0.000000
0.946104 0.156666 0.000000
1.000000 0.155235 0.000000
1.000000 0.154298 0.000000
1.000000 0.153780 0.000000
0.000000 0.206920 0.000000
0.004724 0.206594 0.000000
0.015284 0.206359 0.000000
0.023128 0.206185 0.000000
0.047062 0.205652 0.000000
0.077319 0.204978 0.000000
0.107330 0.204310 0.000000
0.137881 0.203630 0.000000
0.161282 0.203109 0.000000
0.200257 0.202242 0.000000
0.235046 0.201468 0.000000
0.273814 0.200605 0.000000
0.307560 0.199854 0.000000
0.351186 0.198883 0.000000
0.385582 0.198117 0.000000
0.411980 0.197529 0.000000
0.445656 0.196780 0.000000
0.498601 0.195601 0.000000
0.544114 0.194588 0.000000
0.587295 0.193627 0.000000
0.632518 0.192621 0.000000
0.669324 0.191801 0.000000
0.700179 0.191115 0.000000
0.725052 0.190561 0.000000
0.750561 0.189993 0.000000
0.778610 0.189369 0.000000
0.808409 0.188706 0.000000
0.843315 0.187929 0.000000
0.885761 0.186984 0.000000
0.943810 0.185692 0.000000
1.000000 0.184260 0.000000
1.000000 0.183323 0.000000
1.000000 0.182806 0.000000
0.000000 0.221189 0.000000
0.003597 0.220863 0.000000
0.014156 0.220628 0.000000
0.022001 0.220453 0.000000
0.045934 0.219921 0.000000
0.076191 0.219247 0.000000
0.106202 0.218579 0.000000
0.136753 0.217899 0.000000
0.160155 0.217378 0.000000
0.199130 0.216511 0.000000
0.233918 0.215737 0.000000
0.272686 0.214874 0.000000
0.306432 0.214123 0.000000
0.350058 0.213151 0.000000
0.384454 0.212386 0.000000
0.410853 0.211798 0.000000
0.444528 0.211049 0.000000
0.497473 0.209870 0.000000
0.542986 0.208857 0.000000
0.586167 0.207896 0.000000
0.631390 0.206890 0.000000
0.668196 0.206070 0.000000
0.699052 0.205384 0.000000
0.723924 0.204830 0.000000
0.749434 0.204262 0.000000
0.777482 0.203638 0.000000
0.807281 0.202975 0.000000
0.842187 0.202198 0.000000
0.884633 0.201253 0.000000
0.942682 0.199961 0.000000
1.000000 0.198529 0.000000
1.000000 0.197592 0.000000
1.000000 0.197075 0.000000
0.000000 0.247959 0.000000
0.001481 0.247633 0.000000
0.012040 0.247398 0.000000
0.019885 0.247223 0.000000
0.043818 0.246690 0.000000
0.074076 0.246017 0.000000
0.104087 0.245349 0.000000
0.134638 0.244669 0.000000
0.158039 0.244148 0.000000
0.197014 0.243281 0.000000
0.231803 0.242506 0.000000
0.270570 0.241643 0.000000
0.304317 0.240892 0.000000
0.347942 0.239921 0.000000
0.382338 0.239156 0.000000
0.408737 0.238568 0.000000
0.442412 0.237818 0.000000
0.495357 0.236640 0.000000
0.540870 0.235627 0.000000
0.584051 0.234666 0.000000
0.629274 0.233659 0.000000
0.666080 0.232840 0.000000
0.696936 0.232153 0.000000
0.721808 0.231600 0.000000
0.747318 0.231032 0.000000
0.775366 0.230408 0.000000
0.805165 0.229744 0.000000
0.840071 0.228967 0.000000
0.882517 0.228023 0.000000
0.940566 0.226730 0.000000
1.000000 0.225299 0.000000
1.000000 0.224362 0.000000
1.000000 0.223844 0.000000
0.000000 0.279054 0.000000
0.000000 0.278728 0.000000
0.009583 0.278493 0.000000
0.017427 0.278319 0.000000
0.041361 0.277786 0.000000
0.071618 0.277113 0.000000
0.101629 0.276445 0.000000
0.132180 0.275765 0.000000
0.155581 0.275244 0.000000
0.194556 0.274376 0.000000
0.229345 0.273602 0.000000
0.268113 0.272739 0.000000
0.301859 0.271988 0.000000
0.345485 0.271017 0.000000
0.379881 0.270251 0.000000
0.406279 0.269664 0.000000
0.439954 0.268914 0.000000
0.492900 0.267736 0.000000
0.538412 0.266723 0.000000
0.581594 0.265761 0.000000
0.626816 0.264755 0.000000
0.663622 0.263936 0.000000
0.694478 0.263249 0.000000
0.719350 0.262695 0.000000
0.744860 0.262127 0.000000
0.772909 0.261503 0.000000
0.802708 0.260840 0.000000
0.837614 0.260063 0.000000
0.880059 0.259118 0.000000
0.938109 0.257826 0.000000
1.000000 0.256394 0.000000
1.000000 0.255457 0.000000
1.000000 0.254940 0.000000
0.000000 0.309247 0.000000
0.000000 0.308921 0.000000
0.007196 0.308685 0.000000
0.015041 0.308511 0.000000
0.038974 0.307978 0.000000
0.069232 0.307305 0.000000
0.099243 0.306637 0.000000
0.129794 0.305957 0.000000
0.153195 0.305436 0.000000
0.192170 0.304568 0.000000
0.226959 0.303794 0.000000
0.265726 0.302931 0.000000
0.299473 0.302180 0.000000
0.343098 0.301209 0.000000
0.377494 0.300443 0.000000
0.403893 0.299856 0.000000
0.437568 0.299106 0.000000
0.490514 0.297928 0.000000
0.536026 0.296915 0.000000
0.579207 0.295954 0.000000
0.624430 0.294947 0.000000
0.661236 0.294128 0.000000
0.692092 0.293441 0.000000
0.716964 0.292887 0.000000
0.742474 0.292320 0.000000
0.770523 0.291695 0.000000
0.800321 0.291032 0.000000
0.835227 0.290255 0.000000
0.877673 0.289310 0.000000
0.935722 0.288018 0.000000
1.000000 0.286586 0.000000
1.000000 0.285649 0.000000
1.000000 0.285132 0.000000
0.000000 0.342405 0.000000
0.000000 0.342079 0.000000
0.004576 0.341844 0.000000
0.012420 0.341669 0.000000
0.036354 0.341136 0.000000
0.066611 0.340463 0.000000
0.096622 0.339795 0.000000
0.127173 0.339115 0.000000
0.150574 0.338594 0.000000
0.189549 0.337726 0.000000
0.224338 0.336952 0.000000
0.263106 0.336089 0.000000
0.296852 0.335338 0.000000
0.340478 0.334367 0.000000
0.374874 0.333602 0.000000
0.401272 0.333014 0.000000
0.434947 0.332264 0.000000
0.487893 0.331086 0.000000
0.533405 0.330073 0.000000
0.576587 0.329112 0.000000
0.621809 0.328105 0.000000
0.658615 0.327286 0.000000
0.689471 0.326599 0.000000
0.714343 0.326046 0.000000
0.739853 0.325478 0.000000
0.767902 0.324853 0.000000
0.797701 0.324190 0.000000
0.832607 0.323413 0.000000
0.875052 0.322468 0.000000
0.933102 0.321176 0.000000
0.997433 0.319745 0.000000
1.000000 0.318808 0.000000
1.000000 0.318290 0.000000
0.000000 0.370281 0.000000
0.000000 0.369955 0.000000
0.002373 0.369720 0.000000
0.010217 0.369545 0.000000
0.034150 0.369012 0.000000
0.064408 0.368339 0.000000
0.094419 0.367671 0.000000
0.124970 0.366991 0.000000
0.148371 0.366470 0.000000
0.187346 0.365603 0.000000
0.222135 0.364828 0.000000
0.260902 0.363965 0.000000
0.294649 0.363214 0.000000
0.338274 0.362243 0.000000
0.372670 0.361478 0.000000
0.399069 0.360890 0.000000
0.432744 0.360140 0.000000
0.485690 0.358962 0.000000
0.531202 0.357949 0.000000
0.574383 0.356988 0.000000
0.619606 0.355981 0.000000
0.656412 0.355162 0.000000
0.687268 0.354475 0.000000
0.712140 0.353922 0.000000
0.737650 0.353354 0.000000
0.765699 0.352730 0.000000
0.795497 0.352066 0.000000
0.830403 0.351289 0.000000
0.872849 0.350345 0.000000
0.930898 0.349052 0.000000
0.995229 0.347621 0.000000
1.000000 0.346684 0.000000
1.000000 0.346166 0.000000
0.000000 0.395251 0.000000
0.000000 0.394925 0.000000
0.000399 0.394690 0.000000
0.008243 0.394516 0.000000
0.032177 0.393983 0.000000
0.062434 0.393309 0.000000
0.092445 0.392641 0.000000
0.122996 0.391961 0.000000
0.146397 0.391441 0.000000
0.185372 0.390573 0.000000
0.220161 0.389799 0.000000
0.258929 0.388936 0.000000
0.292675 0.388185 0.000000
0.336301 0.387214 0.000000
0.370697 0.386448 0.000000
0.397095 0.385860 0.000000
0.430771 0.385111 0.000000
0.483716 0.383932 0.000000
0.529229 0.382919 0.000000
0.572410 0.381958 0.000000
0.617633 0.380952 0.000000
0.654439 0.380133 0.000000
0.685294 0.379446 0.000000
0.710166 0.378892 0.000000
0.735676 0.378324 0.000000
0.763725 0.377700 0.000000
0.793524 0.377037 0.000000
0.828430 0.376260 0.000000
0.870876 0.375315 0.000000
0.928925 0.374023 0.000000
0.993256 0.372591 0.000000
1.000000 0.371654 0.000000
1.000000 0.371137 0.000000
0.000000 0.429270 0.000000
0.000000 0.428943 0.000000
0.000000 0.428708 0.000000
0.005555 0.428534 0.000000
0.029488 0.428001 0.000000
0.059746 0.427328 0.000000
0.089756 0.426660 0.000000
0.120307 0.425980 0.000000
0.143709 0.425459 0.000000
0.182684 0.424591 0.000000
0.217472 0.423817 0.000000
0.256240 0.422954 0.000000
0.289986 0.422203 0.000000
0.333612 0.421232 0.000000
0.368008 0.420466 0.000000
0.394407 0.419879 0.000000
0.428082 0.419129 0.000000
0.481027 0.417951 0.000000
0.526540 0.416938 0.000000
0.569721 0.415977 0.000000
0.614944 0.414970 0.000000
0.651750 0.414151 0.000000
0.682606 0.413464 0.000000
0.707478 0.412910 0.000000
0.732988 0.412343 0.000000
0.761036 0.411718 0.000000
0.790835 0.411055 0.000000
0.825741 0.410278 0.000000
0.868187 0.409333 0.000000
0.926236 0.408041 0.000000
0.990567 0.406609 0.000000
1.000000 0.405672 0.000000
1.000000 0.405155 0.000000
0.000000 0.482988 0.000000
0.000000 0.482662 0.000000
0.000000 0.482427 0.000000
0.001309 0.482252 0.000000
0.025242 0.481720 0.000000
0.055500 0.481046 0.000000
0.085511 0.480378 0.000000
0.116062 0.479698 0.000000
0.139463 0.479177 0.000000
0.178438 0.478310 0.000000
0.213227 0.477535 0.000000
0.251994 0.476673 0.000000
0.285741 0.475921 0.000000
0.329366 0.474950 0.000000
0.363762 0.474185 0.000000
0.390161 0.473597 0.000000
0.423836 0.472848 0.000000
0.476782 0.471669 0.000000
0.522294 0.470656 0.000000
0.565476 0.469695 0.000000
0.610698 0.468688 0.000000
0.647504 0.467869 0.000000
0.678360 0.467182 0.000000
0.703232 0.466629 0.000000
0.728742 0.466061 0.000000
0.756791 0.465437 0.000000
0.786590 0.464773 0.000000
0.821495 0.463996 0.000000
0.863941 0.463052 0.000000
0.921990 0.461760 0.000000
0.986321 0.460328 0.000000
1.000000 0.459391 0.000000
1.000000 0.458874 0.000000
0.000000 0.521792 0.000000
0.000000 0.521466 0.000000
0.000000 0.521231 0.000000
0.000000 0.521057 0.000000
0.022175 0.520524 0.000000
0.052433 0.519850 0.000000
0.082444 0.519182 0.000000
0.112995 0.518502 0.000000
0.136396 0.517982 0.000000
0.175371 0.517114 0.000000
0.210160 0.516340 0.000000
0.248927 0.515477 0.000000
0.282674 0.514726 0.000000
0.326299 0.513755 0.000000
0.360695 0.512989 0.000000
0.387094 0.512402 0.000000
0.420769 0.511652 0.000000
0.473715 0.510473 0.000000
0.519227 0.509460 0.000000
0.562409 0.508499 0.000000
0.607631 0.507493 0.000000
0.644437 0.506674 0.000000
0.675293 0.505987 0.000000
0.700165 0.505433 0.000000
0.725675 0.504865 0.000000
0.753724 0.504241 0.000000
0.783523 0.503578 0.000000
0.818429 0.502801 0.000000
0.860874 0.501856 0.000000
0.918923 0.500564 0.000000
0.983255 0.499132 0.000000
1.000000 0.498195 0.000000
1.000000 0.497678 0.000000
0.000000 0.557334 0.000000
0.000000 0.557008 0.000000
0.000000 0.556773 0.000000
0.000000 0.556599 0.000000
0.019366 0.556066 0.000000
0.049624 0.555392 0.000000
0.079635 0.554724 0.000000
0.110186 0.554044 0.000000
0.133587 0.553524 0.000000
0.172562 0.552656 0.000000
0.207351 0.551882 0.000000
0.246118 0.551019 0.000000
0.279865 0.550268 0.000000
0.323490 0.549297 0.000000
0.357886 0.548531 0.000000
0.384285 0.547943 0.000000
0.417960 0.547194 0.000000
0.470905 0.546015 0.000000
0.516418 0.545002 0.000000
0.559599 0.544041 0.000000
0.604822 0.543035 0.000000
0.641628 0.542216 0.000000
0.672484 0.541529 0.000000
0.697356 0.540975 0.000000
0.722866 0.540407 0.000000
0.750915 0.539783 0.000000
0.780713 0.539120 0.000000
0.815619 0.538343 0.000000
0.858065 0.537398 0.000000
0.916114 0.536106 0.000000
0.980445 0.534674 0.000000
1.000000 0.533737 0.000000
1.000000 0.533220 0.000000
0.000000 0.590759 0.000000
0.000000 0.590433 0.000000
0.000000 0.590198 0.000000
0.000000 0.590024 0.000000
0.016724 0.589491 0.000000
0.046982 0.588817 0.000000
0.076993 0.588149 0.000000
0.107544 0.587469 0.000000
0.130945 0.586948 0.000000
0.169920 0.586081 0.000000
0.204709 0.585307 0.000000
0.243477 0.584444 0.000000
0.277223 0.583693 0.000000
0.320848 0.582722 0.000000
0.355244 0.581956 0.000000
0.381643 0.581368 0.000000
0.415318 0.580619 0.000000
0.468264 0.579440 0.000000
0.513776 0.578427 0.000000
0.556958 0.577466 0.000000
0.602180 0.576460 0.000000
0.638986 0.575640 0.000000
0.669842 0.574954 0.000000
0.694714 0.574400 0.000000
0.720224 0.573832 0.000000
0.748273 0.573208 0.000000
0.778072 0.572545 0.000000
0.812978 0.571768 0.000000
0.855423 0.570823 0.000000
0.913472 0.569531 0.000000
0.977804 0.568099 0.000000
1.000000 0.567162 0.000000
1.000000 0.566645 0.000000
0.000000 0.620600 0.000000
0.000000 0.620274 0.000000
0.000000 0.620039 0.000000
0.000000 0.619864 0.000000
0.014366 0.619332 0.000000
0.044623 0.618658 0.000000
0.074634 0.617990 0.000000
0.105185 0.617310 0.000000
0.128586 0.616789 0.000000
0.167561 0.615922 0.000000
0.202350 0.615148 0.000000
0.241118 0.614285 0.000000
0.274864 0.613533 0.000000
0.318490 0.612562 0.000000
0.352886 0.611797 0.000000
0.379285 0.611209 0.000000
0.412960 0.610460 0.000000
0.465905 0.609281 0.000000
0.511418 0.608268 0.000000
0.554599 0.607307 0.000000
0.599822 0.606301 0.000000
0.636628 0.605481 0.000000
0.667483 0.604795 0.000000
0.692356 0.604241 0.000000
0.717865 0.603673 0.000000
0.745914 0.603049 0.000000
0.775713 0.602386 0.000000
0.810619 0.601609 0.000000
0.853065 0.600664 0.000000
0.911114 0.599372 0.000000
0.975445 0.597940 0.000000
1.000000 0.597003 0.000000
1.000000 0.596486 0.000000
0.000000 0.651797 0.000000
0.000000 0.651471 0.000000
0.000000 0.651236 0.000000
0.000000 0.651062 0.000000
0.011900 0.650529 0.000000
0.042158 0.649856 0.000000
0.072168 0.649188 0.000000
0.102719 0.648508 0.000000
0.126121 0.647987 0.000000
0.165096 0.647119 0.000000
0.199885 0.646345 0.000000
0.238652 0.645482 0.000000
0.272399 0.644731 0.000000
0.316024 0.643760 0.000000
0.350420 0.642994 0.000000
0.376819 0.642407 0.000000
0.410494 0.641657 0.000000
0.463439 0.640479 0.000000
0.508952 0.639466 0.000000
0.552133 0.638504 0.000000
0.597356 0.637498 0.000000
0.634162 0.636679 0.000000
0.665018 0.635992 0.000000
0.689890 0.635438 0.000000
0.715400 0.634870 0.000000
0.743448 0.634246 0.000000
0.773247 0.633583 0.000000
0.808153 0.632806 0.000000
0.850599 0.631861 0.000000
0.908648 0.630569 0.000000
0.972979 0.629137 0.000000
1.000000 0.628200 0.000000
1.000000 0.627683 0.000000
0.000000 0.684010 0.000000
0.000000 0.683684 0.000000
0.000000 0.683449 0.000000
0.000000 0.683274 0.000000
0.009354 0.682741 0.000000
0.039612 0.682068 0.000000
0.069623 0.681400 0.000000
0.100174 0.680720 0.000000
0.123575 0.680199 0.000000
0.162550 0.679331 0.000000
0.197339 0.678557 0.000000
0.236106 0.677694 0.000000
0.269853 0.676943 0.000000
0.313478 0.675972 0.000000
0.347874 0.675207 0.000000
0.374273 0.674619 0.000000
0.407948 0.673869 0.000000
0.460893 0.672691 0.000000
0.506406 0.671678 0.000000
0.549587 0.670717 0.000000
0.594810 0.669710 0.000000
0.631616 0.668891 0.000000
0.662472 0.668204 0.000000
0.687344 0.667651 0.000000
0.712854 0.667083 0.000000
0.740903 0.666458 0.000000
0.770701 0.665795 0.000000
0.805607 0.665018 0.000000
0.848053 0.664073 0.000000
0.906102 0.662781 0.000000
0.970433 0.661350 0.000000
1.000000 0.660413 0.000000
1.000000 0.659895 0.000000
0.000000 0.720091 0.000000
0.000000 0.719765 0.000000
0.000000 0.719530 0.000000
0.000000 0.719355 0.000000
0.006503 0.718822 0.000000
0.036760 0.718149 0.000000
0.066771 0.717481 0.000000
0.097322 0.716801 0.000000
0.120723 0.716280 0.000000
0.159698 0.715413 0.000000
0.194487 0.714638 0.000000
0.233255 0.713775 0.000000
0.267001 0.713024 0.000000
0.310627 0.712053 0.000000
0.345023 0.711288 0.000000
0.371421 0.710700 0.000000
0.405096 0.709950 0.000000
0.458042 0.708772 0.000000
0.503554 0.707759 0.000000
0.546736 0.706798 0.000000
0.591958 0.705791 0.000000
0.628764 0.704972 0.000000
0.659620 0.704285 0.000000
0.684492 0.703732 0.000000
0.710002 0.703164 0.000000
0.738051 0.702540 0.000000
0.767850 0.701876 0.000000
0.802756 0.701099 0.000000
0.845201 0.700155 0.000000
0.903250 0.698862 0.000000
0.967582 0.697431 0.000000
1.000000 0.696494 0.000000
1.000000 0.695976 0.000000
0.000000 0.758186 0.000000
0.000000 0.757860 0.000000
0.000000 0.757625 0.000000
0.000000 0.757450 0.000000
0.003492 0.756917 0.000000
0.033749 0.756244 0.000000
0.063760 0.755576 0.000000
0.094311 0.754896 0.000000
0.117712 0.754375 0.000000
0.156687 0.753508 0.000000
0.191476 0.752733 0.000000
0.230244 0.751870 0.000000
0.263990 0.751119 0.000000
0.307616 0.750148 0.000000
0.342012 0.749383 0.000000
0.368410 0.748795 0.000000
0.402085 0.748046 0.000000
0.455031 0.746867 0.000000
0.500543 0.745854 0.000000
0.543725 0.744893 0.000000
0.588947 0.743886 0.000000
0.625754 0.743067 0.000000
0.656609 0.742380 0.000000
0.681481 0.741827 0.000000
0.706991 0.741259 0.000000
0.735040 0.740635 0.000000
0.764839 0.739971 0.000000
0.799745 0.739194 0.000000
0.842191 0.738250 0.000000
0.900240 0.736958 0.000000
0.964571 0.735526 0.000000
1.000000 0.734589 0.000000
1.000000 0.734071 0.000000
0.000000 0.798244 0.000000
0.000000 0.797918 0.000000
0.000000 0.797683 0.000000
0.000000 0.797509 0.000000
0.000326 0.796976 0.000000
0.030583 0.796303 0.000000
0.060594 0.795635 0.000000
0.091145 0.794955 0.000000
0.114546 0.794434 0.000000
0.153521 0.793566 0.000000
0.188310 0.792792 0.000000
0.227078 0.791929 0.000000
0.260824 0.791178 0.000000
0.304450 0.790207 0.000000
0.338846 0.789441 0.000000
0.365244 0.788854 0.000000
0.398919 0.788104 0.000000
0.451865 0.786926 0.000000
0.497377 0.785913 0.000000
0.540559 0.784951 0.000000
0.585781 0.783945 0.000000
0.622587 0.783126 0.000000
