assets/preview/luts/cinema_blue_hour.cube
TITLE "Cinema Blue Hour"
LUT_3D_SIZE 5
DOMAIN_MIN 0.0 0.0 0.0
DOMAIN_MAX 1.0 1.0 1.0
0.000000 0.000000 0.019124
0.182691 0.000000 0.014086
0.497391 0.000000 0.005520
0.818568 0.000000 0.000000
1.000000 0.000000 0.000000
0.000000 0.218452 0.000000
0.169991 0.214810 0.000000
0.484692 0.208624 0.000000
0.805868 0.202310 0.000000
1.000000 0.197289 0.000000
0.000000 0.526342 0.000000
0.152102 0.522632 0.000000
0.466803 0.516446 0.000000
0.787178 0.510427 0.000000
1.000000 0.505924 0.000000
0.000000 0.834582 0.000000
0.130936 0.831234 0.000000
0.443896 0.825688 0.000000
0.763296 0.820027 0.000000
1.000000 0.815525 0.000000
0.000000 1.000000 0.000000
0.115991 1.000000 0.000000
0.428995 1.000000 0.000000
0.748440 1.000000 0.000000
1.000000 1.000000 0.000000
0.000000 0.000000 0.324779
0.180999 0.000000 0.319735
0.495700 0.000000 0.311169
0.816876 0.000000 0.302426
1.000000 0.000000 0.295473
0.000000 0.216433 0.303769
0.168299 0.212784 0.298677
0.483000 0.206598 0.290111
0.804176 0.200284 0.281368
1.000000 0.195263 0.274415
0.000000 0.524323 0.274175
0.150410 0.520606 0.269015
0.465111 0.514420 0.260448
0.784916 0.508610 0.255156
1.000000 0.504108 0.251758
0.000000 0.832761 0.251658
0.128674 0.829418 0.249139
0.441634 0.823871 0.244953
0.761034 0.818211 0.240680
1.000000 0.813708 0.237282
0.000000 1.000000 0.242628
0.113743 1.000000 0.240166
0.426748 1.000000 0.236023
0.746193 1.000000 0.231796
1.000000 1.000000 0.228433
0.000000 0.000000 0.667510
0.179102 0.000000 0.662459
0.493802 0.000000 0.653892
0.814979 0.000000 0.645150
1.000000 0.000000 0.638196
0.000000 0.214168 0.646500
0.166402 0.210513 0.641401
0.481103 0.204326 0.632834
0.802279 0.198013 0.624091
1.000000 0.192991 0.617138
0.000000 0.522058 0.616906
0.148513 0.518334 0.611738
0.462980 0.512234 0.603760
0.782380 0.506574 0.599488
1.000000 0.502071 0.596089
0.000000 0.830720 0.595984
0.126138 0.827381 0.593471
0.439098 0.821835 0.589284
0.758498 0.816174 0.585012
1.000000 0.811672 0.581613
0.000000 1.000000 0.586971
0.111223 1.000000 0.584513
0.424228 1.000000 0.580371
0.743673 1.000000 0.576144
0.997745 1.000000 0.572781
0.000000 0.000000 1.000000
0.177252 0.000000 0.996705
0.491952 0.000000 0.988139
0.813128 0.000000 0.979396
1.000000 0.000000 0.972443
0.000000 0.211960 0.980754
0.164552 0.208297 0.975647
0.479253 0.202111 0.967081
0.800429 0.195797 0.958338
1.000000 0.190776 0.951385
0.000000 0.519850 0.951159
0.146663 0.516119 0.945985
0.460506 0.510248 0.939576
0.779906 0.504587 0.935303
1.000000 0.500085 0.931905
0.000000 0.828729 0.931795
0.123665 0.825395 0.929286
0.436625 0.819848 0.925100
0.756025 0.814187 0.920827
1.000000 0.809685 0.917429
0.000000 1.000000 0.922798
0.108766 1.000000 0.920345
0.421770 1.000000 0.916202
0.741215 1.000000 0.911975
0.995288 1.000000 0.908612
0.000000 0.000000 1.000000
0.176756 0.000000 1.000000
0.491441 0.000000 1.000000
0.812601 0.000000 1.000000
1.000000 0.000000 1.000000
0.000000 0.211320 1.000000
0.164018 0.207646 1.000000
0.478703 0.201444 1.000000
0.799863 0.195114 1.000000
1.000000 0.190080 1.000000
0.000000 0.519156 1.000000
0.146075 0.515413 1.000000
0.459720 0.509618 1.000000
0.779134 0.503971 1.000000
1.000000 0.499479 1.000000
0.000000 0.828122 1.000000
0.122911 0.824798 1.000000
0.435884 0.819264 1.000000
0.755298 0.813617 1.000000
1.000000 0.809126 1.000000
0.000000 1.000000 1.000000
0.108047 1.000000 1.000000
0.421064 1.000000 1.000000
0.740523 1.000000 1.000000
0.994606 1.000000 1.000000
