assets/preview/luts/cinema_blue_hour.cube
TITLE "Cinema Blue Hour"
LUT_3D_SIZE 9
DOMAIN_MIN 0.0 0.0 0.0
DOMAIN_MAX 1.0 1.0 1.0
0.000000 0.000000 0.019124
0.032566 0.000000 0.018173
0.182691 0.000000 0.014086
0.338356 0.000000 0.009849
0.497391 0.000000 0.005520
0.658017 0.000000 0.001148
0.818568 0.000000 0.000000
0.977417 0.000000 0.000000
1.000000 0.000000 0.000000
0.000000 0.067798 0.012595
0.028619 0.067141 0.011629
0.178744 0.064190 0.007542
0.334410 0.061130 0.003305
0.493445 0.058004 0.000000
0.654070 0.054846 0.000000
0.814621 0.051690 0.000000
0.973471 0.048568 0.000000
1.000000 0.046669 0.000000
0.000000 0.218452 0.000000
0.019866 0.217761 0.000000
0.169991 0.214810 0.000000
0.325657 0.211750 0.000000
0.484692 0.208624 0.000000
0.645317 0.205466 0.000000
0.805868 0.202310 0.000000
0.964717 0.199188 0.000000
1.000000 0.197289 0.000000
0.000000 0.371760 0.000000
0.010959 0.371036 0.000000
0.161084 0.368085 0.000000
0.316749 0.365025 0.000000
0.475784 0.361898 0.000000
0.636410 0.358741 0.000000
0.796960 0.355585 0.000000
0.955810 0.352462 0.000000
1.000000 0.350563 0.000000
0.000000 0.526342 0.000000
0.001977 0.525583 0.000000
0.152102 0.522632 0.000000
0.307768 0.519572 0.000000
0.466803 0.516446 0.000000
0.627428 0.513288 0.000000
0.787178 0.510427 0.000000
0.945149 0.507627 0.000000
1.000000 0.505924 0.000000
0.000000 0.680815 0.000000
0.000000 0.680022 0.000000
0.142819 0.677184 0.000000
0.297624 0.674441 0.000000
0.455779 0.671638 0.000000
0.615516 0.668807 0.000000
0.775179 0.665977 0.000000
0.933150 0.663177 0.000000
1.000000 0.661475 0.000000
0.000000 0.834582 0.000000
0.000000 0.833880 0.000000
0.130936 0.831234 0.000000
0.285741 0.828491 0.000000
0.443896 0.825688 0.000000
0.603633 0.822857 0.000000
0.763296 0.820027 0.000000
0.921267 0.817227 0.000000
1.000000 0.815525 0.000000
0.000000 0.985718 0.000000
0.000000 0.985039 0.000000
0.119276 0.982393 0.000000
0.274081 0.979649 0.000000
0.432236 0.976846 0.000000
0.591973 0.974015 0.000000
0.751636 0.971186 0.000000
0.909607 0.968386 0.000000
1.000000 0.966683 0.000000
0.000000 1.000000 0.000000
0.000000 1.000000 0.000000
0.115991 1.000000 0.000000
0.270817 1.000000 0.000000
0.428995 1.000000 0.000000
0.588755 1.000000 0.000000
0.748440 1.000000 0.000000
0.906433 1.000000 0.000000
1.000000 1.000000 0.000000
0.000000 0.000000 0.152676
0.031827 0.000000 0.151723
0.181952 0.000000 0.147636
0.337617 0.000000 0.143399
0.496652 0.000000 0.139070
0.657278 0.000000 0.134698
0.817828 0.000000 0.130327
0.976678 0.000000 0.126003
1.000000 0.000000 0.123374
0.000000 0.066916 0.146147
0.027880 0.066256 0.145179
0.178005 0.063305 0.141092
0.333670 0.060245 0.136855
0.492706 0.057119 0.132526
0.653331 0.053961 0.128154
0.813882 0.050805 0.123783
0.972731 0.047682 0.119459
1.000000 0.045783 0.116830
0.000000 0.217570 0.131667
0.019127 0.216876 0.130665
0.169252 0.213925 0.126578
0.324917 0.210865 0.122341
0.483952 0.207739 0.118012
0.644578 0.204581 0.113639
0.805129 0.201425 0.109269
0.963978 0.198303 0.104945
1.000000 0.196404 0.102316
0.000000 0.370878 0.116931
0.010219 0.370151 0.115895
0.160344 0.367199 0.111808
0.316010 0.364139 0.107571
0.475045 0.361013 0.103242
0.635671 0.357856 0.098870
0.796221 0.354700 0.094499
0.955071 0.351577 0.090175
1.000000 0.349678 0.087546
0.000000 0.525460 0.102072
0.001238 0.524698 0.101002
0.151363 0.521747 0.096916
0.307028 0.518687 0.092678
0.466064 0.515561 0.088349
0.626527 0.512463 0.084385
0.786190 0.509633 0.082249
0.944161 0.506833 0.080136
1.000000 0.505131 0.078851
0.000000 0.679933 0.087224
0.000000 0.679137 0.086120
0.141831 0.676391 0.083436
0.296635 0.673647 0.081365
0.454791 0.670844 0.079249
0.614528 0.668013 0.077112
0.774191 0.665183 0.074976
0.932162 0.662384 0.072863
1.000000 0.660681 0.071578
0.000000 0.833787 0.078753
0.000000 0.833087 0.078230
0.129948 0.830441 0.076233
0.284752 0.827697 0.074162
0.442908 0.824894 0.072046
0.602645 0.822063 0.069909
0.762308 0.819233 0.067773
0.920279 0.816434 0.065660
1.000000 0.814731 0.064375
0.000000 0.984923 0.071663
0.000000 0.984245 0.071162
0.118288 0.981599 0.069165
0.273092 0.978856 0.067094
0.431248 0.976053 0.064978
0.590985 0.973222 0.062841
0.750648 0.970392 0.060706
0.908619 0.967592 0.058592
1.000000 0.965890 0.057307
0.000000 1.000000 0.069716
0.000000 1.000000 0.069227
0.115009 1.000000 0.067251
0.269835 1.000000 0.065202
0.428013 1.000000 0.063109
0.587773 1.000000 0.060994
0.747458 1.000000 0.058881
0.905451 1.000000 0.056790
1.000000 1.000000 0.055519
0.000000 0.000000 0.324779
0.030874 0.000000 0.323822
0.180999 0.000000 0.319735
0.336664 0.000000 0.315498
0.495700 0.000000 0.311169
0.656325 0.000000 0.306797
0.816876 0.000000 0.302426
0.975725 0.000000 0.298102
1.000000 0.000000 0.295473
0.000000 0.065779 0.318250
0.026927 0.065115 0.317278
0.177052 0.062164 0.313191
0.332718 0.059104 0.308954
0.491753 0.055978 0.304625
0.652379 0.052820 0.300253
0.812929 0.049664 0.295882
0.971779 0.046542 0.291558
1.000000 0.044643 0.288929
0.000000 0.216433 0.303769
0.018174 0.215735 0.302764
0.168299 0.212784 0.298677
0.323965 0.209724 0.294440
0.483000 0.206598 0.290111
0.643625 0.203441 0.285739
0.804176 0.200284 0.281368
0.963025 0.197162 0.277044
1.000000 0.195263 0.274415
0.000000 0.369741 0.289033
0.009267 0.369010 0.287994
0.159392 0.366059 0.283907
0.315057 0.362999 0.279670
0.474092 0.359872 0.275341
0.634718 0.356715 0.270969
0.795269 0.353559 0.266598
0.954118 0.350436 0.262274
1.000000 0.348537 0.259645
0.000000 0.524323 0.274175
0.000285 0.523557 0.273101
0.150410 0.520606 0.269015
0.306076 0.517546 0.264777
0.465111 0.514420 0.260448
0.625253 0.511440 0.257292
0.784916 0.508610 0.255156
0.942887 0.505811 0.253043
1.000000 0.504108 0.251758
0.000000 0.678796 0.259327
0.000000 0.678014 0.258339
0.140557 0.675368 0.256342
0.295362 0.672624 0.254271
0.453517 0.669821 0.252156
0.613255 0.666990 0.250019
0.772917 0.664161 0.247883
0.930888 0.661361 0.245770
1.000000 0.659658 0.244485
0.000000 0.832761 0.251658
0.000000 0.832064 0.251136
0.128674 0.829418 0.249139
0.283479 0.826674 0.247068
0.441634 0.823871 0.244953
0.601372 0.821040 0.242816
0.761034 0.818211 0.240680
0.919005 0.815411 0.238567
1.000000 0.813708 0.237282
0.000000 0.983898 0.244568
0.000000 0.983222 0.244069
0.117014 0.980576 0.242071
0.271819 0.977833 0.240001
0.429974 0.975030 0.237885
0.589712 0.972199 0.235748
0.749374 0.969369 0.233612
0.907345 0.966569 0.231499
1.000000 0.964867 0.230214
0.000000 1.000000 0.242628
0.000000 1.000000 0.242142
0.113743 1.000000 0.240166
0.268570 1.000000 0.238117
0.426748 1.000000 0.236023
0.586507 1.000000 0.233909
0.746193 1.000000 0.231796
0.904186 1.000000 0.229705
1.000000 1.000000 0.228433
0.000000 0.000000 0.496647
0.029923 0.000000 0.495687
0.180048 0.000000 0.491600
0.335713 0.000000 0.487363
0.494748 0.000000 0.483034
0.655374 0.000000 0.478661
0.815924 0.000000 0.474291
0.974774 0.000000 0.469967
1.000000 0.000000 0.467337
0.000000 0.064643 0.490118
0.025976 0.063976 0.489143
0.176101 0.061025 0.485056
0.331767 0.057965 0.480819
0.490802 0.054839 0.476490
0.651427 0.051681 0.472117
0.811978 0.048525 0.467747
0.970827 0.045402 0.463423
1.000000 0.043504 0.460794
0.000000 0.215297 0.475638
0.017223 0.214596 0.474628
0.167348 0.211645 0.470542
0.323013 0.208585 0.466305
0.482048 0.205459 0.461976
0.642674 0.202301 0.457603
0.803225 0.199145 0.453233
0.962074 0.196023 0.448909
1.000000 0.194124 0.446279
0.000000 0.368605 0.460902
0.008316 0.367871 0.459858
0.158441 0.364920 0.455772
0.314106 0.361860 0.451535
0.473141 0.358733 0.447206
0.633767 0.355576 0.442833
0.794317 0.352420 0.438463
0.953167 0.349297 0.434139
1.000000 0.347427 0.431707
0.000000 0.523187 0.446043
0.000000 0.522418 0.444966
0.149459 0.519467 0.440879
0.305125 0.516407 0.436642
0.464160 0.513281 0.432313
0.623982 0.510419 0.429963
0.783644 0.507589 0.427827
0.941615 0.504789 0.425714
1.000000 0.503087 0.424429
0.000000 0.677710 0.431552
0.000000 0.676992 0.431011
0.139285 0.674347 0.429013
0.294090 0.671603 0.426943
0.452246 0.668800 0.424827
0.611983 0.665969 0.422690
0.771645 0.663139 0.420554
0.929616 0.660340 0.418441
1.000000 0.658637 0.417156
0.000000 0.831738 0.424326
0.000000 0.831042 0.423808
0.127402 0.828397 0.421810
0.282207 0.825653 0.419740
0.440363 0.822850 0.417624
0.600100 0.820019 0.415487
0.759762 0.817189 0.413351
0.917733 0.814390 0.411238
1.000000 0.812687 0.409953
0.000000 0.982874 0.417236
0.000000 0.982201 0.416740
0.115742 0.979555 0.414743
0.270547 0.976811 0.412672
0.428703 0.974008 0.410556
0.588440 0.971177 0.408419
0.748102 0.968348 0.406283
0.906073 0.965548 0.404170
1.000000 0.963845 0.402885
0.000000 1.000000 0.415305
0.000000 1.000000 0.414821
0.112480 1.000000 0.412845
0.267306 1.000000 0.410796
0.425484 1.000000 0.408703
0.585244 1.000000 0.406588
0.744929 1.000000 0.404475
0.902922 1.000000 0.402384
0.999001 1.000000 0.401113
0.000000 0.000000 0.667510
0.028977 0.000000 0.666545
0.179102 0.000000 0.662459
0.334767 0.000000 0.658221
0.493802 0.000000 0.653892
0.654428 0.000000 0.649520
0.814979 0.000000 0.645150
0.973828 0.000000 0.640826
1.000000 0.000000 0.638196
0.000000 0.063514 0.660981
0.025030 0.062843 0.660001
0.175155 0.059892 0.655915
0.330821 0.056832 0.651677
0.489856 0.053706 0.647348
0.650481 0.050549 0.642976
0.811032 0.047393 0.638606
0.969882 0.044270 0.634282
1.000000 0.042371 0.631652
0.000000 0.214168 0.646500
0.016277 0.213464 0.645487
0.166402 0.210513 0.641401
0.322068 0.207453 0.637163
0.481103 0.204326 0.632834
0.641728 0.201169 0.628462
0.802279 0.198013 0.624091
0.961128 0.194890 0.619768
1.000000 0.192991 0.617138
0.000000 0.367477 0.631764
0.007370 0.366738 0.630717
0.157495 0.363787 0.626631
0.313160 0.360727 0.622393
0.472195 0.357601 0.618064
0.632821 0.354443 0.613692
0.793371 0.351287 0.609322
0.952221 0.348165 0.604998
1.000000 0.346412 0.603368
0.000000 0.522058 0.616906
0.000000 0.521286 0.615824
0.148513 0.518334 0.611738
0.304179 0.515274 0.607501
0.462980 0.512234 0.603760
0.622717 0.509403 0.601624
0.782380 0.506574 0.599488
0.940351 0.503774 0.597375
1.000000 0.502071 0.596089
0.000000 0.676692 0.603210
0.000000 0.675977 0.602671
0.138021 0.673331 0.600674
0.292826 0.670588 0.598603
0.450981 0.667785 0.596487
0.610718 0.664954 0.594350
0.770381 0.662124 0.592215
0.928352 0.659324 0.590101
1.000000 0.657622 0.588816
0.000000 0.830720 0.595984
0.000000 0.830027 0.595468
0.126138 0.827381 0.593471
0.280943 0.824638 0.591400
0.439098 0.821835 0.589284
0.598835 0.819004 0.587148
0.758498 0.816174 0.585012
0.916469 0.813374 0.582898
1.000000 0.811672 0.581613
0.000000 0.981856 0.588894
0.000000 0.981186 0.588400
0.114478 0.978540 0.586403
0.269283 0.975796 0.584332
0.427438 0.972993 0.582217
0.587175 0.970162 0.580080
0.746838 0.967332 0.577944
0.904809 0.964533 0.575831
1.000000 0.962830 0.574546
0.000000 1.000000 0.586971
0.000000 1.000000 0.586490
0.111223 1.000000 0.584513
0.266050 1.000000 0.582465
0.424228 1.000000 0.580371
0.583987 1.000000 0.578257
0.743673 1.000000 0.576144
0.901666 1.000000 0.574053
0.997745 1.000000 0.572781
0.000000 0.000000 0.836279
0.028043 0.000000 0.835311
0.178168 0.000000 0.831224
0.333833 0.000000 0.826987
0.492868 0.000000 0.822658
0.653494 0.000000 0.818285
0.814044 0.000000 0.813915
0.972894 0.000000 0.809591
1.000000 0.000000 0.806962
0.000000 0.062399 0.829750
0.024096 0.061725 0.828767
0.174221 0.058774 0.824680
0.329887 0.055714 0.820443
0.488922 0.052588 0.816114
0.649547 0.049430 0.811741
0.810098 0.046274 0.807371
0.968947 0.043151 0.803047
1.000000 0.041252 0.800418
0.000000 0.213053 0.815269
0.015343 0.212345 0.814253
0.165468 0.209394 0.810166
0.321133 0.206334 0.805929
0.480169 0.203208 0.801600
0.640794 0.200050 0.797227
0.801345 0.196894 0.792857
0.960194 0.193772 0.788533
1.000000 0.191873 0.785903
0.000000 0.366361 0.800533
0.006436 0.365620 0.799483
0.156561 0.362668 0.795396
0.312226 0.359608 0.791159
0.471261 0.356482 0.786830
0.631887 0.353325 0.782457
0.792437 0.350169 0.778087
0.951109 0.347111 0.774210
1.000000 0.345409 0.772925
0.000000 0.520943 0.785675
0.000000 0.520167 0.784590
0.147579 0.517216 0.780503
0.303245 0.514156 0.776266
0.461731 0.511231 0.773318
0.621468 0.508400 0.771181
0.781131 0.505571 0.769045
0.939102 0.502771 0.766932
1.000000 0.501068 0.765647
0.000000 0.675687 0.772765
0.000000 0.674974 0.772228
0.136772 0.672328 0.770231
0.291577 0.669585 0.768160
0.449732 0.666782 0.766045
0.609469 0.663951 0.763908
0.769132 0.661121 0.761772
0.927103 0.658321 0.759659
1.000000 0.656619 0.758374
0.000000 0.829714 0.765540
0.000000 0.829024 0.765025
0.124889 0.826378 0.763028
0.279694 0.823635 0.760957
0.437849 0.820832 0.758842
0.597586 0.818001 0.756705
0.757249 0.815171 0.754569
0.915220 0.812371 0.752456
1.000000 0.810669 0.751171
0.000000 0.980851 0.758450
0.000000 0.980183 0.757958
0.113229 0.977537 0.755961
0.268034 0.974793 0.753890
0.426189 0.971990 0.751774
0.585926 0.969159 0.749637
0.745589 0.966329 0.747501
0.903560 0.963530 0.745388
0.999626 0.961827 0.744103
0.000000 1.000000 0.756535
0.000000 1.000000 0.756055
0.109982 1.000000 0.754079
0.264809 1.000000 0.752030
0.422987 1.000000 0.749937
0.582747 1.000000 0.747822
0.742432 1.000000 0.745709
0.900425 1.000000 0.743618
0.996504 1.000000 0.742347
0.000000 0.000000 1.000000
0.027127 0.000000 1.000000
0.177252 0.000000 0.996705
0.332917 0.000000 0.992468
0.491952 0.000000 0.988139
0.652578 0.000000 0.983767
0.813128 0.000000 0.979396
0.971978 0.000000 0.975072
1.000000 0.000000 0.972443
0.000000 0.061306 0.995234
0.023180 0.060628 0.994248
0.173305 0.057677 0.990161
0.328971 0.054617 0.985924
0.488006 0.051491 0.981595
0.648631 0.048333 0.977223
0.809182 0.045177 0.972852
0.968031 0.042055 0.968528
1.000000 0.040156 0.965899
0.000000 0.211960 0.980754
0.014427 0.211248 0.979734
0.164552 0.208297 0.975647
0.320217 0.205237 0.971410
0.479253 0.202111 0.967081
0.639878 0.198953 0.962708
0.800429 0.195797 0.958338
0.959278 0.192675 0.954014
1.000000 0.190776 0.951385
0.000000 0.365268 0.966018
0.005520 0.364523 0.964964
0.155645 0.361572 0.960877
0.311310 0.358512 0.956640
0.470345 0.355385 0.952311
0.630971 0.352228 0.947939
0.791521 0.349072 0.943568
0.949885 0.346128 0.940468
1.000000 0.344425 0.939183
0.000000 0.519850 0.951159
0.000000 0.519070 0.950071
0.146663 0.516119 0.945985
0.302329 0.513059 0.941747
0.460506 0.510248 0.939576
0.620244 0.507417 0.937439
0.779906 0.504587 0.935303
0.937877 0.501787 0.933190
1.000000 0.500085 0.931905
0.000000 0.674701 0.939021
0.000000 0.673991 0.938486
0.135548 0.671345 0.936489
0.290352 0.668601 0.934418
0.448508 0.665798 0.932303
0.608245 0.662967 0.930166
0.767908 0.660137 0.928030
0.925879 0.657338 0.925917
1.000000 0.655635 0.924632
0.000000 0.828729 0.931795
0.000000 0.828041 0.931283
0.123665 0.825395 0.929286
0.278469 0.822651 0.927215
0.436625 0.819848 0.925100
0.596362 0.817017 0.922963
0.756025 0.814187 0.920827
0.913996 0.811388 0.918714
1.000000 0.809685 0.917429
0.000000 0.979865 0.924705
0.000000 0.979199 0.924215
0.112005 0.976553 0.922218
0.266809 0.973810 0.920147
0.424965 0.971007 0.918032
0.584702 0.968176 0.915895
0.744365 0.965346 0.913759
0.902336 0.962546 0.911646
0.998401 0.960844 0.910361
0.000000 1.000000 0.922798
0.000000 1.000000 0.922321
0.108766 1.000000 0.920345
0.263592 1.000000 0.918296
0.421770 1.000000 0.916202
0.581530 1.000000 0.914088
0.741215 1.000000 0.911975
0.899208 1.000000 0.909884
0.995288 1.000000 0.908612
0.000000 0.000000 1.000000
0.026638 0.000000 1.000000
0.176756 0.000000 1.000000
0.332414 0.000000 1.000000
0.491441 0.000000 1.000000
0.652058 0.000000 1.000000
0.812601 0.000000 1.000000
0.971443 0.000000 1.000000
1.000000 0.000000 1.000000
0.000000 0.060693 1.000000
0.022680 0.060010 1.000000
0.172798 0.057052 1.000000
0.328455 0.053984 1.000000
0.487482 0.050850 1.000000
0.648100 0.047685 1.000000
0.808643 0.044521 1.000000
0.967484 0.041390 1.000000
1.000000 0.039486 1.000000
0.000000 0.211320 1.000000
0.013900 0.210604 1.000000
0.164018 0.207646 1.000000
0.319676 0.204578 1.000000
0.478703 0.201444 1.000000
0.639320 0.198278 1.000000
0.799863 0.195114 1.000000
0.958705 0.191984 1.000000
1.000000 0.190080 1.000000
0.000000 0.364601 1.000000
0.004966 0.363852 1.000000
0.155084 0.360893 1.000000
0.310741 0.357825 1.000000
0.469768 0.354691 1.000000
0.630386 0.351526 1.000000
0.790929 0.348362 1.000000
0.949095 0.345495 1.000000
1.000000 0.343797 1.000000
0.000000 0.519156 1.000000
0.000000 0.518372 1.000000
0.146075 0.515413 1.000000
0.301558 0.512414 1.000000
0.459720 0.509618 1.000000
0.619464 0.506794 1.000000
0.779134 0.503971 1.000000
0.937111 0.501178 1.000000
1.000000 0.499479 1.000000
0.000000 0.674072 1.000000
0.000000 0.673364 1.000000
0.134771 0.670725 1.000000
0.289582 0.667988 1.000000
0.447744 0.665191 1.000000
0.607489 0.662367 1.000000
0.767158 0.659544 1.000000
0.925136 0.656751 1.000000
1.000000 0.655053 1.000000
0.000000 0.828122 1.000000
0.000000 0.827437 1.000000
0.122911 0.824798 1.000000
0.277722 0.822061 1.000000
0.435884 0.819264 1.000000
0.595629 0.816440 1.000000
0.755298 0.813617 1.000000
0.913276 0.810824 1.000000
1.000000 0.809126 1.000000
0.000000 0.979281 1.000000
0.000000 0.978618 1.000000
0.111274 0.975979 1.000000
0.266085 0.973242 1.000000
0.424247 0.970446 1.000000
0.583991 0.967621 1.000000
0.743661 0.964799 1.000000
0.901638 0.962006 1.000000
0.997708 0.960307 1.000000
0.000000 1.000000 1.000000
0.000000 1.000000 1.000000
0.108047 1.000000 1.000000
0.262880 1.000000 1.000000
0.421064 1.000000 1.000000
0.580831 1.000000 1.000000
0.740523 1.000000 1.000000
0.898523 1.000000 1.000000
0.994606 1.000000 1.000000
0.000000 0.000000 1.000000
0.026638 0.000000 1.000000
0.176756 0.000000 1.000000
0.332414 0.000000 1.000000
0.491441 0.000000 1.000000
0.652058 0.000000 1.000000
0.812601 0.000000 1.000000
0.971443 0.000000 1.000000
1.000000 0.000000 1.000000
0.000000 0.060693 1.000000
0.022680 0.060010 1.000000
0.172798 0.057052 1.000000
0.328455 0.053984 1.000000
0.487482 0.050850 1.000000
0.648100 0.047685 1.000000
0.808643 0.044521 1.000000
0.967484 0.041390 1.000000
1.000000 0.039486 1.000000
0.000000 0.211320 1.000000
0.013900 0.210604 1.000000
0.164018 0.207646 1.000000
0.319676 0.204578 1.000000
0.478703 0.201444 1.000000
0.639320 0.198278 1.000000
0.799863 0.195114 1.000000
0.958705 0.191984 1.000000
1.000000 0.190080 1.000000
0.000000 0.364601 1.000000
0.004966 0.363852 1.000000
0.155084 0.360893 1.000000
0.310741 0.357825 1.000000
0.469768 0.354691 1.000000
0.630386 0.351526 1.000000
0.790929 0.348362 1.000000
0.949095 0.345495 1.000000
1.000000 0.343797 1.000000
0.000000 0.519156 1.000000
0.000000 0.518372 1.000000
0.146075 0.515413 1.000000
0.301558 0.512414 1.000000
0.459720 0.509618 1.000000
0.619464 0.506794 1.000000
0.779134 0.503971 1.000000
0.937111 0.501178 1.000000
1.000000 0.499479 1.000000
0.000000 0.674072 1.000000
0.000000 0.673364 1.000000
0.134771 0.670725 1.000000
0.289582 0.667988 1.000000
0.447744 0.665191 1.000000
0.607489 0.662367 1.000000
0.767158 0.659544 1.000000
0.925136 0.656751 1.000000
1.000000 0.655053 1.000000
0.000000 0.828122 1.000000
0.000000 0.827437 1.000000
0.122911 0.824798 1.000000
0.277722 0.822061 1.000000
0.435884 0.819264 1.000000
0.595629 0.816440 1.000000
0.755298 0.813617 1.000000
0.913276 0.810824 1.000000
1.000000 0.809126 1.000000
0.000000 0.979281 1.000000
0.000000 0.978618 1.000000
0.111274 0.975979 1.000000
0.266085 0.973242 1.000000
0.424247 0.970446 1.000000
0.583991 0.967621 1.000000
0.743661 0.964799 1.000000
0.901638 0.962006 1.000000
0.997708 0.960307 1.000000
0.000000 1.000000 1.000000
0.000000 1.000000 1.000000
0.108047 1.000000 1.000000
0.262880 1.000000 1.000000
0.421064 1.000000 1.000000
0.580831 1.000000 1.000000
0.740523 1.000000 1.000000
0.898523 1.000000 1.000000
0.994606 1.000000 1.000000
