assets/preview/luts/cinema_blue_hour.cube
TITLE "Cinema Blue Hour"
LUT_3D_SIZE 33
DOMAIN_MIN 0.0 0.0 0.0
DOMAIN_MAX 1.0 1.0 1.0
0.000000 0.000000 0.019124
0.000000 0.000000 0.019124
0.000000 0.000000 0.019124
0.000000 0.000000 0.019090
0.032566 0.000000 0.018173
0.069420 0.000000 0.017170
0.106764 0.000000 0.016153
0.144537 0.000000 0.015125
0.182691 0.000000 0.014086
0.221185 0.000000 0.013039
0.259982 0.000000 0.011983
0.299050 0.000000 0.010919
0.338356 0.000000 0.009849
0.377872 0.000000 0.008773
0.417568 0.000000 0.007693
0.457417 0.000000 0.006608
0.497391 0.000000 0.005520
0.537465 0.000000 0.004429
0.577611 0.000000 0.003336
0.617804 0.000000 0.002242
0.658017 0.000000 0.001148
0.698226 0.000000 0.000053
0.738404 0.000000 0.000000
0.778526 0.000000 0.000000
0.818568 0.000000 0.000000
0.858503 0.000000 0.000000
0.898306 0.000000 0.000000
0.937952 0.000000 0.000000
0.977417 0.000000 0.000000
1.000000 0.000000 0.000000
1.000000 0.000000 0.000000
1.000000 0.000000 0.000000
1.000000 0.000000 0.000000
0.000000 0.000000 0.019124
0.000000 0.000000 0.019124
0.000000 0.000000 0.019124
0.000000 0.000000 0.019090
0.032566 0.000000 0.018173
0.069420 0.000000 0.017170
0.106764 0.000000 0.016153
0.144537 0.000000 0.015125
0.182691 0.000000 0.014086
0.221185 0.000000 0.013039
0.259982 0.000000 0.011983
0.299050 0.000000 0.010919
0.338356 0.000000 0.009849
0.377872 0.000000 0.008773
0.417568 0.000000 0.007693
0.457417 0.000000 0.006608
0.497391 0.000000 0.005520
0.537465 0.000000 0.004429
0.577611 0.000000 0.003336
0.617804 0.000000 0.002242
0.658017 0.000000 0.001148
0.698226 0.000000 0.000053
0.738404 0.000000 0.000000
0.778526 0.000000 0.000000
0.818568 0.000000 0.000000
0.858503 0.000000 0.000000
0.898306 0.000000 0.000000
0.937952 0.000000 0.000000
0.977417 0.000000 0.000000
1.000000 0.000000 0.000000
1.000000 0.000000 0.000000
1.000000 0.000000 0.000000
1.000000 0.000000 0.000000
0.000000 0.000000 0.019124
0.000000 0.000000 0.019124
0.000000 0.000000 0.019124
0.000000 0.000000 0.019090
0.032566 0.000000 0.018173
0.069420 0.000000 0.017170
0.106764 0.000000 0.016153
0.144537 0.000000 0.015125
0.182691 0.000000 0.014086
0.221185 0.000000 0.013039
0.259982 0.000000 0.011983
0.299050 0.000000 0.010919
0.338356 0.000000 0.009849
0.377872 0.000000 0.008773
0.417568 0.000000 0.007693
0.457417 0.000000 0.006608
0.497391 0.000000 0.005520
0.537465 0.000000 0.004429
0.577611 0.000000 0.003336
0.617804 0.000000 0.002242
0.658017 0.000000 0.001148
0.698226 0.000000 0.000053
0.738404 0.000000 0.000000
0.778526 0.000000 0.000000
0.818568 0.000000 0.000000
0.858503 0.000000 0.000000
0.898306 0.000000 0.000000
0.937952 0.000000 0.000000
0.977417 0.000000 0.000000
1.000000 0.000000 0.000000
1.000000 0.000000 0.000000
1.000000 0.000000 0.000000
1.000000 0.000000 0.000000
0.000000 0.030712 0.016160
0.000000 0.030712 0.016160
0.000000 0.030712 0.016160
0.000000 0.030712 0.016126
0.030774 0.030063 0.015202
0.067628 0.029338 0.014199
0.104972 0.028604 0.013182
0.142745 0.027862 0.012154
0.180899 0.027111 0.011115
0.219393 0.026355 0.010068
0.258191 0.025592 0.009012
0.297258 0.024824 0.007948
0.336565 0.024051 0.006878
0.376080 0.023275 0.005803
0.415776 0.022494 0.004722
0.455625 0.021711 0.003637
0.495600 0.020925 0.002549
0.535673 0.020137 0.001458
0.575819 0.019348 0.000365
0.616012 0.018558 0.000000
0.656225 0.017768 0.000000
0.696434 0.016977 0.000000
0.736612 0.016188 0.000000
0.776734 0.015399 0.000000
0.816776 0.014612 0.000000
0.856711 0.013827 0.000000
0.896514 0.013044 0.000000
0.936161 0.012265 0.000000
0.975625 0.011489 0.000000
1.000000 0.010717 0.000000
1.000000 0.009950 0.000000
1.000000 0.009590 0.000000
1.000000 0.009590 0.000000
0.000000 0.067798 0.012595
0.000000 0.067798 0.012595
0.000000 0.067798 0.012595
0.000000 0.067799 0.012561
0.028619 0.067141 0.011629
0.065473 0.066417 0.010626
0.102817 0.065682 0.009609
0.140590 0.064940 0.008581
0.178744 0.064190 0.007542
0.217238 0.063433 0.006495
0.256036 0.062671 0.005439
0.295103 0.061903 0.004375
0.334410 0.061130 0.003305
0.373925 0.060353 0.002230
0.413621 0.059573 0.001149
0.453470 0.058790 0.000064
0.493445 0.058004 0.000000
0.533518 0.057216 0.000000
0.573664 0.056427 0.000000
0.613857 0.055637 0.000000
0.654070 0.054846 0.000000
0.694279 0.054056 0.000000
0.734457 0.053266 0.000000
0.774580 0.052477 0.000000
0.814621 0.051690 0.000000
0.854556 0.050905 0.000000
0.894359 0.050123 0.000000
0.934006 0.049343 0.000000
0.973471 0.048568 0.000000
1.000000 0.047796 0.000000
1.000000 0.047029 0.000000
1.000000 0.046669 0.000000
1.000000 0.046669 0.000000
0.000000 0.105137 0.009006
0.000000 0.105137 0.009006
0.000000 0.105137 0.009006
0.000000 0.105138 0.008972
0.026450 0.104472 0.008032
0.063304 0.103747 0.007029
0.100648 0.103013 0.006012
0.138421 0.102271 0.004984
0.176575 0.101521 0.003945
0.215069 0.100764 0.002897
0.253866 0.100001 0.001841
0.292934 0.099233 0.000778
0.332240 0.098461 0.000000
0.371756 0.097684 0.000000
0.411452 0.096904 0.000000
0.451301 0.096120 0.000000
0.491275 0.095334 0.000000
0.531349 0.094547 0.000000
0.571495 0.093757 0.000000
0.611688 0.092967 0.000000
0.651901 0.092177 0.000000
0.692110 0.091386 0.000000
0.732288 0.090597 0.000000
0.772410 0.089808 0.000000
0.812452 0.089021 0.000000
0.852387 0.088236 0.000000
0.892190 0.087453 0.000000
0.931837 0.086674 0.000000
0.971301 0.085898 0.000000
1.000000 0.085127 0.000000
1.000000 0.084359 0.000000
1.000000 0.083999 0.000000
1.000000 0.083999 0.000000
0.000000 0.142707 0.005395
0.000000 0.142707 0.005395
0.000000 0.142707 0.005395
0.000000 0.142707 0.005361
0.024267 0.142033 0.004412
0.061121 0.141309 0.003409
0.098465 0.140575 0.002392
0.136238 0.139832 0.001364
0.174392 0.139082 0.000326
0.212886 0.138325 0.000000
0.251683 0.137563 0.000000
0.290751 0.136795 0.000000
0.330057 0.136022 0.000000
0.369573 0.135245 0.000000
0.409269 0.134465 0.000000
0.449118 0.133682 0.000000
0.489093 0.132896 0.000000
0.529166 0.132108 0.000000
0.569312 0.131319 0.000000
0.609505 0.130529 0.000000
0.649718 0.129738 0.000000
0.689927 0.128948 0.000000
0.730105 0.128158 0.000000
0.770227 0.127369 0.000000
0.810269 0.126582 0.000000
0.850204 0.125797 0.000000
0.890007 0.125015 0.000000
0.929654 0.124235 0.000000
0.969118 0.123460 0.000000
1.000000 0.122688 0.000000
1.000000 0.121921 0.000000
1.000000 0.121561 0.000000
1.000000 0.121561 0.000000
0.000000 0.180486 0.001763
0.000000 0.180486 0.001763
0.000000 0.180486 0.001763
0.000000 0.180486 0.001729
0.022072 0.179803 0.000773
0.058926 0.179079 0.000000
0.096270 0.178345 0.000000
0.134043 0.177602 0.000000
0.172197 0.176852 0.000000
0.210691 0.176096 0.000000
0.249488 0.175333 0.000000
0.288556 0.174565 0.000000
0.327862 0.173792 0.000000
0.367378 0.173016 0.000000
0.407074 0.172235 0.000000
0.446923 0.171452 0.000000
0.486898 0.170666 0.000000
0.526971 0.169878 0.000000
0.567117 0.169089 0.000000
0.607310 0.168299 0.000000
0.647523 0.167509 0.000000
0.687732 0.166718 0.000000
0.727910 0.165928 0.000000
0.768032 0.165140 0.000000
0.808074 0.164353 0.000000
0.848009 0.163568 0.000000
0.887812 0.162785 0.000000
0.927459 0.162006 0.000000
0.966923 0.161230 0.000000
1.000000 0.160458 0.000000
1.000000 0.159691 0.000000
1.000000 0.159331 0.000000
1.000000 0.159331 0.000000
0.000000 0.218452 0.000000
0.000000 0.218452 0.000000
0.000000 0.218452 0.000000
0.000000 0.218452 0.000000
0.019866 0.217761 0.000000
0.056720 0.217037 0.000000
0.094064 0.216303 0.000000
0.131837 0.215560 0.000000
0.169991 0.214810 0.000000
0.208485 0.214053 0.000000
0.247283 0.213291 0.000000
0.286350 0.212523 0.000000
0.325657 0.211750 0.000000
0.365172 0.210973 0.000000
0.404868 0.210193 0.000000
0.444717 0.209410 0.000000
0.484692 0.208624 0.000000
0.524765 0.207836 0.000000
0.564911 0.207047 0.000000
0.605104 0.206257 0.000000
0.645317 0.205466 0.000000
0.685526 0.204676 0.000000
0.725704 0.203886 0.000000
0.765826 0.203098 0.000000
0.805868 0.202310 0.000000
0.845803 0.201525 0.000000
0.885606 0.200743 0.000000
0.925253 0.199964 0.000000
0.964717 0.199188 0.000000
1.000000 0.198416 0.000000
1.000000 0.197649 0.000000
1.000000 0.197289 0.000000
1.000000 0.197289 0.000000
0.000000 0.256584 0.000000
0.000000 0.256584 0.000000
0.000000 0.256584 0.000000
0.000000 0.256584 0.000000
0.017651 0.255885 0.000000
0.054504 0.255161 0.000000
0.091848 0.254426 0.000000
0.129622 0.253684 0.000000
0.167776 0.252934 0.000000
0.206270 0.252177 0.000000
0.245067 0.251415 0.000000
0.284135 0.250647 0.000000
0.323441 0.249874 0.000000
0.362957 0.249097 0.000000
0.402653 0.248317 0.000000
0.442502 0.247533 0.000000
0.482476 0.246748 0.000000
0.522550 0.245960 0.000000
0.562696 0.245171 0.000000
0.602888 0.244381 0.000000
0.643102 0.243590 0.000000
0.683310 0.242800 0.000000
0.723489 0.242010 0.000000
0.763611 0.241221 0.000000
0.803652 0.240434 0.000000
0.843587 0.239649 0.000000
0.883391 0.238867 0.000000
0.923037 0.238087 0.000000
0.962502 0.237312 0.000000
1.000000 0.236540 0.000000
1.000000 0.235773 0.000000
1.000000 0.235413 0.000000
1.000000 0.235413 0.000000
0.000000 0.294861 0.000000
0.000000 0.294861 0.000000
0.000000 0.294861 0.000000
0.000000 0.294861 0.000000
0.015427 0.294153 0.000000
0.052281 0.293429 0.000000
0.089624 0.292695 0.000000
0.127398 0.291952 0.000000
0.165552 0.291202 0.000000
0.204046 0.290445 0.000000
0.242843 0.289683 0.000000
0.281911 0.288915 0.000000
0.321217 0.288142 0.000000
0.360733 0.287365 0.000000
0.400429 0.286585 0.000000
0.440278 0.285802 0.000000
0.480252 0.285016 0.000000
0.520326 0.284228 0.000000
0.560472 0.283439 0.000000
0.600664 0.282649 0.000000
0.640878 0.281858 0.000000
0.681086 0.281068 0.000000
0.721265 0.280278 0.000000
0.761387 0.279489 0.000000
0.801428 0.278702 0.000000
0.841363 0.277917 0.000000
0.881167 0.277135 0.000000
0.920813 0.276355 0.000000
0.960278 0.275580 0.000000
0.999535 0.274808 0.000000
1.000000 0.274041 0.000000
1.000000 0.273681 0.000000
1.000000 0.273681 0.000000
0.000000 0.333260 0.000000
0.000000 0.333260 0.000000
0.000000 0.333260 0.000000
0.000000 0.333257 0.000000
0.013196 0.332544 0.000000
0.050049 0.331819 0.000000
0.087393 0.331085 0.000000
0.125167 0.330343 0.000000
0.163321 0.329593 0.000000
0.201815 0.328836 0.000000
0.240612 0.328073 0.000000
0.279680 0.327305 0.000000
0.318986 0.326533 0.000000
0.358502 0.325756 0.000000
0.398198 0.324976 0.000000
0.438047 0.324192 0.000000
0.478021 0.323406 0.000000
0.518095 0.322619 0.000000
0.558241 0.321830 0.000000
0.598433 0.321039 0.000000
0.638647 0.320249 0.000000
0.678855 0.319459 0.000000
0.719034 0.318669 0.000000
0.759156 0.317880 0.000000
0.799197 0.317093 0.000000
0.839132 0.316308 0.000000
0.878936 0.315525 0.000000
0.918582 0.314746 0.000000
0.958047 0.313970 0.000000
0.997304 0.313199 0.000000
1.000000 0.312432 0.000000
1.000000 0.312071 0.000000
1.000000 0.312071 0.000000
0.000000 0.371760 0.000000
0.000000 0.371760 0.000000
0.000000 0.371760 0.000000
0.000000 0.371749 0.000000
0.010959 0.371036 0.000000
0.047813 0.370311 0.000000
0.085156 0.369577 0.000000
0.122930 0.368835 0.000000
0.161084 0.368085 0.000000
0.199578 0.367328 0.000000
0.238375 0.366565 0.000000
0.277443 0.365797 0.000000
0.316749 0.365025 0.000000
0.356265 0.364248 0.000000
0.395961 0.363468 0.000000
0.435810 0.362684 0.000000
0.475784 0.361898 0.000000
0.515858 0.361111 0.000000
0.556004 0.360321 0.000000
0.596196 0.359531 0.000000
0.636410 0.358741 0.000000
0.676618 0.357950 0.000000
0.716797 0.357161 0.000000
0.756919 0.356372 0.000000
0.796960 0.355585 0.000000
0.836895 0.354800 0.000000
0.876699 0.354017 0.000000
0.916345 0.353238 0.000000
0.955810 0.352462 0.000000
0.995067 0.351691 0.000000
1.000000 0.350923 0.000000
1.000000 0.350563 0.000000
1.000000 0.350563 0.000000
0.000000 0.410340 0.000000
0.000000 0.410340 0.000000
0.000000 0.410340 0.000000
0.000000 0.410320 0.000000
0.008717 0.409607 0.000000
0.045571 0.408883 0.000000
0.082915 0.408149 0.000000
0.120688 0.407406 0.000000
0.158842 0.406656 0.000000
0.197336 0.405899 0.000000
0.236134 0.405137 0.000000
0.275201 0.404369 0.000000
0.314508 0.403596 0.000000
0.354023 0.402819 0.000000
0.393719 0.402039 0.000000
0.433568 0.401256 0.000000
0.473543 0.400470 0.000000
0.513616 0.399682 0.000000
0.553762 0.398893 0.000000
0.593955 0.398103 0.000000
0.634168 0.397312 0.000000
0.674377 0.396522 0.000000
0.714555 0.395732 0.000000
0.754678 0.394943 0.000000
0.794719 0.394156 0.000000
0.834654 0.393371 0.000000
0.874457 0.392589 0.000000
0.914104 0.391810 0.000000
0.953568 0.391034 0.000000
0.992826 0.390262 0.000000
1.000000 0.389495 0.000000
1.000000 0.389135 0.000000
1.000000 0.389135 0.000000
0.000000 0.448978 0.000000
0.000000 0.448978 0.000000
0.000000 0.448978 0.000000
0.000000 0.448950 0.000000
0.006472 0.448237 0.000000
0.043326 0.447512 0.000000
0.080670 0.446778 0.000000
0.118443 0.446036 0.000000
0.156597 0.445286 0.000000
0.195091 0.444529 0.000000
0.233889 0.443766 0.000000
0.272956 0.442998 0.000000
0.312263 0.442226 0.000000
0.351778 0.441449 0.000000
0.391474 0.440668 0.000000
0.431323 0.439885 0.000000
0.471298 0.439099 0.000000
0.511371 0.438312 0.000000
0.551517 0.437522 0.000000
0.591710 0.436732 0.000000
0.631923 0.435942 0.000000
0.672132 0.435151 0.000000
0.712310 0.434362 0.000000
0.752433 0.433573 0.000000
0.792474 0.432786 0.000000
0.832409 0.432001 0.000000
0.872212 0.431218 0.000000
0.911859 0.430439 0.000000
0.951158 0.429724 0.000000
0.990198 0.429032 0.000000
1.000000 0.428344 0.000000
1.000000 0.428021 0.000000
1.000000 0.428021 0.000000
0.000000 0.487653 0.000000
0.000000 0.487653 0.000000
0.000000 0.487653 0.000000
0.000000 0.487616 0.000000
0.004225 0.486902 0.000000
0.041079 0.486178 0.000000
0.078423 0.485444 0.000000
0.116196 0.484701 0.000000
0.154350 0.483951 0.000000
0.192844 0.483195 0.000000
0.231642 0.482432 0.000000
0.270709 0.481664 0.000000
0.310016 0.480891 0.000000
0.349531 0.480115 0.000000
0.389227 0.479334 0.000000
0.429076 0.478551 0.000000
0.469051 0.477765 0.000000
0.509124 0.476977 0.000000
0.549270 0.476188 0.000000
0.589463 0.475398 0.000000
0.629676 0.474608 0.000000
0.669885 0.473817 0.000000
0.710063 0.473027 0.000000
0.750186 0.472239 0.000000
0.790183 0.471468 0.000000
0.829897 0.470764 0.000000
0.869480 0.470062 0.000000
0.908908 0.469364 0.000000
0.948154 0.468668 0.000000
0.987194 0.467976 0.000000
1.000000 0.467288 0.000000
1.000000 0.466965 0.000000
1.000000 0.466965 0.000000
0.000000 0.526342 0.000000
0.000000 0.526342 0.000000
0.000000 0.526342 0.000000
0.000000 0.526296 0.000000
0.001977 0.525583 0.000000
0.038831 0.524859 0.000000
0.076175 0.524125 0.000000
0.113948 0.523382 0.000000
0.152102 0.522632 0.000000
0.190596 0.521875 0.000000
0.229394 0.521113 0.000000
0.268461 0.520345 0.000000
0.307768 0.519572 0.000000
0.347283 0.518795 0.000000
0.386979 0.518015 0.000000
0.426828 0.517232 0.000000
0.466803 0.516446 0.000000
0.506876 0.515658 0.000000
0.547022 0.514869 0.000000
0.587215 0.514079 0.000000
0.627428 0.513288 0.000000
0.667501 0.512548 0.000000
0.707457 0.511840 0.000000
0.747358 0.511132 0.000000
0.787178 0.510427 0.000000
0.826892 0.509723 0.000000
0.866475 0.509021 0.000000
0.905903 0.508323 0.000000
0.945149 0.507627 0.000000
0.984189 0.506935 0.000000
1.000000 0.506247 0.000000
1.000000 0.505924 0.000000
1.000000 0.505924 0.000000
0.000000 0.565025 0.000000
0.000000 0.565025 0.000000
0.000000 0.565025 0.000000
0.000000 0.564970 0.000000
0.000000 0.564257 0.000000
0.036584 0.563533 0.000000
0.073928 0.562798 0.000000
0.111701 0.562056 0.000000
0.149855 0.561306 0.000000
0.188349 0.560549 0.000000
0.227146 0.559787 0.000000
0.266214 0.559019 0.000000
0.305520 0.558246 0.000000
0.345036 0.557469 0.000000
0.384732 0.556689 0.000000
0.424581 0.555905 0.000000
0.464555 0.555120 0.000000
0.504625 0.554333 0.000000
0.544549 0.553626 0.000000
0.584519 0.552917 0.000000
0.624511 0.552209 0.000000
0.664497 0.551500 0.000000
0.704453 0.550792 0.000000
0.744353 0.550085 0.000000
0.784173 0.549379 0.000000
0.823887 0.548675 0.000000
0.863471 0.547973 0.000000
0.902898 0.547275 0.000000
0.942144 0.546579 0.000000
0.981184 0.545887 0.000000
1.000000 0.545199 0.000000
1.000000 0.544877 0.000000
1.000000 0.544877 0.000000
0.000000 0.603679 0.000000
0.000000 0.603679 0.000000
0.000000 0.603679 0.000000
0.000000 0.603616 0.000000
0.000000 0.602903 0.000000
0.034338 0.602178 0.000000
0.071682 0.601444 0.000000
0.109455 0.600701 0.000000
0.147609 0.599951 0.000000
0.186103 0.599195 0.000000
0.224900 0.598432 0.000000
0.263968 0.597664 0.000000
0.303274 0.596891 0.000000
0.342790 0.596115 0.000000
0.382389 0.595370 0.000000
0.422017 0.594668 0.000000
0.461771 0.593963 0.000000
0.501623 0.593257 0.000000
0.541547 0.592549 0.000000
0.581517 0.591841 0.000000
0.621508 0.591132 0.000000
0.661494 0.590423 0.000000
0.701450 0.589715 0.000000
0.741351 0.589008 0.000000
0.781171 0.588302 0.000000
0.820885 0.587599 0.000000
0.860468 0.586897 0.000000
0.899895 0.586198 0.000000
0.939142 0.585503 0.000000
0.978182 0.584811 0.000000
1.000000 0.584123 0.000000
1.000000 0.583800 0.000000
1.000000 0.583800 0.000000
0.000000 0.642283 0.000000
0.000000 0.642283 0.000000
0.000000 0.642283 0.000000
0.000000 0.642211 0.000000
0.000000 0.641498 0.000000
0.032095 0.640774 0.000000
0.069439 0.640040 0.000000
0.107212 0.639297 0.000000
0.145366 0.638547 0.000000
0.183860 0.637790 0.000000
0.222657 0.637028 0.000000
0.261528 0.636332 0.000000
0.300617 0.635639 0.000000
0.339914 0.634943 0.000000
0.379390 0.634243 0.000000
0.419019 0.633541 0.000000
0.458772 0.632836 0.000000
0.498624 0.632130 0.000000
0.538548 0.631423 0.000000
0.578518 0.630714 0.000000
0.618509 0.630005 0.000000
0.658496 0.629297 0.000000
0.698452 0.628589 0.000000
0.738352 0.627882 0.000000
0.778172 0.627176 0.000000
0.817886 0.626472 0.000000
0.857470 0.625770 0.000000
0.896897 0.625072 0.000000
0.936143 0.624376 0.000000
0.975183 0.623684 0.000000
1.000000 0.622996 0.000000
1.000000 0.622673 0.000000
1.000000 0.622673 0.000000
0.000000 0.680815 0.000000
0.000000 0.680815 0.000000
0.000000 0.680815 0.000000
0.000000 0.680735 0.000000
0.000000 0.680022 0.000000
0.029856 0.679298 0.000000
0.067200 0.678564 0.000000
0.104876 0.677857 0.000000
0.142819 0.677184 0.000000
0.181100 0.676506 0.000000
0.219683 0.675822 0.000000
0.258535 0.675134 0.000000
0.297624 0.674441 0.000000
0.336921 0.673744 0.000000
0.376397 0.673045 0.000000
0.416026 0.672342 0.000000
0.455779 0.671638 0.000000
0.495631 0.670931 0.000000
0.535555 0.670224 0.000000
0.575525 0.669516 0.000000
0.615516 0.668807 0.000000
0.655503 0.668098 0.000000
0.695459 0.667390 0.000000
0.735359 0.666683 0.000000
0.775179 0.665977 0.000000
0.814893 0.665273 0.000000
0.854476 0.664572 0.000000
0.893904 0.663873 0.000000
0.933150 0.663177 0.000000
0.972190 0.662485 0.000000
1.000000 0.661798 0.000000
1.000000 0.661475 0.000000
1.000000 0.661475 0.000000
0.000000 0.719257 0.000000
0.000000 0.719257 0.000000
0.000000 0.719257 0.000000
0.000000 0.719177 0.000000
0.000000 0.718538 0.000000
0.027189 0.717888 0.000000
0.064326 0.717230 0.000000
0.101890 0.716564 0.000000
0.139833 0.715892 0.000000
0.178114 0.715213 0.000000
0.216697 0.714530 0.000000
0.255549 0.713841 0.000000
0.294638 0.713148 0.000000
0.333935 0.712452 0.000000
0.373411 0.711752 0.000000
0.413040 0.711050 0.000000
0.452793 0.710345 0.000000
0.492645 0.709639 0.000000
0.532569 0.708931 0.000000
0.572540 0.708223 0.000000
0.612531 0.707514 0.000000
0.652517 0.706806 0.000000
0.692473 0.706097 0.000000
0.732373 0.705390 0.000000
0.772193 0.704685 0.000000
0.811907 0.703981 0.000000
0.851491 0.703279 0.000000
0.890918 0.702580 0.000000
0.930164 0.701885 0.000000
0.969205 0.701193 0.000000
1.000000 0.700505 0.000000
1.000000 0.700182 0.000000
1.000000 0.700182 0.000000
0.000000 0.757843 0.000000
0.000000 0.757843 0.000000
0.000000 0.757843 0.000000
0.000000 0.757769 0.000000
0.000000 0.757130 0.000000
0.024212 0.756480 0.000000
0.061349 0.755822 0.000000
0.098913 0.755156 0.000000
0.136856 0.754484 0.000000
0.175138 0.753805 0.000000
0.213720 0.753122 0.000000
0.252572 0.752433 0.000000
0.291661 0.751740 0.000000
0.330958 0.751044 0.000000
0.370435 0.750344 0.000000
0.410063 0.749642 0.000000
0.449817 0.748937 0.000000
0.489668 0.748231 0.000000
0.529592 0.747523 0.000000
0.569563 0.746815 0.000000
0.609554 0.746106 0.000000
0.649540 0.745398 0.000000
0.689496 0.744689 0.000000
0.729397 0.743982 0.000000
0.769216 0.743277 0.000000
0.808931 0.742573 0.000000
0.848514 0.741871 0.000000
0.887941 0.741172 0.000000
0.927187 0.740477 0.000000
0.966228 0.739785 0.000000
1.000000 0.739097 0.000000
1.000000 0.738774 0.000000
1.000000 0.738774 0.000000
0.000000 0.796292 0.000000
0.000000 0.796292 0.000000
0.000000 0.796292 0.000000
0.000000 0.796224 0.000000
0.000000 0.795585 0.000000
0.021245 0.794935 0.000000
0.058383 0.794277 0.000000
0.095947 0.793611 0.000000
0.133890 0.792939 0.000000
0.172171 0.792260 0.000000
0.210754 0.791576 0.000000
0.249606 0.790888 0.000000
0.288695 0.790195 0.000000
0.327992 0.789499 0.000000
0.367468 0.788799 0.000000
0.407097 0.788097 0.000000
0.446850 0.787392 0.000000
0.486702 0.786686 0.000000
0.526626 0.785978 0.000000
0.566596 0.785270 0.000000
0.606587 0.784561 0.000000
0.646574 0.783852 0.000000
0.686530 0.783144 0.000000
0.726430 0.782437 0.000000
0.766250 0.781731 0.000000
0.805964 0.781027 0.000000
0.845547 0.780326 0.000000
0.884975 0.779627 0.000000
0.924221 0.778932 0.000000
0.963261 0.778240 0.000000
1.000000 0.777552 0.000000
1.000000 0.777229 0.000000
1.000000 0.777229 0.000000
0.000000 0.834582 0.000000
0.000000 0.834582 0.000000
0.000000 0.834582 0.000000
0.000000 0.834520 0.000000
0.000000 0.833880 0.000000
0.018291 0.833231 0.000000
0.055429 0.832573 0.000000
0.092993 0.831907 0.000000
0.130936 0.831234 0.000000
0.169217 0.830556 0.000000
0.207800 0.829872 0.000000
0.246652 0.829184 0.000000
0.285741 0.828491 0.000000
0.325038 0.827794 0.000000
0.364514 0.827095 0.000000
0.404143 0.826392 0.000000
0.443896 0.825688 0.000000
0.483748 0.824981 0.000000
0.523672 0.824274 0.000000
0.563642 0.823566 0.000000
0.603633 0.822857 0.000000
0.643620 0.822148 0.000000
0.683576 0.821440 0.000000
0.723476 0.820733 0.000000
0.763296 0.820027 0.000000
0.803010 0.819323 0.000000
0.842593 0.818622 0.000000
0.882021 0.817923 0.000000
0.921267 0.817227 0.000000
0.960307 0.816535 0.000000
0.999116 0.815848 0.000000
1.000000 0.815525 0.000000
1.000000 0.815525 0.000000
0.000000 0.872692 0.000000
0.000000 0.872692 0.000000
0.000000 0.872692 0.000000
0.000000 0.872635 0.000000
0.000000 0.871995 0.000000
0.015351 0.871346 0.000000
0.052489 0.870688 0.000000
0.090053 0.870022 0.000000
0.127996 0.869349 0.000000
0.166277 0.868671 0.000000
0.204860 0.867987 0.000000
0.243711 0.867299 0.000000
0.282800 0.866606 0.000000
0.322098 0.865909 0.000000
0.361574 0.865210 0.000000
0.401203 0.864507 0.000000
0.440956 0.863803 0.000000
0.480808 0.863097 0.000000
0.520732 0.862389 0.000000
0.560702 0.861681 0.000000
0.600693 0.860972 0.000000
0.640679 0.860263 0.000000
0.680636 0.859555 0.000000
0.720536 0.858848 0.000000
0.760356 0.858142 0.000000
0.800070 0.857438 0.000000
0.839653 0.856737 0.000000
0.879081 0.856038 0.000000
0.918327 0.855342 0.000000
0.957367 0.854650 0.000000
0.996176 0.853963 0.000000
1.000000 0.853640 0.000000
1.000000 0.853640 0.000000
0.000000 0.910599 0.000000
0.000000 0.910599 0.000000
0.000000 0.910599 0.000000
0.000000 0.910547 0.000000
0.000000 0.909908 0.000000
0.012427 0.909258 0.000000
0.049564 0.908600 0.000000
0.087128 0.907934 0.000000
0.125072 0.907262 0.000000
0.163353 0.906584 0.000000
0.201935 0.905900 0.000000
0.240787 0.905211 0.000000
0.279876 0.904518 0.000000
0.319173 0.903822 0.000000
0.358650 0.903122 0.000000
0.398278 0.902420 0.000000
0.438032 0.901715 0.000000
0.477883 0.901009 0.000000
0.517807 0.900302 0.000000
0.557778 0.899593 0.000000
0.597769 0.898884 0.000000
0.637755 0.898176 0.000000
0.677711 0.897468 0.000000
0.717612 0.896760 0.000000
0.757431 0.896055 0.000000
0.797146 0.895351 0.000000
0.836729 0.894649 0.000000
