assets/preview/luts/classic_bw.cube
TITLE "Classic B&W"
LUT_3D_SIZE 5
DOMAIN_MIN 0.0 0.0 0.0
DOMAIN_MAX 1.0 1.0 1.0
0.000000 0.000000 0.000000
0.000000 0.000000 0.000000
0.034883 0.034883 0.034883
0.096079 0.096079 0.096079
0.157969 0.157969 0.157969
0.118537 0.118537 0.118537
0.180651 0.180651 0.180651
0.243311 0.243311 0.243311
0.306408 0.306408 0.306408
0.369834 0.369834 0.369834
0.329467 0.329467 0.329467
0.392985 0.392985 0.392985
0.456686 0.456686 0.456686
0.520459 0.520459 0.520459
0.584198 0.584198 0.584198
0.543674 0.543674 0.543674
0.607374 0.607374 0.607374
0.670891 0.670891 0.670891
0.734119 0.734119 0.734119
0.796947 0.796947 0.796947
0.757044 0.757044 0.757044
0.819701 0.819701 0.819701
0.881812 0.881812 0.881812
0.943270 0.943270 0.943270
1.000000 1.000000 1.000000
0.000000 0.000000 0.000000
0.000000 0.000000 0.000000
0.055581 0.055581 0.055581
0.117025 0.117025 0.117025
0.179125 0.179125 0.179125
0.139563 0.139563 0.139563
0.201875 0.201875 0.201875
0.264695 0.264695 0.264695
0.327916 0.327916 0.327916
0.391429 0.391429 0.391429
0.351011 0.351011 0.351011
0.414603 0.414603 0.414603
0.478341 0.478341 0.478341
0.542115 0.542115 0.542115
0.605818 0.605818 0.605818
0.565321 0.565321 0.565321
0.628971 0.628971 0.628971
0.692402 0.692402 0.692402
0.755506 0.755506 0.755506
0.818175 0.818175 0.818175
0.778377 0.778377 0.778377
0.840861 0.840861 0.840861
0.902762 0.902762 0.902762
0.963973 0.963973 0.963973
1.000000 1.000000 1.000000
0.000000 0.000000 0.000000
0.015416 0.015416 0.015416
0.076367 0.076367 0.076367
0.138046 0.138046 0.138046
0.200344 0.200344 0.200344
0.160661 0.160661 0.160661
0.223157 0.223157 0.223157
0.286126 0.286126 0.286126
0.349458 0.349458 0.349458
0.413046 0.413046 0.413046
0.372584 0.372584 0.372584
0.436238 0.436238 0.436238
0.500000 0.500000 0.500000
0.563762 0.563762 0.563762
0.627416 0.627416 0.627416
0.586954 0.586954 0.586954
0.650542 0.650542 0.650542
0.713874 0.713874 0.713874
0.776843 0.776843 0.776843
0.839339 0.839339 0.839339
0.799656 0.799656 0.799656
0.861954 0.861954 0.861954
0.923633 0.923633 0.923633
0.984584 0.984584 0.984584
1.000000 1.000000 1.000000
0.000000 0.000000 0.000000
0.036027 0.036027 0.036027
0.097238 0.097238 0.097238
0.159139 0.159139 0.159139
0.221623 0.221623 0.221623
0.181825 0.181825 0.181825
0.244494 0.244494 0.244494
0.307598 0.307598 0.307598
0.371029 0.371029 0.371029
0.434679 0.434679 0.434679
0.394182 0.394182 0.394182
0.457885 0.457885 0.457885
0.521659 0.521659 0.521659
0.585397 0.585397 0.585397
0.648989 0.648989 0.648989
0.608571 0.608571 0.608571
0.672084 0.672084 0.672084
0.735305 0.735305 0.735305
0.798125 0.798125 0.798125
0.860437 0.860437 0.860437
0.820875 0.820875 0.820875
0.882975 0.882975 0.882975
0.944419 0.944419 0.944419
1.000000 1.000000 1.000000
1.000000 1.000000 1.000000
0.000000 0.000000 0.000000
0.056730 0.056730 0.056730
0.118188 0.118188 0.118188
0.180299 0.180299 0.180299
0.242956 0.242956 0.242956
0.203053 0.203053 0.203053
0.265881 0.265881 0.265881
0.329109 0.329109 0.329109
0.392626 0.392626 0.392626
0.456326 0.456326 0.456326
0.415802 0.415802 0.415802
0.479541 0.479541 0.479541
0.543314 0.543314 0.543314
0.607015 0.607015 0.607015
0.670533 0.670533 0.670533
0.630166 0.630166 0.630166
0.693592 0.693592 0.693592
0.756689 0.756689 0.756689
0.819349 0.819349 0.819349
0.881463 0.881463 0.881463
0.842031 0.842031 0.842031
0.903921 0.903921 0.903921
0.965117 0.965117 0.965117
1.000000 1.000000 1.000000
1.000000 1.000000 1.000000
