assets/preview/luts/classic_bw.cube
TITLE "Classic B&W"
LUT_3D_SIZE 33
DOMAIN_MIN 0.0 0.0 0.0
DOMAIN_MAX 1.0 1.0 1.0
0.000000 0.000000 0.000000
0.000000 0.000000 0.000000
0.000000 0.000000 0.000000
0.000000 0.000000 0.000000
0.000000 0.000000 0.000000
0.000000 0.000000 0.000000
0.000000 0.000000 0.000000
0.000000 0.000000 0.000000
0.000000 0.000000 0.000000
0.000000 0.000000 0.000000
0.000000 0.000000 0.000000
0.000000 0.000000 0.000000
0.004578 0.004578 0.004578
0.012135 0.012135 0.012135
0.019705 0.019705 0.019705
0.027287 0.027287 0.027287
0.034883 0.034883 0.034883
0.042491 0.042491 0.042491
0.050111 0.050111 0.050111
0.057743 0.057743 0.057743
0.065388 0.065388 0.065388
0.073044 0.073044 0.073044
0.080711 0.080711 0.080711
0.088390 0.088390 0.088390
0.096079 0.096079 0.096079
0.103780 0.103780 0.103780
0.111491 0.111491 0.111491
0.119213 0.119213 0.119213
0.126944 0.126944 0.126944
0.134686 0.134686 0.134686
0.142437 0.142437 0.142437
0.150198 0.150198 0.150198
0.157969 0.157969 0.157969
0.000000 0.000000 0.000000
0.000000 0.000000 0.000000
0.000000 0.000000 0.000000
0.000000 0.000000 0.000000
0.000000 0.000000 0.000000
0.000000 0.000000 0.000000
0.000000 0.000000 0.000000
0.000000 0.000000 0.000000
0.000000 0.000000 0.000000
0.007328 0.007328 0.007328
0.014889 0.014889 0.014889
0.022464 0.022464 0.022464
0.030051 0.030051 0.030051
0.037651 0.037651 0.037651
0.045264 0.045264 0.045264
0.052888 0.052888 0.052888
0.060525 0.060525 0.060525
0.068174 0.068174 0.068174
0.075834 0.075834 0.075834
0.083505 0.083505 0.083505
0.091188 0.091188 0.091188
0.098882 0.098882 0.098882
0.106586 0.106586 0.106586
0.114301 0.114301 0.114301
0.122026 0.122026 0.122026
0.129762 0.129762 0.129762
0.137507 0.137507 0.137507
0.145262 0.145262 0.145262
0.153026 0.153026 0.153026
0.160800 0.160800 0.160800
0.168583 0.168583 0.168583
0.176374 0.176374 0.176374
0.184174 0.184174 0.184174
0.000000 0.000000 0.000000
0.000000 0.000000 0.000000
0.000000 0.000000 0.000000
0.000000 0.000000 0.000000
0.000000 0.000000 0.000000
0.002526 0.002526 0.002526
0.010079 0.010079 0.010079
0.017645 0.017645 0.017645
0.025225 0.025225 0.025225
0.032817 0.032817 0.032817
0.040421 0.040421 0.040421
0.048038 0.048038 0.048038
0.055667 0.055667 0.055667
0.063308 0.063308 0.063308
0.070961 0.070961 0.070961
0.078625 0.078625 0.078625
0.086301 0.086301 0.086301
0.093988 0.093988 0.093988
0.101685 0.101685 0.101685
0.109394 0.109394 0.109394
0.117112 0.117112 0.117112
0.124841 0.124841 0.124841
0.132580 0.132580 0.132580
0.140329 0.140329 0.140329
0.148087 0.148087 0.148087
0.155855 0.155855 0.155855
0.163632 0.163632 0.163632
0.171418 0.171418 0.171418
0.179213 0.179213 0.179213
0.187016 0.187016 0.187016
0.194828 0.194828 0.194828
0.202648 0.202648 0.202648
0.210475 0.210475 0.210475
0.000000 0.000000 0.000000
0.000000 0.000000 0.000000
0.005274 0.005274 0.005274
0.012832 0.012832 0.012832
0.020403 0.020403 0.020403
0.027987 0.027987 0.027987
0.035584 0.035584 0.035584
0.043193 0.043193 0.043193
0.050814 0.050814 0.050814
0.058448 0.058448 0.058448
0.066093 0.066093 0.066093
0.073750 0.073750 0.073750
0.081419 0.081419 0.081419
0.089098 0.089098 0.089098
0.096789 0.096789 0.096789
0.104490 0.104490 0.104490
0.112202 0.112202 0.112202
0.119925 0.119925 0.119925
0.127658 0.127658 0.127658
0.135400 0.135400 0.135400
0.143152 0.143152 0.143152
0.150914 0.150914 0.150914
0.158685 0.158685 0.158685
0.166466 0.166466 0.166466
0.174255 0.174255 0.174255
0.182053 0.182053 0.182053
0.189859 0.189859 0.189859
0.197674 0.197674 0.197674
0.205497 0.205497 0.205497
0.213327 0.213327 0.213327
0.221165 0.221165 0.221165
0.229011 0.229011 0.229011
0.236864 0.236864 0.236864
0.015587 0.015587 0.015587
0.023163 0.023163 0.023163
0.030751 0.030751 0.030751
0.038352 0.038352 0.038352
0.045966 0.045966 0.045966
0.053592 0.053592 0.053592
0.061230 0.061230 0.061230
0.068879 0.068879 0.068879
0.076541 0.076541 0.076541
0.084213 0.084213 0.084213
0.091897 0.091897 0.091897
0.099591 0.099591 0.099591
0.107297 0.107297 0.107297
0.115013 0.115013 0.115013
0.122739 0.122739 0.122739
0.130475 0.130475 0.130475
0.138221 0.138221 0.138221
0.145977 0.145977 0.145977
0.153742 0.153742 0.153742
0.161517 0.161517 0.161517
0.169301 0.169301 0.169301
0.177093 0.177093 0.177093
0.184894 0.184894 0.184894
0.192703 0.192703 0.192703
0.200521 0.200521 0.200521
0.208347 0.208347 0.208347
0.216180 0.216180 0.216180
0.224021 0.224021 0.224021
0.231869 0.231869 0.231869
0.239725 0.239725 0.239725
0.247587 0.247587 0.247587
0.255456 0.255456 0.255456
0.263331 0.263331 0.263331
0.041123 0.041123 0.041123
0.048741 0.048741 0.048741
0.056371 0.056371 0.056371
0.064013 0.064013 0.064013
0.071667 0.071667 0.071667
0.079333 0.079333 0.079333
0.087009 0.087009 0.087009
0.094697 0.094697 0.094697
0.102395 0.102395 0.102395
0.110105 0.110105 0.110105
0.117824 0.117824 0.117824
0.125554 0.125554 0.125554
0.133294 0.133294 0.133294
0.141044 0.141044 0.141044
0.148803 0.148803 0.148803
0.156572 0.156572 0.156572
0.164350 0.164350 0.164350
0.172136 0.172136 0.172136
0.179932 0.179932 0.179932
0.187736 0.187736 0.187736
0.195549 0.195549 0.195549
0.203369 0.203369 0.203369
0.211198 0.211198 0.211198
0.219034 0.219034 0.219034
0.226877 0.226877 0.226877
0.234728 0.234728 0.234728
0.242586 0.242586 0.242586
0.250451 0.250451 0.250451
0.258322 0.258322 0.258322
0.266200 0.266200 0.266200
0.274084 0.274084 0.274084
0.281974 0.281974 0.281974
0.289870 0.289870 0.289870
0.066799 0.066799 0.066799
0.074457 0.074457 0.074457
0.082126 0.082126 0.082126
0.089807 0.089807 0.089807
0.097498 0.097498 0.097498
0.105201 0.105201 0.105201
0.112914 0.112914 0.112914
0.120637 0.120637 0.120637
0.128371 0.128371 0.128371
0.136114 0.136114 0.136114
0.143868 0.143868 0.143868
0.151630 0.151630 0.151630
0.159402 0.159402 0.159402
0.167184 0.167184 0.167184
0.174974 0.174974 0.174974
0.182772 0.182772 0.182772
0.190579 0.190579 0.190579
0.198395 0.198395 0.198395
0.206218 0.206218 0.206218
0.214050 0.214050 0.214050
0.221888 0.221888 0.221888
0.229735 0.229735 0.229735
0.237588 0.237588 0.237588
0.245449 0.245449 0.245449
0.253316 0.253316 0.253316
0.261190 0.261190 0.261190
0.269070 0.269070 0.269070
0.276956 0.276956 0.276956
0.284848 0.284848 0.284848
0.292746 0.292746 0.292746
0.300650 0.300650 0.300650
0.308559 0.308559 0.308559
0.316472 0.316472 0.316472
0.092606 0.092606 0.092606
0.100301 0.100301 0.100301
0.108008 0.108008 0.108008
0.115725 0.115725 0.115725
0.123452 0.123452 0.123452
0.131189 0.131189 0.131189
0.138936 0.138936 0.138936
0.146693 0.146693 0.146693
0.154459 0.154459 0.154459
0.162234 0.162234 0.162234
0.170019 0.170019 0.170019
0.177812 0.177812 0.177812
0.185614 0.185614 0.185614
0.193424 0.193424 0.193424
0.201242 0.201242 0.201242
0.209068 0.209068 0.209068
0.216903 0.216903 0.216903
0.224744 0.224744 0.224744
0.232593 0.232593 0.232593
0.240449 0.240449 0.240449
0.248312 0.248312 0.248312
0.256182 0.256182 0.256182
0.264058 0.264058 0.264058
0.271940 0.271940 0.271940
0.279829 0.279829 0.279829
0.287723 0.287723 0.287723
0.295623 0.295623 0.295623
0.303528 0.303528 0.303528
0.311439 0.311439 0.311439
0.319355 0.319355 0.319355
0.327275 0.327275 0.327275
0.335200 0.335200 0.335200
0.343129 0.343129 0.343129
0.118537 0.118537 0.118537
0.126267 0.126267 0.126267
0.134008 0.134008 0.134008
0.141759 0.141759 0.141759
0.149519 0.149519 0.149519
0.157288 0.157288 0.157288
0.165067 0.165067 0.165067
0.172855 0.172855 0.172855
0.180651 0.180651 0.180651
0.188456 0.188456 0.188456
0.196269 0.196269 0.196269
0.204090 0.204090 0.204090
0.211920 0.211920 0.211920
0.219756 0.219756 0.219756
0.227601 0.227601 0.227601
0.235452 0.235452 0.235452
0.243311 0.243311 0.243311
0.251176 0.251176 0.251176
0.259048 0.259048 0.259048
0.266927 0.266927 0.266927
0.274812 0.274812 0.274812
0.282702 0.282702 0.282702
0.290599 0.290599 0.290599
0.298501 0.298501 0.298501
0.306408 0.306408 0.306408
0.314320 0.314320 0.314320
0.322238 0.322238 0.322238
0.330160 0.330160 0.330160
0.338086 0.338086 0.338086
0.346017 0.346017 0.346017
0.353952 0.353952 0.353952
0.361891 0.361891 0.361891
0.369834 0.369834 0.369834
0.144583 0.144583 0.144583
0.152346 0.152346 0.152346
0.160119 0.160119 0.160119
0.167901 0.167901 0.167901
0.175692 0.175692 0.175692
0.183492 0.183492 0.183492
0.191300 0.191300 0.191300
0.199116 0.199116 0.199116
0.206940 0.206940 0.206940
0.214772 0.214772 0.214772
0.222611 0.222611 0.222611
0.230458 0.230458 0.230458
0.238313 0.238313 0.238313
0.246174 0.246174 0.246174
0.254042 0.254042 0.254042
0.261916 0.261916 0.261916
0.269797 0.269797 0.269797
0.277684 0.277684 0.277684
0.285576 0.285576 0.285576
0.293475 0.293475 0.293475
0.301379 0.301379 0.301379
0.309288 0.309288 0.309288
0.317202 0.317202 0.317202
0.325121 0.325121 0.325121
0.333045 0.333045 0.333045
0.340973 0.340973 0.340973
0.348906 0.348906 0.348906
0.356842 0.356842 0.356842
0.364782 0.364782 0.364782
0.372726 0.372726 0.372726
0.380673 0.380673 0.380673
0.388624 0.388624 0.388624
0.396577 0.396577 0.396577
0.170737 0.170737 0.170737
0.178531 0.178531 0.178531
0.186333 0.186333 0.186333
0.194144 0.194144 0.194144
0.201963 0.201963 0.201963
0.209790 0.209790 0.209790
0.217625 0.217625 0.217625
0.225467 0.225467 0.225467
0.233317 0.233317 0.233317
0.241174 0.241174 0.241174
0.249037 0.249037 0.249037
0.256908 0.256908 0.256908
0.264784 0.264784 0.264784
0.272667 0.272667 0.272667
0.280556 0.280556 0.280556
0.288451 0.288451 0.288451
0.296352 0.296352 0.296352
0.304258 0.304258 0.304258
0.312169 0.312169 0.312169
0.320085 0.320085 0.320085
0.328006 0.328006 0.328006
0.335931 0.335931 0.335931
0.343861 0.343861 0.343861
0.351795 0.351795 0.351795
0.359732 0.359732 0.359732
0.367674 0.367674 0.367674
0.375619 0.375619 0.375619
0.383567 0.383567 0.383567
0.391519 0.391519 0.391519
0.399473 0.399473 0.399473
0.407430 0.407430 0.407430
0.415390 0.415390 0.415390
0.423351 0.423351 0.423351
0.196990 0.196990 0.196990
0.204812 0.204812 0.204812
0.212642 0.212642 0.212642
0.220479 0.220479 0.220479
0.228324 0.228324 0.228324
0.236177 0.236177 0.236177
0.244036 0.244036 0.244036
0.251902 0.251902 0.251902
0.259774 0.259774 0.259774
0.267654 0.267654 0.267654
0.275539 0.275539 0.275539
0.283430 0.283430 0.283430
0.291327 0.291327 0.291327
0.299229 0.299229 0.299229
0.307137 0.307137 0.307137
0.315050 0.315050 0.315050
0.322968 0.322968 0.322968
0.330890 0.330890 0.330890
0.338817 0.338817 0.338817
0.346749 0.346749 0.346749
0.354684 0.354684 0.354684
0.362623 0.362623 0.362623
0.370566 0.370566 0.370566
0.378512 0.378512 0.378512
0.386462 0.386462 0.386462
0.394414 0.394414 0.394414
0.402370 0.402370 0.402370
0.410328 0.410328 0.410328
0.418288 0.418288 0.418288
0.426250 0.426250 0.426250
0.434215 0.434215 0.434215
0.442181 0.442181 0.442181
0.450149 0.450149 0.450149
0.223335 0.223335 0.223335
0.231182 0.231182 0.231182
0.239037 0.239037 0.239037
0.246899 0.246899 0.246899
0.254767 0.254767 0.254767
0.262642 0.262642 0.262642
0.270524 0.270524 0.270524
0.278411 0.278411 0.278411
0.286304 0.286304 0.286304
0.294203 0.294203 0.294203
0.302108 0.302108 0.302108
0.310017 0.310017 0.310017
0.317932 0.317932 0.317932
0.325852 0.325852 0.325852
0.333776 0.333776 0.333776
0.341704 0.341704 0.341704
0.349637 0.349637 0.349637
0.357574 0.357574 0.357574
0.365515 0.365515 0.365515
0.373459 0.373459 0.373459
0.381406 0.381406 0.381406
0.389357 0.389357 0.389357
0.397310 0.397310 0.397310
0.405267 0.405267 0.405267
0.413225 0.413225 0.413225
0.421187 0.421187 0.421187
0.429150 0.429150 0.429150
0.437115 0.437115 0.437115
0.445082 0.445082 0.445082
0.453050 0.453050 0.453050
0.461019 0.461019 0.461019
0.468990 0.468990 0.468990
0.476961 0.476961 0.476961
0.249763 0.249763 0.249763
0.257633 0.257633 0.257633
0.265511 0.265511 0.265511
0.273394 0.273394 0.273394
0.281284 0.281284 0.281284
0.289179 0.289179 0.289179
0.297080 0.297080 0.297080
0.304987 0.304987 0.304987
0.312898 0.312898 0.312898
0.320815 0.320815 0.320815
0.328736 0.328736 0.328736
0.336662 0.336662 0.336662
0.344592 0.344592 0.344592
0.352526 0.352526 0.352526
0.360464 0.360464 0.360464
0.368406 0.368406 0.368406
0.376352 0.376352 0.376352
0.384300 0.384300 0.384300
0.392252 0.392252 0.392252
0.400207 0.400207 0.400207
0.408164 0.408164 0.408164
0.416124 0.416124 0.416124
0.424085 0.424085 0.424085
0.432049 0.432049 0.432049
0.440015 0.440015 0.440015
0.447982 0.447982 0.447982
0.455951 0.455951 0.455951
0.463921 0.463921 0.463921
0.471892 0.471892 0.471892
0.479863 0.479863 0.479863
0.487835 0.487835 0.487835
0.495808 0.495808 0.495808
0.503780 0.503780 0.503780
0.276266 0.276266 0.276266
0.284158 0.284158 0.284158
0.292055 0.292055 0.292055
0.299958 0.299958 0.299958
0.307866 0.307866 0.307866
0.315780 0.315780 0.315780
0.323698 0.323698 0.323698
0.331621 0.331621 0.331621
0.339548 0.339548 0.339548
0.347480 0.347480 0.347480
0.355416 0.355416 0.355416
0.363355 0.363355 0.363355
0.371299 0.371299 0.371299
0.379245 0.379245 0.379245
0.387195 0.387195 0.387195
0.395148 0.395148 0.395148
0.403103 0.403103 0.403103
0.411061 0.411061 0.411061
0.419022 0.419022 0.419022
0.426985 0.426985 0.426985
0.434949 0.434949 0.434949
0.442915 0.442915 0.442915
0.450883 0.450883 0.450883
0.458852 0.458852 0.458852
0.466823 0.466823 0.466823
0.474794 0.474794 0.474794
0.482765 0.482765 0.482765
0.490738 0.490738 0.490738
0.498710 0.498710 0.498710
0.506682 0.506682 0.506682
0.514655 0.514655 0.514655
0.522627 0.522627 0.522627
0.530598 0.530598 0.530598
0.302837 0.302837 0.302837
0.310747 0.310747 0.310747
0.318662 0.318662 0.318662
0.326582 0.326582 0.326582
0.334507 0.334507 0.334507
0.342436 0.342436 0.342436
0.350369 0.350369 0.350369
0.358306 0.358306 0.358306
0.366247 0.366247 0.366247
0.374191 0.374191 0.374191
0.382139 0.382139 0.382139
0.390090 0.390090 0.390090
0.398044 0.398044 0.398044
0.406000 0.406000 0.406000
0.413959 0.413959 0.413959
0.421921 0.421921 0.421921
0.429884 0.429884 0.429884
0.437849 0.437849 0.437849
0.445816 0.445816 0.445816
0.453784 0.453784 0.453784
0.461754 0.461754 0.461754
0.469724 0.469724 0.469724
0.477696 0.477696 0.477696
0.485668 0.485668 0.485668
0.493640 0.493640 0.493640
0.501612 0.501612 0.501612
0.509585 0.509585 0.509585
0.517557 0.517557 0.517557
0.525529 0.525529 0.525529
0.533500 0.533500 0.533500
0.541470 0.541470 0.541470
0.549439 0.549439 0.549439
0.557407 0.557407 0.557407
0.329467 0.329467 0.329467
0.337393 0.337393 0.337393
0.345323 0.345323 0.345323
0.353258 0.353258 0.353258
0.361196 0.361196 0.361196
0.369139 0.369139 0.369139
0.377084 0.377084 0.377084
0.385033 0.385033 0.385033
0.392985 0.392985 0.392985
0.400940 0.400940 0.400940
0.408898 0.408898 0.408898
0.416857 0.416857 0.416857
0.424820 0.424820 0.424820
0.432784 0.432784 0.432784
0.440749 0.440749 0.440749
0.448717 0.448717 0.448717
0.456686 0.456686 0.456686
0.464656 0.464656 0.464656
0.472626 0.472626 0.472626
0.480598 0.480598 0.480598
0.488570 0.488570 0.488570
0.496543 0.496543 0.496543
0.504515 0.504515 0.504515
0.512487 0.512487 0.512487
0.520459 0.520459 0.520459
0.528431 0.528431 0.528431
0.536402 0.536402 0.536402
0.544371 0.544371 0.544371
0.552340 0.552340 0.552340
0.560307 0.560307 0.560307
0.568273 0.568273 0.568273
0.576237 0.576237 0.576237
0.584198 0.584198 0.584198
0.356148 0.356148 0.356148
0.364088 0.364088 0.364088
0.372031 0.372031 0.372031
0.379978 0.379978 0.379978
0.387928 0.387928 0.387928
0.395881 0.395881 0.395881
0.403837 0.403837 0.403837
0.411795 0.411795 0.411795
0.419756 0.419756 0.419756
0.427719 0.427719 0.427719
0.435683 0.435683 0.435683
0.443650 0.443650 0.443650
0.451618 0.451618 0.451618
0.459587 0.459587 0.459587
0.467557 0.467557 0.467557
0.475529 0.475529 0.475529
0.483500 0.483500 0.483500
0.491473 0.491473 0.491473
0.499445 0.499445 0.499445
0.507417 0.507417 0.507417
0.515390 0.515390 0.515390
0.523362 0.523362 0.523362
0.531333 0.531333 0.531333
0.539303 0.539303 0.539303
0.547273 0.547273 0.547273
0.555241 0.555241 0.555241
0.563207 0.563207 0.563207
0.571172 0.571172 0.571172
0.579136 0.579136 0.579136
0.587097 0.587097 0.587097
0.595055 0.595055 0.595055
0.603011 0.603011 0.603011
0.610965 0.610965 0.610965
0.382872 0.382872 0.382872
0.390823 0.390823 0.390823
0.398777 0.398777 0.398777
0.406734 0.406734 0.406734
0.414693 0.414693 0.414693
0.422655 0.422655 0.422655
0.430618 0.430618 0.430618
0.438584 0.438584 0.438584
0.446551 0.446551 0.446551
0.454519 0.454519 0.454519
0.462489 0.462489 0.462489
0.470459 0.470459 0.470459
0.478431 0.478431 0.478431
0.486403 0.486403 0.486403
0.494375 0.494375 0.494375
0.502347 0.502347 0.502347
0.510320 0.510320 0.510320
0.518292 0.518292 0.518292
0.526264 0.526264 0.526264
0.534235 0.534235 0.534235
0.542205 0.542205 0.542205
0.550174 0.550174 0.550174
0.558141 0.558141 0.558141
0.566107 0.566107 0.566107
0.574072 0.574072 0.574072
0.582034 0.582034 0.582034
0.589994 0.589994 0.589994
0.597952 0.597952 0.597952
0.605907 0.605907 0.605907
0.613860 0.613860 0.613860
0.621809 0.621809 0.621809
0.629755 0.629755 0.629755
0.637698 0.637698 0.637698
0.409631 0.409631 0.409631
0.417591 0.417591 0.417591
0.425554 0.425554 0.425554
0.433518 0.433518 0.433518
0.441484 0.441484 0.441484
0.449451 0.449451 0.449451
0.457420 0.457420 0.457420
0.465390 0.465390 0.465390
0.473361 0.473361 0.473361
0.481333 0.481333 0.481333
0.489305 0.489305 0.489305
0.497278 0.497278 0.497278
0.505250 0.505250 0.505250
0.513222 0.513222 0.513222
0.521194 0.521194 0.521194
0.529166 0.529166 0.529166
0.537136 0.537136 0.537136
0.545106 0.545106 0.545106
0.553075 0.553075 0.553075
0.561042 0.561042 0.561042
0.569007 0.569007 0.569007
0.576971 0.576971 0.576971
0.584932 0.584932 0.584932
0.592892 0.592892 0.592892
0.600849 0.600849 0.600849
0.608803 0.608803 0.608803
0.616754 0.616754 0.616754
0.624702 0.624702 0.624702
0.632647 0.632647 0.632647
0.640589 0.640589 0.640589
0.648526 0.648526 0.648526
0.656460 0.656460 0.656460
0.664390 0.664390 0.664390
0.436418 0.436418 0.436418
0.444384 0.444384 0.444384
0.452353 0.452353 0.452353
0.460322 0.460322 0.460322
0.468292 0.468292 0.468292
0.476263 0.476263 0.476263
0.484235 0.484235 0.484235
0.492208 0.492208 0.492208
0.500180 0.500180 0.500180
0.508152 0.508152 0.508152
0.516125 0.516125 0.516125
0.524097 0.524097 0.524097
0.532068 0.532068 0.532068
0.540038 0.540038 0.540038
0.548007 0.548007 0.548007
0.555975 0.555975 0.555975
0.563942 0.563942 0.563942
0.571907 0.571907 0.571907
0.579870 0.579870 0.579870
0.587830 0.587830 0.587830
0.595789 0.595789 0.595789
0.603745 0.603745 0.603745
0.611698 0.611698 0.611698
0.619648 0.619648 0.619648
0.627595 0.627595 0.627595
0.635539 0.635539 0.635539
0.643479 0.643479 0.643479
0.651415 0.651415 0.651415
0.659348 0.659348 0.659348
0.667276 0.667276 0.667276
0.675199 0.675199 0.675199
0.683118 0.683118 0.683118
0.691032 0.691032 0.691032
0.463223 0.463223 0.463223
0.471194 0.471194 0.471194
0.479166 0.479166 0.479166
0.487138 0.487138 0.487138
0.495110 0.495110 0.495110
0.503082 0.503082 0.503082
0.511055 0.511055 0.511055
0.519027 0.519027 0.519027
0.526999 0.526999 0.526999
0.534970 0.534970 0.534970
0.542939 0.542939 0.542939
0.550908 0.550908 0.550908
0.558876 0.558876 0.558876
0.566842 0.566842 0.566842
0.574806 0.574806 0.574806
0.582768 0.582768 0.582768
0.590728 0.590728 0.590728
0.598686 0.598686 0.598686
0.606641 0.606641 0.606641
0.614593 0.614593 0.614593
0.622542 0.622542 0.622542
0.630488 0.630488 0.630488
0.638430 0.638430 0.638430
0.646369 0.646369 0.646369
0.654304 0.654304 0.654304
0.662234 0.662234 0.662234
0.670161 0.670161 0.670161
0.678083 0.678083 0.678083
0.686000 0.686000 0.686000
0.693912 0.693912 0.693912
0.701819 0.701819 0.701819
0.709721 0.709721 0.709721
0.717617 0.717617 0.717617
0.490040 0.490040 0.490040
0.498013 0.498013 0.498013
0.505985 0.505985 0.505985
0.513957 0.513957 0.513957
0.521929 0.521929 0.521929
0.529901 0.529901 0.529901
0.537871 0.537871 0.537871
0.545841 0.545841 0.545841
0.553809 0.553809 0.553809
0.561776 0.561776 0.561776
0.569741 0.569741 0.569741
0.577705 0.577705 0.577705
0.585666 0.585666 0.585666
0.593625 0.593625 0.593625
0.601582 0.601582 0.601582
0.609536 0.609536 0.609536
0.617487 0.617487 0.617487
0.625435 0.625435 0.625435
0.633380 0.633380 0.633380
0.641321 0.641321 0.641321
0.649258 0.649258 0.649258
0.657191 0.657191 0.657191
0.665121 0.665121 0.665121
0.673045 0.673045 0.673045
0.680966 0.680966 0.680966
0.688881 0.688881 0.688881
0.696791 0.696791 0.696791
0.704697 0.704697 0.704697
0.712596 0.712596 0.712596
0.720490 0.720490 0.720490
0.728379 0.728379 0.728379
0.736261 0.736261 0.736261
0.744137 0.744137 0.744137
0.516860 0.516860 0.516860
0.524831 0.524831 0.524831
0.532803 0.532803 0.532803
0.540773 0.540773 0.540773
0.548742 0.548742 0.548742
0.556710 0.556710 0.556710
0.564676 0.564676 0.564676
0.572641 0.572641 0.572641
0.580604 0.580604 0.580604
0.588564 0.588564 0.588564
0.596522 0.596522 0.596522
0.604478 0.604478 0.604478
0.612431 0.612431 0.612431
0.620381 0.620381 0.620381
0.628328 0.628328 0.628328
0.636271 0.636271 0.636271
0.644211 0.644211 0.644211
0.652147 0.652147 0.652147
0.660079 0.660079 0.660079
0.668006 0.668006 0.668006
0.675929 0.675929 0.675929
0.683848 0.683848 0.683848
0.691762 0.691762 0.691762
0.699670 0.699670 0.699670
0.707573 0.707573 0.707573
0.715471 0.715471 0.715471
0.723363 0.723363 0.723363
0.731249 0.731249 0.731249
0.739129 0.739129 0.739129
0.747002 0.747002 0.747002
0.754869 0.754869 0.754869
0.762730 0.762730 0.762730
0.770583 0.770583 0.770583
0.543674 0.543674 0.543674
0.551643 0.551643 0.551643
0.559610 0.559610 0.559610
0.567576 0.567576 0.567576
0.575540 0.575540 0.575540
0.583502 0.583502 0.583502
0.591462 0.591462 0.591462
0.599419 0.599419 0.599419
0.607374 0.607374 0.607374
0.615326 0.615326 0.615326
0.623274 0.623274 0.623274
0.631220 0.631220 0.631220
0.639162 0.639162 0.639162
0.647100 0.647100 0.647100
0.655035 0.655035 0.655035
0.662965 0.662965 0.662965
0.670891 0.670891 0.670891
0.678813 0.678813 0.678813
0.686730 0.686730 0.686730
0.694641 0.694641 0.694641
0.702548 0.702548 0.702548
0.710449 0.710449 0.710449
0.718345 0.718345 0.718345
0.726235 0.726235 0.726235
0.734119 0.734119 0.734119
0.741996 0.741996 0.741996
0.749867 0.749867 0.749867
0.757732 0.757732 0.757732
0.765590 0.765590 0.765590
0.773440 0.773440 0.773440
0.781283 0.781283 0.781283
0.789119 0.789119 0.789119
0.796947 0.796947 0.796947
0.570476 0.570476 0.570476
0.578439 0.578439 0.578439
0.586400 0.586400 0.586400
0.594359 0.594359 0.594359
0.602315 0.602315 0.602315
0.610269 0.610269 0.610269
0.618220 0.618220 0.618220
0.626168 0.626168 0.626168
0.634112 0.634112 0.634112
0.642053 0.642053 0.642053
0.649990 0.649990 0.649990
0.657923 0.657923 0.657923
0.665851 0.665851 0.665851
0.673776 0.673776 0.673776
0.681696 0.681696 0.681696
0.689611 0.689611 0.689611
0.697520 0.697520 0.697520
0.705425 0.705425 0.705425
0.713324 0.713324 0.713324
0.721218 0.721218 0.721218
0.729106 0.729106 0.729106
0.736987 0.736987 0.736987
0.744863 0.744863 0.744863
0.752731 0.752731 0.752731
0.760593 0.760593 0.760593
0.768448 0.768448 0.768448
0.776296 0.776296 0.776296
0.784137 0.784137 0.784137
0.791970 0.791970 0.791970
0.799795 0.799795 0.799795
0.807613 0.807613 0.807613
0.815422 0.815422 0.815422
0.823222 0.823222 0.823222
0.597256 0.597256 0.597256
0.605211 0.605211 0.605211
0.613164 0.613164 0.613164
0.621114 0.621114 0.621114
0.629060 0.629060 0.629060
0.637003 0.637003 0.637003
0.644943 0.644943 0.644943
0.652878 0.652878 0.652878
0.660810 0.660810 0.660810
0.668737 0.668737 0.668737
0.676660 0.676660 0.676660
0.684578 0.684578 0.684578
0.692491 0.692491 0.692491
0.700399 0.700399 0.700399
0.708302 0.708302 0.708302
0.716199 0.716199 0.716199
0.724090 0.724090 0.724090
0.731976 0.731976 0.731976
0.739855 0.739855 0.739855
0.747728 0.747728 0.747728
0.755594 0.755594 0.755594
0.763454 0.763454 0.763454
0.771306 0.771306 0.771306
0.779152 0.779152 0.779152
0.786990 0.786990 0.786990
0.794820 0.794820 0.794820
0.802642 0.802642 0.802642
