assets/preview/luts/classic_bw.cube
TITLE "Classic B&W"
LUT_3D_SIZE 9
DOMAIN_MIN 0.0 0.0 0.0
DOMAIN_MAX 1.0 1.0 1.0
0.000000 0.000000 0.000000
0.000000 0.000000 0.000000
0.000000 0.000000 0.000000
0.004578 0.004578 0.004578
0.034883 0.034883 0.034883
0.065388 0.065388 0.065388
0.096079 0.096079 0.096079
0.126944 0.126944 0.126944
0.157969 0.157969 0.157969
0.015587 0.015587 0.015587
0.045966 0.045966 0.045966
0.076541 0.076541 0.076541
0.107297 0.107297 0.107297
0.138221 0.138221 0.138221
0.169301 0.169301 0.169301
0.200521 0.200521 0.200521
0.231869 0.231869 0.231869
0.263331 0.263331 0.263331
0.118537 0.118537 0.118537
0.149519 0.149519 0.149519
0.180651 0.180651 0.180651
0.211920 0.211920 0.211920
0.243311 0.243311 0.243311
0.274812 0.274812 0.274812
0.306408 0.306408 0.306408
0.338086 0.338086 0.338086
0.369834 0.369834 0.369834
0.223335 0.223335 0.223335
0.254767 0.254767 0.254767
0.286304 0.286304 0.286304
0.317932 0.317932 0.317932
0.349637 0.349637 0.349637
0.381406 0.381406 0.381406
0.413225 0.413225 0.413225
0.445082 0.445082 0.445082
0.476961 0.476961 0.476961
0.329467 0.329467 0.329467
0.361196 0.361196 0.361196
0.392985 0.392985 0.392985
0.424820 0.424820 0.424820
0.456686 0.456686 0.456686
0.488570 0.488570 0.488570
0.520459 0.520459 0.520459
0.552340 0.552340 0.552340
0.584198 0.584198 0.584198
0.436418 0.436418 0.436418
0.468292 0.468292 0.468292
0.500180 0.500180 0.500180
0.532068 0.532068 0.532068
0.563942 0.563942 0.563942
0.595789 0.595789 0.595789
0.627595 0.627595 0.627595
0.659348 0.659348 0.659348
0.691032 0.691032 0.691032
0.543674 0.543674 0.543674
0.575540 0.575540 0.575540
0.607374 0.607374 0.607374
0.639162 0.639162 0.639162
0.670891 0.670891 0.670891
0.702548 0.702548 0.702548
0.734119 0.734119 0.734119
0.765590 0.765590 0.765590
0.796947 0.796947 0.796947
0.650721 0.650721 0.650721
0.682425 0.682425 0.682425
0.714052 0.714052 0.714052
0.745588 0.745588 0.745588
0.777020 0.777020 0.777020
0.808333 0.808333 0.808333
0.839515 0.839515 0.839515
0.870552 0.870552 0.870552
0.901430 0.901430 0.901430
0.757044 0.757044 0.757044
0.788434 0.788434 0.788434
0.819701 0.819701 0.819701
0.850832 0.850832 0.850832
0.881812 0.881812 0.881812
0.912629 0.912629 0.912629
0.943270 0.943270 0.943270
0.973719 0.973719 0.973719
1.000000 1.000000 1.000000
0.000000 0.000000 0.000000
0.000000 0.000000 0.000000
0.000000 0.000000 0.000000
0.014846 0.014846 0.014846
0.045221 0.045221 0.045221
0.075791 0.075791 0.075791
0.106543 0.106543 0.106543
0.137463 0.137463 0.137463
0.168539 0.168539 0.168539
0.025881 0.025881 0.025881
0.056328 0.056328 0.056328
0.086966 0.086966 0.086966
0.117781 0.117781 0.117781
0.148759 0.148759 0.148759
0.179888 0.179888 0.179888
0.211153 0.211153 0.211153
0.242542 0.242542 0.242542
0.274040 0.274040 0.274040
0.129041 0.129041 0.129041
0.160075 0.160075 0.160075
0.191255 0.191255 0.191255
0.222567 0.222567 0.222567
0.253997 0.253997 0.253997
0.285532 0.285532 0.285532
0.317157 0.317157 0.317157
0.348861 0.348861 0.348861
0.380628 0.380628 0.380628
0.233997 0.233997 0.233997
0.265466 0.265466 0.265466
0.297036 0.297036 0.297036
0.328691 0.328691 0.328691
0.360420 0.360420 0.360420
0.392207 0.392207 0.392207
0.424040 0.424040 0.424040
0.455906 0.455906 0.455906
0.487790 0.487790 0.487790
0.340235 0.340235 0.340235
0.371986 0.371986 0.371986
0.403792 0.403792 0.403792
0.435639 0.435639 0.435639
0.467512 0.467512 0.467512
0.499400 0.499400 0.499400
0.531288 0.531288 0.531288
0.563162 0.563162 0.563162
0.595010 0.595010 0.595010
0.447240 0.447240 0.447240
0.479121 0.479121 0.479121
0.511010 0.511010 0.511010
0.542895 0.542895 0.542895
0.574761 0.574761 0.574761
0.606596 0.606596 0.606596
0.638385 0.638385 0.638385
0.670116 0.670116 0.670116
0.701775 0.701775 0.701775
0.554499 0.554499 0.554499
0.586355 0.586355 0.586355
0.618175 0.618175 0.618175
0.649945 0.649945 0.649945
0.681651 0.681651 0.681651
0.713280 0.713280 0.713280
0.744818 0.744818 0.744818
0.776252 0.776252 0.776252
0.807569 0.807569 0.807569
0.661496 0.661496 0.661496
0.693175 0.693175 0.693175
0.724773 0.724773 0.724773
0.756275 0.756275 0.756275
0.787668 0.787668 0.787668
0.818938 0.818938 0.818938
0.850072 0.850072 0.850072
0.881056 0.881056 0.881056
0.911878 0.911878 0.911878
0.767717 0.767717 0.767717
0.799067 0.799067 0.799067
0.830289 0.830289 0.830289
0.861370 0.861370 0.861370
0.892297 0.892297 0.892297
0.923055 0.923055 0.923055
0.953632 0.953632 0.953632
0.984014 0.984014 0.984014
1.000000 1.000000 1.000000
0.000000 0.000000 0.000000
0.000000 0.000000 0.000000
0.000000 0.000000 0.000000
0.025139 0.025139 0.025139
0.055581 0.055581 0.055581
0.086214 0.086214 0.086214
0.117025 0.117025 0.117025
0.148000 0.148000 0.148000
0.179125 0.179125 0.179125
0.036199 0.036199 0.036199
0.066712 0.066712 0.066712
0.097412 0.097412 0.097412
0.128284 0.128284 0.128284
0.159315 0.159315 0.159315
0.190491 0.190491 0.190491
0.221800 0.221800 0.221800
0.253227 0.253227 0.253227
0.284759 0.284759 0.284759
0.139563 0.139563 0.139563
0.170649 0.170649 0.170649
0.201875 0.201875 0.201875
0.233228 0.233228 0.233228
0.264695 0.264695 0.264695
0.296262 0.296262 0.296262
0.327916 0.327916 0.327916
0.359643 0.359643 0.359643
0.391429 0.391429 0.391429
0.244672 0.244672 0.244672
0.276177 0.276177 0.276177
0.307777 0.307777 0.307777
0.339459 0.339459 0.339459
0.371209 0.371209 0.371209
0.403013 0.403013 0.403013
0.434859 0.434859 0.434859
0.466733 0.466733 0.466733
0.498620 0.498620 0.498620
0.351011 0.351011 0.351011
0.382782 0.382782 0.382782
0.414603 0.414603 0.414603
0.446461 0.446461 0.446461
0.478341 0.478341 0.478341
0.510230 0.510230 0.510230
0.542115 0.542115 0.542115
0.573982 0.573982 0.573982
0.605818 0.605818 0.605818
0.458065 0.458065 0.458065
0.489950 0.489950 0.489950
0.521839 0.521839 0.521839
0.553719 0.553719 0.553719
0.585576 0.585576 0.585576
0.617397 0.617397 0.617397
0.649168 0.649168 0.649168
0.680876 0.680876 0.680876
0.712507 0.712507 0.712507
0.565321 0.565321 0.565321
0.597166 0.597166 0.597166
0.628971 0.628971 0.628971
0.660720 0.660720 0.660720
0.692402 0.692402 0.692402
0.724001 0.724001 0.724001
0.755506 0.755506 0.755506
0.786901 0.786901 0.786901
0.818175 0.818175 0.818175
0.672263 0.672263 0.672263
0.703916 0.703916 0.703916
0.735483 0.735483 0.735483
0.766949 0.766949 0.766949
0.798302 0.798302 0.798302
0.829527 0.829527 0.829527
0.860612 0.860612 0.860612
0.891542 0.891542 0.891542
0.922305 0.922305 0.922305
0.778377 0.778377 0.778377
0.809685 0.809685 0.809685
0.840861 0.840861 0.840861
0.871891 0.871891 0.871891
0.902762 0.902762 0.902762
0.933461 0.933461 0.933461
0.963973 0.963973 0.963973
0.994285 0.994285 0.994285
1.000000 1.000000 1.000000
0.000000 0.000000 0.000000
0.000000 0.000000 0.000000
0.005146 0.005146 0.005146
0.035455 0.035455 0.035455
0.065964 0.065964 0.065964
0.096659 0.096659 0.096659
0.127526 0.127526 0.127526
0.158554 0.158554 0.158554
0.189727 0.189727 0.189727
0.046540 0.046540 0.046540
0.077118 0.077118 0.077118
0.107877 0.107877 0.107877
0.138805 0.138805 0.138805
0.169887 0.169887 0.169887
0.201110 0.201110 0.201110
0.232460 0.232460 0.232460
0.263924 0.263924 0.263924
0.295489 0.295489 0.295489
0.150103 0.150103 0.150103
0.181238 0.181238 0.181238
0.212509 0.212509 0.212509
0.243903 0.243903 0.243903
0.275405 0.275405 0.275405
0.307003 0.307003 0.307003
0.338683 0.338683 0.338683
0.370432 0.370432 0.370432
0.402235 0.402235 0.402235
0.255360 0.255360 0.255360
0.286898 0.286898 0.286898
0.318528 0.318528 0.318528
0.350234 0.350234 0.350234
0.382004 0.382004 0.382004
0.413825 0.413825 0.413825
0.445681 0.445681 0.445681
0.477561 0.477561 0.477561
0.509450 0.509450 0.509450
0.361794 0.361794 0.361794
0.393584 0.393584 0.393584
0.425419 0.425419 0.425419
0.457285 0.457285 0.457285
0.489170 0.489170 0.489170
0.521059 0.521059 0.521059
0.552940 0.552940 0.552940
0.584798 0.584798 0.584798
0.616620 0.616620 0.616620
0.468892 0.468892 0.468892
0.500780 0.500780 0.500780
0.532668 0.532668 0.532668
0.564541 0.564541 0.564541
0.596388 0.596388 0.596388
0.628193 0.628193 0.628193
0.659944 0.659944 0.659944
0.691628 0.691628 0.691628
0.723229 0.723229 0.723229
0.576139 0.576139 0.576139
0.607972 0.607972 0.607972
0.639760 0.639760 0.639760
0.671488 0.671488 0.671488
0.703143 0.703143 0.703143
0.734712 0.734712 0.734712
0.766181 0.766181 0.766181
0.797536 0.797536 0.797536
0.828765 0.828765 0.828765
0.683021 0.683021 0.683021
0.714647 0.714647 0.714647
0.746181 0.746181 0.746181
0.777610 0.777610 0.777610
0.808921 0.808921 0.808921
0.840100 0.840100 0.840100
0.871134 0.871134 0.871134
0.902009 0.902009 0.902009
0.932712 0.932712 0.932712
0.789023 0.789023 0.789023
0.820288 0.820288 0.820288
0.851416 0.851416 0.851416
0.882394 0.882394 0.882394
0.913208 0.913208 0.913208
0.943844 0.943844 0.943844
0.974290 0.974290 0.974290
1.000000 1.000000 1.000000
1.000000 1.000000 1.000000
0.000000 0.000000 0.000000
0.000000 0.000000 0.000000
0.015416 0.015416 0.015416
0.045794 0.045794 0.045794
0.076367 0.076367 0.076367
0.107123 0.107123 0.107123
0.138046 0.138046 0.138046
0.169125 0.169125 0.169125
0.200344 0.200344 0.200344
0.056903 0.056903 0.056903
0.087544 0.087544 0.087544
0.118362 0.118362 0.118362
0.149344 0.149344 0.149344
0.180475 0.180475 0.180475
0.211743 0.211743 0.211743
0.243133 0.243133 0.243133
0.274633 0.274633 0.274633
0.306229 0.306229 0.306229
0.160661 0.160661 0.160661
0.191843 0.191843 0.191843
0.223157 0.223157 0.223157
0.254589 0.254589 0.254589
0.286126 0.286126 0.286126
0.317753 0.317753 0.317753
0.349458 0.349458 0.349458
0.381227 0.381227 0.381227
0.413046 0.413046 0.413046
0.266059 0.266059 0.266059
0.297631 0.297631 0.297631
0.329288 0.329288 0.329288
0.361017 0.361017 0.361017
0.392806 0.392806 0.392806
0.424640 0.424640 0.424640
0.456506 0.456506 0.456506
0.488390 0.488390 0.488390
0.520279 0.520279 0.520279
0.372584 0.372584 0.372584
0.404391 0.404391 0.404391
0.436238 0.436238 0.436238
0.468112 0.468112 0.468112
0.500000 0.500000 0.500000
0.531888 0.531888 0.531888
0.563762 0.563762 0.563762
0.595609 0.595609 0.595609
0.627416 0.627416 0.627416
0.479721 0.479721 0.479721
0.511610 0.511610 0.511610
0.543494 0.543494 0.543494
0.575360 0.575360 0.575360
0.607194 0.607194 0.607194
0.638983 0.638983 0.638983
0.670712 0.670712 0.670712
0.702369 0.702369 0.702369
0.733941 0.733941 0.733941
0.586954 0.586954 0.586954
0.618773 0.618773 0.618773
0.650542 0.650542 0.650542
0.682247 0.682247 0.682247
0.713874 0.713874 0.713874
0.745411 0.745411 0.745411
0.776843 0.776843 0.776843
0.808157 0.808157 0.808157
0.839339 0.839339 0.839339
0.693771 0.693771 0.693771
0.725367 0.725367 0.725367
0.756867 0.756867 0.756867
0.788257 0.788257 0.788257
0.819525 0.819525 0.819525
0.850656 0.850656 0.850656
0.881638 0.881638 0.881638
0.912456 0.912456 0.912456
0.943097 0.943097 0.943097
0.799656 0.799656 0.799656
0.830875 0.830875 0.830875
0.861954 0.861954 0.861954
0.892877 0.892877 0.892877
0.923633 0.923633 0.923633
0.954206 0.954206 0.954206
0.984584 0.984584 0.984584
1.000000 1.000000 1.000000
1.000000 1.000000 1.000000
0.000000 0.000000 0.000000
0.000000 0.000000 0.000000
0.025710 0.025710 0.025710
0.056156 0.056156 0.056156
0.086792 0.086792 0.086792
0.117606 0.117606 0.117606
0.148584 0.148584 0.148584
0.179712 0.179712 0.179712
0.210977 0.210977 0.210977
0.067288 0.067288 0.067288
0.097991 0.097991 0.097991
0.128866 0.128866 0.128866
0.159900 0.159900 0.159900
0.191079 0.191079 0.191079
0.222390 0.222390 0.222390
0.253819 0.253819 0.253819
0.285353 0.285353 0.285353
0.316979 0.316979 0.316979
0.171235 0.171235 0.171235
0.202464 0.202464 0.202464
0.233819 0.233819 0.233819
0.265288 0.265288 0.265288
0.296857 0.296857 0.296857
0.328512 0.328512 0.328512
0.360240 0.360240 0.360240
0.392028 0.392028 0.392028
0.423861 0.423861 0.423861
0.276771 0.276771 0.276771
0.308372 0.308372 0.308372
0.340056 0.340056 0.340056
0.371807 0.371807 0.371807
0.403612 0.403612 0.403612
0.435459 0.435459 0.435459
0.467332 0.467332 0.467332
0.499220 0.499220 0.499220
0.531108 0.531108 0.531108
0.383380 0.383380 0.383380
0.415202 0.415202 0.415202
0.447060 0.447060 0.447060
0.478941 0.478941 0.478941
0.510830 0.510830 0.510830
0.542715 0.542715 0.542715
0.574581 0.574581 0.574581
0.606416 0.606416 0.606416
0.638206 0.638206 0.638206
0.490550 0.490550 0.490550
0.522439 0.522439 0.522439
0.554319 0.554319 0.554319
0.586175 0.586175 0.586175
0.617996 0.617996 0.617996
0.649766 0.649766 0.649766
0.681472 0.681472 0.681472
0.713102 0.713102 0.713102
0.744640 0.744640 0.744640
0.597765 0.597765 0.597765
0.629568 0.629568 0.629568
0.661317 0.661317 0.661317
0.692997 0.692997 0.692997
0.724595 0.724595 0.724595
0.756097 0.756097 0.756097
0.787491 0.787491 0.787491
0.818762 0.818762 0.818762
0.849897 0.849897 0.849897
0.704511 0.704511 0.704511
0.736076 0.736076 0.736076
0.767540 0.767540 0.767540
0.798890 0.798890 0.798890
0.830113 0.830113 0.830113
0.861195 0.861195 0.861195
0.892123 0.892123 0.892123
0.922882 0.922882 0.922882
0.953460 0.953460 0.953460
0.810273 0.810273 0.810273
0.841446 0.841446 0.841446
0.872474 0.872474 0.872474
0.903341 0.903341 0.903341
0.934036 0.934036 0.934036
0.964545 0.964545 0.964545
0.994854 0.994854 0.994854
1.000000 1.000000 1.000000
1.000000 1.000000 1.000000
0.000000 0.000000 0.000000
0.005715 0.005715 0.005715
0.036027 0.036027 0.036027
0.066539 0.066539 0.066539
0.097238 0.097238 0.097238
0.128109 0.128109 0.128109
0.159139 0.159139 0.159139
0.190315 0.190315 0.190315
0.221623 0.221623 0.221623
0.077695 0.077695 0.077695
0.108458 0.108458 0.108458
0.139388 0.139388 0.139388
0.170473 0.170473 0.170473
0.201698 0.201698 0.201698
0.233051 0.233051 0.233051
0.264517 0.264517 0.264517
0.296084 0.296084 0.296084
0.327737 0.327737 0.327737
0.181825 0.181825 0.181825
0.213099 0.213099 0.213099
0.244494 0.244494 0.244494
0.275999 0.275999 0.275999
0.307598 0.307598 0.307598
0.339280 0.339280 0.339280
0.371029 0.371029 0.371029
0.402834 0.402834 0.402834
0.434679 0.434679 0.434679
0.287493 0.287493 0.287493
0.319124 0.319124 0.319124
0.350832 0.350832 0.350832
0.382603 0.382603 0.382603
0.414424 0.414424 0.414424
0.446281 0.446281 0.446281
0.478161 0.478161 0.478161
0.510050 0.510050 0.510050
0.541935 0.541935 0.541935
0.394182 0.394182 0.394182
0.426018 0.426018 0.426018
0.457885 0.457885 0.457885
0.489770 0.489770 0.489770
0.521659 0.521659 0.521659
0.553539 0.553539 0.553539
0.585397 0.585397 0.585397
0.617218 0.617218 0.617218
0.648989 0.648989 0.648989
0.501380 0.501380 0.501380
0.533267 0.533267 0.533267
0.565141 0.565141 0.565141
0.596987 0.596987 0.596987
0.628791 0.628791 0.628791
0.660541 0.660541 0.660541
0.692223 0.692223 0.692223
0.723823 0.723823 0.723823
0.755328 0.755328 0.755328
0.608571 0.608571 0.608571
0.640357 0.640357 0.640357
0.672084 0.672084 0.672084
0.703738 0.703738 0.703738
0.735305 0.735305 0.735305
0.766772 0.766772 0.766772
0.798125 0.798125 0.798125
0.829351 0.829351 0.829351
0.860437 0.860437 0.860437
0.715241 0.715241 0.715241
0.746773 0.746773 0.746773
0.778200 0.778200 0.778200
0.809509 0.809509 0.809509
0.840685 0.840685 0.840685
0.871716 0.871716 0.871716
0.902588 0.902588 0.902588
0.933288 0.933288 0.933288
0.963801 0.963801 0.963801
0.820875 0.820875 0.820875
0.852000 0.852000 0.852000
0.882975 0.882975 0.882975
0.913786 0.913786 0.913786
0.944419 0.944419 0.944419
0.974861 0.974861 0.974861
1.000000 1.000000 1.000000
1.000000 1.000000 1.000000
1.000000 1.000000 1.000000
0.000000 0.000000 0.000000
0.015986 0.015986 0.015986
0.046368 0.046368 0.046368
0.076945 0.076945 0.076945
0.107703 0.107703 0.107703
0.138630 0.138630 0.138630
0.169711 0.169711 0.169711
0.200933 0.200933 0.200933
0.232283 0.232283 0.232283
0.088122 0.088122 0.088122
0.118944 0.118944 0.118944
0.149928 0.149928 0.149928
0.181062 0.181062 0.181062
0.212332 0.212332 0.212332
0.243725 0.243725 0.243725
0.275227 0.275227 0.275227
0.306825 0.306825 0.306825
0.338504 0.338504 0.338504
0.192431 0.192431 0.192431
0.223748 0.223748 0.223748
0.255182 0.255182 0.255182
0.286720 0.286720 0.286720
0.318349 0.318349 0.318349
0.350055 0.350055 0.350055
0.381825 0.381825 0.381825
0.413645 0.413645 0.413645
0.445501 0.445501 0.445501
0.298225 0.298225 0.298225
0.329884 0.329884 0.329884
0.361615 0.361615 0.361615
0.393404 0.393404 0.393404
0.425239 0.425239 0.425239
0.457105 0.457105 0.457105
0.488990 0.488990 0.488990
0.520879 0.520879 0.520879
0.552760 0.552760 0.552760
0.404990 0.404990 0.404990
0.436838 0.436838 0.436838
0.468712 0.468712 0.468712
0.500600 0.500600 0.500600
0.532488 0.532488 0.532488
0.564361 0.564361 0.564361
0.596208 0.596208 0.596208
0.628014 0.628014 0.628014
0.659765 0.659765 0.659765
0.512210 0.512210 0.512210
0.544094 0.544094 0.544094
0.575960 0.575960 0.575960
0.607793 0.607793 0.607793
0.639580 0.639580 0.639580
0.671309 0.671309 0.671309
0.702964 0.702964 0.702964
0.734534 0.734534 0.734534
0.766003 0.766003 0.766003
0.619372 0.619372 0.619372
0.651139 0.651139 0.651139
0.682843 0.682843 0.682843
0.714468 0.714468 0.714468
0.746003 0.746003 0.746003
0.777433 0.777433 0.777433
0.808745 0.808745 0.808745
0.839925 0.839925 0.839925
0.870959 0.870959 0.870959
0.725960 0.725960 0.725960
0.757458 0.757458 0.757458
0.788847 0.788847 0.788847
0.820112 0.820112 0.820112
0.851241 0.851241 0.851241
0.882219 0.882219 0.882219
0.913034 0.913034 0.913034
0.943672 0.943672 0.943672
0.974119 0.974119 0.974119
0.831461 0.831461 0.831461
0.862537 0.862537 0.862537
0.893457 0.893457 0.893457
0.924209 0.924209 0.924209
0.954779 0.954779 0.954779
0.985154 0.985154 0.985154
1.000000 1.000000 1.000000
1.000000 1.000000 1.000000
1.000000 1.000000 1.000000
0.000000 0.000000 0.000000
0.026281 0.026281 0.026281
0.056730 0.056730 0.056730
0.087371 0.087371 0.087371
0.118188 0.118188 0.118188
0.149168 0.149168 0.149168
0.180299 0.180299 0.180299
0.211566 0.211566 0.211566
0.242956 0.242956 0.242956
0.098570 0.098570 0.098570
0.129448 0.129448 0.129448
0.160485 0.160485 0.160485
0.191667 0.191667 0.191667
0.222980 0.222980 0.222980
0.254412 0.254412 0.254412
0.285948 0.285948 0.285948
0.317575 0.317575 0.317575
0.349279 0.349279 0.349279
0.203053 0.203053 0.203053
0.234410 0.234410 0.234410
0.265881 0.265881 0.265881
0.297452 0.297452 0.297452
0.329109 0.329109 0.329109
0.360838 0.360838 0.360838
0.392626 0.392626 0.392626
0.424460 0.424460 0.424460
0.456326 0.456326 0.456326
0.308968 0.308968 0.308968
0.340652 0.340652 0.340652
0.372405 0.372405 0.372405
0.404211 0.404211 0.404211
0.436058 0.436058 0.436058
0.467932 0.467932 0.467932
0.499820 0.499820 0.499820
0.531708 0.531708 0.531708
0.563582 0.563582 0.563582
0.415802 0.415802 0.415802
0.447660 0.447660 0.447660
0.479541 0.479541 0.479541
0.511430 0.511430 0.511430
0.543314 0.543314 0.543314
0.575180 0.575180 0.575180
0.607015 0.607015 0.607015
0.638804 0.638804 0.638804
0.670533 0.670533 0.670533
0.523039 0.523039 0.523039
0.554918 0.554918 0.554918
0.586775 0.586775 0.586775
0.618594 0.618594 0.618594
0.650363 0.650363 0.650363
0.682068 0.682068 0.682068
0.713696 0.713696 0.713696
0.745233 0.745233 0.745233
0.776665 0.776665 0.776665
0.630166 0.630166 0.630166
0.661914 0.661914 0.661914
0.693592 0.693592 0.693592
0.725188 0.725188 0.725188
0.756689 0.756689 0.756689
0.788080 0.788080 0.788080
0.819349 0.819349 0.819349
0.850481 0.850481 0.850481
0.881463 0.881463 0.881463
0.736669 0.736669 0.736669
0.768131 0.768131 0.768131
0.799479 0.799479 0.799479
0.830699 0.830699 0.830699
0.861779 0.861779 0.861779
0.892703 0.892703 0.892703
0.923459 0.923459 0.923459
0.954034 0.954034 0.954034
0.984413 0.984413 0.984413
0.842031 0.842031 0.842031
0.873056 0.873056 0.873056
0.903921 0.903921 0.903921
0.934612 0.934612 0.934612
0.965117 0.965117 0.965117
0.995422 0.995422 0.995422
1.000000 1.000000 1.000000
1.000000 1.000000 1.000000
1.000000 1.000000 1.000000
