assets/preview/luts/clean_aesthetic.cube
TITLE "Clean Aesthetic (Skin)"
LUT_3D_SIZE 9
DOMAIN_MIN 0.0 0.0 0.0
DOMAIN_MAX 1.0 1.0 1.0
0.001282 0.000000 0.002582
0.128358 0.000000 0.001399
0.269122 0.000000 0.000088
0.408950 0.000000 0.000000
0.547908 0.000000 0.000000
0.685751 0.000000 0.000000
0.822121 0.000000 0.000000
0.956609 0.000000 0.000000
1.000000 0.000000 0.000000
0.000000 0.117970 0.000000
0.124807 0.116922 0.000000
0.265571 0.115762 0.000000
0.405399 0.114610 0.000000
0.544357 0.113465 0.000000
0.682200 0.112329 0.000000
0.818570 0.111205 0.000000
0.953058 0.110096 0.000000
1.000000 0.109477 0.000000
0.000000 0.254982 0.000000
0.120683 0.253935 0.000000
0.261447 0.252775 0.000000
0.401275 0.251622 0.000000
0.540233 0.250477 0.000000
0.678076 0.249341 0.000000
0.814446 0.248217 0.000000
0.948934 0.247109 0.000000
1.000000 0.246488 0.000000
0.000000 0.391732 0.000000
0.116567 0.390684 0.000000
0.257331 0.389524 0.000000
0.397159 0.388372 0.000000
0.536117 0.387227 0.000000
0.673960 0.386091 0.000000
0.810330 0.384967 0.000000
0.944818 0.383858 0.000000
1.000000 0.383235 0.000000
0.000000 0.528079 0.000000
0.112463 0.527032 0.000000
0.253227 0.525872 0.000000
0.393055 0.524719 0.000000
0.532013 0.523574 0.000000
0.670115 0.522583 0.000000
0.806984 0.521739 0.000000
0.941965 0.520907 0.000000
1.000000 0.520450 0.000000
0.000000 0.663677 0.000000
0.108382 0.662630 0.000000
0.249582 0.661714 0.000000
0.389921 0.660849 0.000000
0.529388 0.659989 0.000000
0.667736 0.659136 0.000000
0.804605 0.658292 0.000000
0.939586 0.657459 0.000000
1.000000 0.657014 0.000000
0.000000 0.798746 0.000000
0.105944 0.797959 0.000000
0.247223 0.797088 0.000000
0.387563 0.796222 0.000000
0.527029 0.795362 0.000000
0.665377 0.794509 0.000000
0.802246 0.793665 0.000000
0.937227 0.792833 0.000000
1.000000 0.792400 0.000000
0.000000 0.932482 0.000000
0.103613 0.931695 0.000000
0.244893 0.930824 0.000000
0.385232 0.929959 0.000000
0.524699 0.929098 0.000000
0.663047 0.928245 0.000000
0.799916 0.927401 0.000000
0.934897 0.926569 0.000000
1.000000 0.926148 0.000000
0.000000 1.000000 0.000000
0.102270 1.000000 0.000000
0.243558 1.000000 0.000000
0.383906 1.000000 0.000000
0.523381 1.000000 0.000000
0.661736 1.000000 0.000000
0.798613 1.000000 0.000000
0.933602 1.000000 0.000000
1.000000 1.000000 0.000000
0.000954 0.000000 0.113314
0.128030 0.000000 0.112131
0.268794 0.000000 0.110820
0.408621 0.000000 0.109517
0.547580 0.000000 0.108223
0.685423 0.000000 0.106939
0.821793 0.000000 0.105669
0.956281 0.000000 0.104417
1.000000 0.000000 0.103718
0.000000 0.117661 0.109546
0.124479 0.116614 0.108363
0.265243 0.115454 0.107052
0.405070 0.114302 0.105749
0.544028 0.113156 0.104455
0.681871 0.112020 0.103171
0.818241 0.110897 0.101901
0.952730 0.109788 0.100649
1.000000 0.109169 0.099948
0.000000 0.254674 0.105170
0.120355 0.253627 0.103987
0.261119 0.252467 0.102676
0.400946 0.251314 0.101374
0.539905 0.250169 0.100079
0.677747 0.249033 0.098796
0.814118 0.247909 0.097525
0.948606 0.246801 0.096273
1.000000 0.246180 0.095571
0.000000 0.391423 0.100803
0.116239 0.390376 0.099620
0.257003 0.389216 0.098309
0.396830 0.388064 0.097006
0.535789 0.386918 0.095712
0.673632 0.385782 0.094428
0.810002 0.384659 0.093158
0.944490 0.383550 0.091906
1.000000 0.382927 0.091201
0.000000 0.527771 0.096449
0.112135 0.526724 0.095265
0.252899 0.525564 0.093954
0.392727 0.524411 0.092652
0.531685 0.523266 0.091358
0.669923 0.522352 0.090180
0.806793 0.521508 0.089043
0.941773 0.520675 0.087922
1.000000 0.520219 0.087304
0.000000 0.663369 0.092118
0.108111 0.662354 0.090950
0.249390 0.661483 0.089777
0.389730 0.660618 0.088611
0.529197 0.659757 0.087453
0.667544 0.658904 0.086305
0.804413 0.658060 0.085168
0.939394 0.657228 0.084047
1.000000 0.656784 0.083441
0.000000 0.798514 0.088167
0.105752 0.797728 0.087108
0.247032 0.796856 0.085935
0.387371 0.795991 0.084770
0.526838 0.795131 0.083612
0.665185 0.794278 0.082463
0.802055 0.793434 0.081326
0.937035 0.792601 0.080206
1.000000 0.792170 0.079612
0.000000 0.932250 0.084372
0.103422 0.931464 0.083313
0.244701 0.930593 0.082140
0.385041 0.929727 0.080975
0.524508 0.928867 0.079817
0.662855 0.928014 0.078668
0.799725 0.927170 0.077531
0.934705 0.926337 0.076410
1.000000 0.925918 0.075828
0.000000 1.000000 0.082136
0.102081 1.000000 0.081084
0.243369 1.000000 0.079919
0.383716 1.000000 0.078762
0.523191 1.000000 0.077612
0.661547 1.000000 0.076472
0.798424 1.000000 0.075343
0.933413 1.000000 0.074230
1.000000 1.000000 0.073660
0.000548 0.000000 0.250139
0.127624 0.000000 0.248956
0.268388 0.000000 0.247645
0.408216 0.000000 0.246343
0.547174 0.000000 0.245048
0.685017 0.000000 0.243764
0.821387 0.000000 0.242494
0.955876 0.000000 0.241242
1.000000 0.000000 0.240543
0.000000 0.117281 0.246371
0.124073 0.116233 0.245188
0.264837 0.115073 0.243877
0.404665 0.113921 0.242574
0.543623 0.112776 0.241280
0.681466 0.111640 0.239996
0.817836 0.110516 0.238726
0.952324 0.109407 0.237474
1.000000 0.108788 0.236773
0.000000 0.254293 0.241995
0.119949 0.253246 0.240812
0.260713 0.252086 0.239501
0.400541 0.250933 0.238199
0.539499 0.249788 0.236904
0.677342 0.248652 0.235621
0.813712 0.247528 0.234350
0.948200 0.246420 0.233098
1.000000 0.245799 0.232395
0.000000 0.391043 0.237628
0.115833 0.389995 0.236445
0.256597 0.388835 0.235134
0.396425 0.387683 0.233831
0.535383 0.386538 0.232537
0.673226 0.385402 0.231253
0.809596 0.384278 0.229983
0.944085 0.383169 0.228731
1.000000 0.382615 0.228060
0.000000 0.527390 0.233274
0.111729 0.526343 0.232090
0.252493 0.525183 0.230779
0.392321 0.524030 0.229477
0.531339 0.522919 0.228199
0.669687 0.522066 0.227050
0.806556 0.521222 0.225913
0.941537 0.520389 0.224793
1.000000 0.519934 0.224175
0.000000 0.662988 0.228943
0.107875 0.662068 0.227820
0.249154 0.661197 0.226647
0.389493 0.660332 0.225482
0.528960 0.659471 0.224324
0.667308 0.658618 0.223175
0.804177 0.657774 0.222038
0.939158 0.656942 0.220917
1.000000 0.656499 0.220313
0.000000 0.798228 0.225038
0.105516 0.797442 0.223979
0.246795 0.796570 0.222805
0.387135 0.795705 0.221640
0.526601 0.794845 0.220482
0.664949 0.793992 0.219333
0.801818 0.793148 0.218197
0.936799 0.792315 0.217076
1.000000 0.791885 0.216483
0.000000 0.931964 0.221242
0.103186 0.931178 0.220183
0.244465 0.930307 0.219010
0.384805 0.929441 0.217845
0.524271 0.928581 0.216687
0.662619 0.927728 0.215538
0.799488 0.926884 0.214402
0.934469 0.926051 0.213281
1.000000 0.925633 0.212700
0.000000 1.000000 0.219009
0.101847 1.000000 0.217957
0.243135 1.000000 0.216792
0.383483 1.000000 0.215635
0.522958 1.000000 0.214485
0.661313 1.000000 0.213345
0.798191 1.000000 0.212216
0.933179 1.000000 0.211103
1.000000 1.000000 0.210534
0.000139 0.000000 0.388073
0.127215 0.000000 0.386890
0.267979 0.000000 0.385579
0.407807 0.000000 0.384276
0.546765 0.000000 0.382982
0.684608 0.000000 0.381698
0.820978 0.000000 0.380428
0.955467 0.000000 0.379176
1.000000 0.000000 0.378477
0.000000 0.116897 0.384305
0.123664 0.115849 0.383122
0.264428 0.114689 0.381811
0.404256 0.113537 0.380508
0.543214 0.112392 0.379214
0.681057 0.111256 0.377930
0.817427 0.110132 0.376660
0.951915 0.109023 0.375408
1.000000 0.108404 0.374707
0.000000 0.253909 0.379929
0.119540 0.252862 0.378746
0.260304 0.251702 0.377435
0.400132 0.250549 0.376132
0.539090 0.249404 0.374838
0.676933 0.248268 0.373554
0.813303 0.247144 0.372284
0.947792 0.246036 0.371032
1.000000 0.245414 0.370329
0.000000 0.390659 0.375562
0.115424 0.389611 0.374378
0.256188 0.388451 0.373067
0.396016 0.387299 0.371765
0.534974 0.386154 0.370471
0.672817 0.385018 0.369187
0.809187 0.383894 0.367917
0.943691 0.382794 0.366669
1.000000 0.382328 0.366040
0.000000 0.527006 0.371207
0.111320 0.525959 0.370024
0.252084 0.524799 0.368713
0.391912 0.523646 0.367411
0.531101 0.522631 0.366178
0.669449 0.521777 0.365029
0.806318 0.520933 0.363893
0.941299 0.520101 0.362772
1.000000 0.519647 0.362156
0.000000 0.662605 0.366877
0.107636 0.661780 0.365800
0.248915 0.660909 0.364627
0.389255 0.660043 0.363461
0.528722 0.659183 0.362303
0.667069 0.658330 0.361154
0.803939 0.657486 0.360018
0.938919 0.656654 0.358897
1.000000 0.656212 0.358293
0.000000 0.797940 0.363017
0.105277 0.797153 0.361958
0.246557 0.796282 0.360785
0.386896 0.795417 0.359620
0.526363 0.794557 0.358461
0.664711 0.793703 0.357313
0.801580 0.792859 0.356176
0.936561 0.792027 0.355055
1.000000 0.791598 0.354464
0.000000 0.931676 0.359222
0.102947 0.930889 0.358163
0.244227 0.930018 0.356990
0.384566 0.929153 0.355824
0.524033 0.928293 0.354666
0.662380 0.927440 0.353518
0.799250 0.926596 0.352381
0.934230 0.925763 0.351260
1.000000 0.925346 0.350681
0.000000 1.000000 0.356991
0.101612 1.000000 0.355939
0.242899 1.000000 0.354774
0.383247 1.000000 0.353617
0.522722 1.000000 0.352468
0.661078 1.000000 0.351327
0.797955 1.000000 0.350198
0.932944 1.000000 0.349086
1.000000 1.000000 0.348518
0.000000 0.000000 0.526550
0.126805 0.000000 0.525367
0.267569 0.000000 0.524056
0.407397 0.000000 0.522753
0.546355 0.000000 0.521459
0.684198 0.000000 0.520175
0.820568 0.000000 0.518905
0.955056 0.000000 0.517653
1.000000 0.000000 0.516954
0.000000 0.116511 0.522782
0.123254 0.115464 0.521598
0.264018 0.114304 0.520287
0.403845 0.113152 0.518985
0.542803 0.112006 0.517691
0.680646 0.110870 0.516407
0.817016 0.109746 0.515137
0.951505 0.108638 0.513884
1.000000 0.108018 0.513184
0.000000 0.253524 0.518406
0.119130 0.252477 0.517223
0.259894 0.251316 0.515912
0.399721 0.250164 0.514609
0.538680 0.249019 0.513315
0.676523 0.247883 0.512031
0.812893 0.246759 0.510761
0.947381 0.245651 0.509509
1.000000 0.245029 0.508806
0.000000 0.390273 0.514039
0.115014 0.389226 0.512855
0.255778 0.388066 0.511544
0.395606 0.386914 0.510242
0.534564 0.385768 0.508948
0.672407 0.384632 0.507664
0.808777 0.383508 0.506394
0.943452 0.382505 0.505191
1.000000 0.382040 0.504564
0.000000 0.526621 0.509684
0.110910 0.525574 0.508501
0.251674 0.524413 0.507190
0.391502 0.523261 0.505887
0.530862 0.522341 0.504701
0.669209 0.521488 0.503552
0.806079 0.520644 0.502416
0.941059 0.519812 0.501295
1.000000 0.519359 0.500680
0.000000 0.662277 0.505381
0.107397 0.661490 0.504322
0.248676 0.660619 0.503149
0.389016 0.659754 0.501984
0.528483 0.658894 0.500826
0.666830 0.658041 0.499677
0.803699 0.657197 0.498540
0.938680 0.656364 0.497420
1.000000 0.655924 0.496817
0.000000 0.797650 0.501540
0.105038 0.796864 0.500481
0.246317 0.795993 0.499308
0.386657 0.795127 0.498142
0.526124 0.794267 0.496984
0.664471 0.793414 0.495835
0.801341 0.792570 0.494699
0.936321 0.791738 0.493578
1.000000 0.791310 0.492988
0.000000 0.931387 0.497745
0.102708 0.930600 0.496686
0.243987 0.929729 0.495512
0.384327 0.928863 0.494347
0.523794 0.928003 0.493189
0.662141 0.927150 0.492040
0.799010 0.926306 0.490904
0.933991 0.925474 0.489783
1.000000 0.925058 0.489205
0.000000 1.000000 0.495516
0.101375 1.000000 0.494465
0.242663 1.000000 0.493300
0.383011 1.000000 0.492143
0.522486 1.000000 0.490993
0.660841 1.000000 0.489852
0.797718 1.000000 0.488724
0.932707 1.000000 0.487611
1.000000 1.000000 0.487044
0.000000 0.000000 0.665004
0.126394 0.000000 0.663821
0.267158 0.000000 0.662510
0.406986 0.000000 0.661207
0.545944 0.000000 0.659913
0.683787 0.000000 0.658629
0.820157 0.000000 0.657359
0.954646 0.000000 0.656106
1.000000 0.000000 0.655407
0.000000 0.116126 0.661236
0.122843 0.115079 0.660052
0.263607 0.113919 0.658741
0.403435 0.112766 0.657439
0.542393 0.111621 0.656145
0.680236 0.110485 0.654861
0.816606 0.109361 0.653591
0.951095 0.108253 0.652338
1.000000 0.107633 0.651637
0.000000 0.253138 0.656860
0.118719 0.252091 0.655677
0.259483 0.250931 0.654366
0.399311 0.249779 0.653063
0.538269 0.248634 0.651769
0.676112 0.247498 0.650485
0.812482 0.246374 0.649215
0.946971 0.245265 0.647963
1.000000 0.244643 0.647260
0.000000 0.389888 0.652493
0.114603 0.388841 0.651309
0.255367 0.387681 0.649998
0.395195 0.386528 0.648696
0.534153 0.385383 0.647402
0.671996 0.384247 0.646118
0.808366 0.383123 0.644848
0.943212 0.382215 0.643691
1.000000 0.381752 0.643065
0.000000 0.526235 0.648138
0.110500 0.525188 0.646955
0.251264 0.524028 0.645644
0.391156 0.522912 0.644359
0.530623 0.522052 0.643201
0.668970 0.521199 0.642052
0.805839 0.520355 0.640915
0.940820 0.519522 0.639795
1.000000 0.519071 0.639181
0.000000 0.661988 0.643881
0.107158 0.661201 0.642822
0.248437 0.660330 0.641649
0.388777 0.659464 0.640484
0.528243 0.658604 0.639326
0.666591 0.657751 0.638177
0.803460 0.656907 0.637040
0.938441 0.656075 0.635919
1.000000 0.655636 0.635318
0.000000 0.797361 0.640040
0.104799 0.796575 0.638980
0.246078 0.795703 0.637807
0.386418 0.794838 0.636642
0.525885 0.793978 0.635484
0.664232 0.793125 0.634335
0.801101 0.792281 0.633199
0.936082 0.791448 0.632078
1.000000 0.791021 0.631489
0.000000 0.931097 0.636244
0.102469 0.930311 0.635185
0.243748 0.929439 0.634012
0.384088 0.928574 0.632847
0.523554 0.927714 0.631689
0.661902 0.926861 0.630540
0.798771 0.926017 0.629404
0.933752 0.925184 0.628283
1.000000 0.924769 0.627706
0.000000 1.000000 0.634019
0.101139 1.000000 0.632967
0.242426 1.000000 0.631802
0.382774 1.000000 0.630645
0.522249 1.000000 0.629496
0.660605 1.000000 0.628355
0.797482 1.000000 0.627226
0.932471 1.000000 0.626114
1.000000 1.000000 0.625548
0.000000 0.000000 0.802869
0.125986 0.000000 0.801686
0.266750 0.000000 0.800375
0.406577 0.000000 0.799072
0.545536 0.000000 0.797778
0.683379 0.000000 0.796494
0.819749 0.000000 0.795224
0.954237 0.000000 0.793972
1.000000 0.000000 0.793272
0.000000 0.115742 0.799101
0.122435 0.114695 0.797918
0.263198 0.113535 0.796607
0.403026 0.112382 0.795304
0.541984 0.111237 0.794010
0.679827 0.110101 0.792726
0.816197 0.108977 0.791456
0.950686 0.107869 0.790204
1.000000 0.107249 0.789502
0.000000 0.252755 0.794725
0.118311 0.251707 0.793542
0.259075 0.250547 0.792231
0.398902 0.249395 0.790929
0.537861 0.248250 0.789634
0.675703 0.247114 0.788351
0.812074 0.245990 0.787080
0.946562 0.244882 0.785828
1.000000 0.244259 0.785125
0.000000 0.389504 0.790358
0.114195 0.388457 0.789175
0.254959 0.387297 0.787864
0.394786 0.386144 0.786561
0.533745 0.384999 0.785267
0.671588 0.383863 0.783983
0.807993 0.382760 0.782723
0.942974 0.381927 0.781602
1.000000 0.381465 0.780977
0.000000 0.525852 0.786004
0.110091 0.524804 0.784820
0.250855 0.523644 0.783509
0.390918 0.522624 0.782270
0.530384 0.521764 0.781112
0.668732 0.520910 0.779963
0.805601 0.520066 0.778826
0.940582 0.519234 0.777705
1.000000 0.518784 0.777093
0.000000 0.661699 0.781792
0.106919 0.660913 0.780733
0.248199 0.660042 0.779560
0.388538 0.659176 0.778395
0.528005 0.658316 0.777236
0.666353 0.657463 0.776088
0.803222 0.656619 0.774951
0.938203 0.655787 0.773830
1.000000 0.655349 0.773230
0.000000 0.797073 0.777950
0.104561 0.796286 0.776891
0.245840 0.795415 0.775718
0.386180 0.794550 0.774553
0.525646 0.793690 0.773395
0.663994 0.792836 0.772246
0.800863 0.791992 0.771110
0.935844 0.791160 0.769989
1.000000 0.790734 0.769401
0.000000 0.930809 0.774155
0.102231 0.930022 0.773096
0.243510 0.929151 0.771923
0.383849 0.928286 0.770758
0.523316 0.927426 0.769600
0.661664 0.926573 0.768451
0.798533 0.925729 0.767314
0.933514 0.924896 0.766194
1.000000 0.924482 0.765618
0.000000 1.000000 0.771932
0.100903 1.000000 0.770881
0.242191 1.000000 0.769716
0.382539 1.000000 0.768559
0.522014 1.000000 0.767409
0.660369 1.000000 0.766269
0.797246 1.000000 0.765140
0.932235 1.000000 0.764027
1.000000 1.000000 0.763463
0.000000 0.000000 0.939580
0.125580 0.000000 0.938397
0.266344 0.000000 0.937086
0.406172 0.000000 0.935783
0.545130 0.000000 0.934489
0.682973 0.000000 0.933205
0.819343 0.000000 0.931935
0.953832 0.000000 0.930682
1.000000 0.000000 0.929983
0.000000 0.115362 0.935812
0.122029 0.114314 0.934628
0.262793 0.113154 0.933317
0.402621 0.112002 0.932015
0.541579 0.110857 0.930721
0.679422 0.109721 0.929437
0.815792 0.108597 0.928167
0.950281 0.107489 0.926914
1.000000 0.106868 0.926213
0.000000 0.252374 0.931436
0.117905 0.251327 0.930253
0.258669 0.250167 0.928942
0.398497 0.249015 0.927639
0.537455 0.247869 0.926345
0.675298 0.246733 0.925061
0.811668 0.245609 0.923791
0.946157 0.244501 0.922539
1.000000 0.243879 0.921835
0.000000 0.389124 0.927069
0.113789 0.388076 0.925885
0.254553 0.386916 0.924574
0.394381 0.385764 0.923272
0.533339 0.384619 0.921978
0.671182 0.383483 0.920694
0.807757 0.382474 0.919479
0.942738 0.381641 0.918358
1.000000 0.381180 0.917735
0.000000 0.525471 0.922714
0.109686 0.524424 0.921531
0.250450 0.523264 0.920220
0.390681 0.522338 0.919026
0.530148 0.521478 0.917867
0.668496 0.520625 0.916719
0.805365 0.519781 0.915582
0.940346 0.518948 0.914461
1.000000 0.518500 0.913850
0.000000 0.661414 0.918548
0.106683 0.660627 0.917489
0.247962 0.659756 0.916316
0.388302 0.658890 0.915150
0.527769 0.658030 0.913992
0.666116 0.657177 0.912844
0.802986 0.656333 0.911707
0.937966 0.655501 0.910586
1.000000 0.655064 0.909988
0.000000 0.796787 0.914706
0.104324 0.796001 0.913647
0.245604 0.795129 0.912474
0.385943 0.794264 0.911309
0.525410 0.793404 0.910151
0.663758 0.792551 0.909002
0.800627 0.791707 0.907865
0.935608 0.790874 0.906745
1.000000 0.790450 0.906158
0.000000 0.930523 0.910911
0.101994 0.929737 0.909852
0.243274 0.928865 0.908679
0.383613 0.928000 0.907514
0.523080 0.927140 0.906356
0.661427 0.926287 0.905207
0.798297 0.925443 0.904070
0.933277 0.924610 0.902950
1.000000 0.924198 0.902375
0.000000 1.000000 0.908691
0.100670 1.000000 0.907640
0.241957 1.000000 0.906475
0.382305 1.000000 0.905318
0.521780 1.000000 0.904168
0.660136 1.000000 0.903027
0.797013 1.000000 0.901899
0.932002 1.000000 0.900786
1.000000 1.000000 0.900223
0.000000 0.000000 1.000000
0.125291 0.000000 1.000000
0.266054 0.000000 1.000000
0.405882 0.000000 1.000000
0.544839 0.000000 1.000000
0.682682 0.000000 1.000000
0.819051 0.000000 1.000000
0.953540 0.000000 1.000000
1.000000 0.000000 1.000000
0.000000 0.115089 1.000000
0.121738 0.114041 1.000000
0.262502 0.112881 1.000000
0.402329 0.111728 1.000000
0.541287 0.110583 1.000000
0.679129 0.109446 1.000000
0.815499 0.108322 1.000000
0.949987 0.107213 1.000000
1.000000 0.106592 1.000000
0.000000 0.252100 1.000000
0.117613 0.251053 1.000000
0.258377 0.249892 1.000000
0.398204 0.248739 1.000000
0.537162 0.247594 1.000000
0.675004 0.246457 1.000000
0.811374 0.245333 1.000000
0.945862 0.244224 1.000000
1.000000 0.243601 1.000000
0.000000 0.388848 1.000000
0.113496 0.387801 1.000000
0.254259 0.386640 1.000000
0.394087 0.385487 1.000000
0.533044 0.384342 1.000000
0.670887 0.383205 1.000000
0.807585 0.382265 1.000000
0.942566 0.381433 1.000000
1.000000 0.380973 1.000000
0.000000 0.525194 1.000000
0.109390 0.524147 1.000000
0.250169 0.522995 1.000000
0.390509 0.522129 1.000000
0.529976 0.521269 1.000000
0.668323 0.520416 1.000000
0.805192 0.519572 1.000000
0.940173 0.518740 1.000000
1.000000 0.518292 1.000000
0.000000 0.661205 1.000000
0.106511 0.660419 1.000000
0.247790 0.659547 1.000000
0.388130 0.658682 1.000000
0.527596 0.657822 1.000000
0.665944 0.656969 1.000000
0.802813 0.656125 1.000000
0.937794 0.655292 1.000000
1.000000 0.654857 1.000000
0.000000 0.796579 1.000000
0.104152 0.795792 1.000000
0.245431 0.794921 1.000000
0.385771 0.794055 1.000000
0.525238 0.793195 1.000000
0.663585 0.792342 1.000000
0.800454 0.791498 1.000000
0.935435 0.790666 1.000000
1.000000 0.790242 1.000000
0.000000 0.930315 1.000000
0.101822 0.929528 1.000000
0.243101 0.928657 1.000000
0.383441 0.927792 1.000000
0.522908 0.926931 1.000000
0.661255 0.926078 1.000000
0.798124 0.925234 1.000000
0.933105 0.924402 1.000000
1.000000 0.923990 1.000000
0.000000 1.000000 1.000000
0.100499 1.000000 1.000000
0.241787 1.000000 1.000000
0.382135 1.000000 1.000000
0.521610 1.000000 1.000000
0.659965 1.000000 1.000000
0.796843 1.000000 1.000000
0.931831 1.000000 1.000000
1.000000 1.000000 1.000000
