assets/preview/luts/clean_aesthetic.cube
TITLE "Clean Aesthetic (Skin)"
LUT_3D_SIZE 33
DOMAIN_MIN 0.0 0.0 0.0
DOMAIN_MAX 1.0 1.0 1.0
0.001282 0.000000 0.002582
0.021401 0.000000 0.002395
0.057312 0.000000 0.002060
0.092925 0.000000 0.001729
0.128358 0.000000 0.001399
0.163668 0.000000 0.001070
0.198887 0.000000 0.000742
0.234035 0.000000 0.000414
0.269122 0.000000 0.000088
0.304155 0.000000 0.000000
0.339137 0.000000 0.000000
0.374069 0.000000 0.000000
0.408950 0.000000 0.000000
0.443777 0.000000 0.000000
0.478549 0.000000 0.000000
0.513261 0.000000 0.000000
0.547908 0.000000 0.000000
0.582486 0.000000 0.000000
0.616989 0.000000 0.000000
0.651413 0.000000 0.000000
0.685751 0.000000 0.000000
0.719997 0.000000 0.000000
0.754145 0.000000 0.000000
0.788188 0.000000 0.000000
0.822121 0.000000 0.000000
0.855936 0.000000 0.000000
0.889627 0.000000 0.000000
0.923187 0.000000 0.000000
0.956609 0.000000 0.000000
0.989887 0.000000 0.000000
1.000000 0.000000 0.000000
1.000000 0.000000 0.000000
1.000000 0.000000 0.000000
0.000841 0.014624 0.002115
0.020960 0.014458 0.001927
0.056871 0.014162 0.001593
0.092484 0.013869 0.001261
0.127917 0.013577 0.000931
0.163227 0.013286 0.000602
0.198447 0.012995 0.000274
0.233594 0.012706 0.000000
0.268681 0.012417 0.000000
0.303714 0.012128 0.000000
0.338696 0.011840 0.000000
0.373628 0.011552 0.000000
0.408509 0.011264 0.000000
0.443337 0.010977 0.000000
0.478108 0.010691 0.000000
0.512820 0.010405 0.000000
0.547467 0.010119 0.000000
0.582045 0.009834 0.000000
0.616549 0.009550 0.000000
0.650972 0.009266 0.000000
0.685310 0.008983 0.000000
0.719556 0.008701 0.000000
0.753704 0.008419 0.000000
0.787748 0.008139 0.000000
0.821680 0.007859 0.000000
0.855495 0.007581 0.000000
0.889186 0.007303 0.000000
0.922746 0.007026 0.000000
0.956169 0.006751 0.000000
0.989446 0.006477 0.000000
1.000000 0.006204 0.000000
1.000000 0.006133 0.000000
1.000000 0.006133 0.000000
0.000000 0.049210 0.001010
0.019919 0.049044 0.000823
0.055830 0.048748 0.000488
0.091443 0.048455 0.000156
0.126876 0.048163 0.000000
0.162186 0.047872 0.000000
0.197406 0.047581 0.000000
0.232553 0.047292 0.000000
0.267640 0.047003 0.000000
0.302673 0.046714 0.000000
0.337655 0.046426 0.000000
0.372587 0.046138 0.000000
0.407468 0.045850 0.000000
0.442296 0.045563 0.000000
0.477067 0.045277 0.000000
0.511779 0.044991 0.000000
0.546426 0.044705 0.000000
0.581004 0.044420 0.000000
0.615508 0.044136 0.000000
0.649931 0.043852 0.000000
0.684269 0.043569 0.000000
0.718515 0.043287 0.000000
0.752663 0.043005 0.000000
0.786707 0.042725 0.000000
0.820639 0.042445 0.000000
0.854454 0.042167 0.000000
0.888145 0.041889 0.000000
0.921705 0.041612 0.000000
0.955128 0.041337 0.000000
0.988405 0.041063 0.000000
1.000000 0.040790 0.000000
1.000000 0.040719 0.000000
1.000000 0.040719 0.000000
0.000000 0.083632 0.000000
0.018883 0.083466 0.000000
0.054794 0.083171 0.000000
0.090407 0.082877 0.000000
0.125840 0.082585 0.000000
0.161150 0.082294 0.000000
0.196370 0.082004 0.000000
0.231517 0.081714 0.000000
0.266604 0.081425 0.000000
0.301637 0.081136 0.000000
0.336619 0.080848 0.000000
0.371551 0.080560 0.000000
0.406432 0.080273 0.000000
0.441260 0.079986 0.000000
0.476031 0.079699 0.000000
0.510743 0.079413 0.000000
0.545390 0.079127 0.000000
0.579968 0.078842 0.000000
0.614472 0.078558 0.000000
0.648895 0.078274 0.000000
0.683233 0.077991 0.000000
0.717479 0.077709 0.000000
0.751627 0.077428 0.000000
0.785670 0.077147 0.000000
0.819603 0.076867 0.000000
0.853418 0.076589 0.000000
0.887109 0.076311 0.000000
0.920669 0.076035 0.000000
0.954092 0.075759 0.000000
0.987369 0.075485 0.000000
1.000000 0.075212 0.000000
1.000000 0.075141 0.000000
1.000000 0.075141 0.000000
0.000000 0.117970 0.000000
0.017850 0.117804 0.000000
0.053760 0.117508 0.000000
0.089374 0.117214 0.000000
0.124807 0.116922 0.000000
0.160117 0.116631 0.000000
0.195336 0.116341 0.000000
0.230484 0.116051 0.000000
0.265571 0.115762 0.000000
0.300604 0.115473 0.000000
0.335586 0.115185 0.000000
0.370518 0.114897 0.000000
0.405399 0.114610 0.000000
0.440226 0.114323 0.000000
0.474998 0.114036 0.000000
0.509709 0.113750 0.000000
0.544357 0.113465 0.000000
0.578935 0.113180 0.000000
0.613438 0.112895 0.000000
0.647862 0.112612 0.000000
0.682200 0.112329 0.000000
0.716446 0.112046 0.000000
0.750593 0.111765 0.000000
0.784637 0.111484 0.000000
0.818570 0.111205 0.000000
0.852385 0.110926 0.000000
0.886076 0.110648 0.000000
0.919636 0.110372 0.000000
0.953058 0.110096 0.000000
0.986336 0.109822 0.000000
1.000000 0.109549 0.000000
1.000000 0.109477 0.000000
1.000000 0.109477 0.000000
0.000000 0.152258 0.000000
0.016818 0.152093 0.000000
0.052728 0.151797 0.000000
0.088342 0.151503 0.000000
0.123775 0.151211 0.000000
0.159085 0.150920 0.000000
0.194304 0.150630 0.000000
0.229452 0.150340 0.000000
0.264539 0.150051 0.000000
0.299572 0.149762 0.000000
0.334554 0.149474 0.000000
0.369486 0.149186 0.000000
0.404366 0.148899 0.000000
0.439194 0.148612 0.000000
0.473966 0.148325 0.000000
0.508677 0.148039 0.000000
0.543325 0.147753 0.000000
0.577903 0.147468 0.000000
0.612406 0.147184 0.000000
0.646830 0.146900 0.000000
0.681168 0.146617 0.000000
0.715413 0.146335 0.000000
0.749561 0.146054 0.000000
0.783605 0.145773 0.000000
0.817538 0.145494 0.000000
0.851353 0.145215 0.000000
0.885044 0.144937 0.000000
0.918604 0.144661 0.000000
0.952026 0.144385 0.000000
0.985304 0.144111 0.000000
1.000000 0.143838 0.000000
1.000000 0.143766 0.000000
1.000000 0.143766 0.000000
0.000000 0.186518 0.000000
0.015786 0.186352 0.000000
0.051697 0.186056 0.000000
0.087311 0.185762 0.000000
0.122744 0.185470 0.000000
0.158054 0.185179 0.000000
0.193273 0.184889 0.000000
0.228420 0.184599 0.000000
0.263508 0.184310 0.000000
0.298541 0.184022 0.000000
0.333523 0.183733 0.000000
0.368454 0.183445 0.000000
0.403335 0.183158 0.000000
0.438163 0.182871 0.000000
0.472935 0.182584 0.000000
0.507646 0.182298 0.000000
0.542293 0.182013 0.000000
0.576871 0.181728 0.000000
0.611375 0.181443 0.000000
0.645799 0.181160 0.000000
0.680136 0.180877 0.000000
0.714382 0.180594 0.000000
0.748530 0.180313 0.000000
0.782574 0.180032 0.000000
0.816506 0.179753 0.000000
0.850322 0.179474 0.000000
0.884013 0.179196 0.000000
0.917573 0.178920 0.000000
0.950995 0.178644 0.000000
0.984272 0.178370 0.000000
1.000000 0.178097 0.000000
1.000000 0.178024 0.000000
1.000000 0.178024 0.000000
0.000000 0.220757 0.000000
0.014756 0.220591 0.000000
0.050667 0.220296 0.000000
0.086280 0.220002 0.000000
0.121713 0.219710 0.000000
0.157023 0.219419 0.000000
0.192242 0.219129 0.000000
0.227390 0.218839 0.000000
0.262477 0.218550 0.000000
0.297510 0.218261 0.000000
0.332492 0.217973 0.000000
0.367424 0.217685 0.000000
0.402305 0.217398 0.000000
0.437133 0.217111 0.000000
0.471904 0.216824 0.000000
0.506616 0.216538 0.000000
0.541263 0.216252 0.000000
0.575841 0.215967 0.000000
0.610344 0.215683 0.000000
0.644768 0.215399 0.000000
0.679106 0.215116 0.000000
0.713352 0.214834 0.000000
0.747500 0.214553 0.000000
0.781543 0.214272 0.000000
0.815476 0.213992 0.000000
0.849291 0.213714 0.000000
0.882982 0.213436 0.000000
0.916542 0.213160 0.000000
0.949964 0.212884 0.000000
0.983242 0.212610 0.000000
1.000000 0.212337 0.000000
1.000000 0.212264 0.000000
1.000000 0.212264 0.000000
0.000000 0.254982 0.000000
0.013726 0.254816 0.000000
0.049637 0.254520 0.000000
0.085250 0.254227 0.000000
0.120683 0.253935 0.000000
0.155993 0.253644 0.000000
0.191212 0.253354 0.000000
0.226360 0.253064 0.000000
0.261447 0.252775 0.000000
0.296480 0.252486 0.000000
0.331462 0.252198 0.000000
0.366394 0.251910 0.000000
0.401275 0.251622 0.000000
0.436102 0.251335 0.000000
0.470874 0.251049 0.000000
0.505586 0.250763 0.000000
0.540233 0.250477 0.000000
0.574811 0.250192 0.000000
0.609314 0.249908 0.000000
0.643738 0.249624 0.000000
0.678076 0.249341 0.000000
0.712322 0.249059 0.000000
0.746470 0.248777 0.000000
0.780513 0.248497 0.000000
0.814446 0.248217 0.000000
0.848261 0.247939 0.000000
0.881952 0.247661 0.000000
0.915512 0.247384 0.000000
0.948934 0.247109 0.000000
0.982212 0.246835 0.000000
1.000000 0.246562 0.000000
1.000000 0.246488 0.000000
1.000000 0.246488 0.000000
0.000000 0.289193 0.000000
0.012696 0.289028 0.000000
0.048607 0.288732 0.000000
0.084220 0.288438 0.000000
0.119653 0.288146 0.000000
0.154963 0.287855 0.000000
0.190183 0.287565 0.000000
0.225330 0.287275 0.000000
0.260417 0.286986 0.000000
0.295450 0.286697 0.000000
0.330432 0.286409 0.000000
0.365364 0.286121 0.000000
0.400245 0.285834 0.000000
0.435073 0.285547 0.000000
0.469844 0.285260 0.000000
0.504556 0.284974 0.000000
0.539203 0.284689 0.000000
0.573781 0.284404 0.000000
0.608285 0.284119 0.000000
0.642708 0.283835 0.000000
0.677046 0.283553 0.000000
0.711292 0.283270 0.000000
0.745440 0.282989 0.000000
0.779483 0.282708 0.000000
0.813416 0.282429 0.000000
0.847231 0.282150 0.000000
0.880922 0.281872 0.000000
0.914482 0.281596 0.000000
0.947905 0.281320 0.000000
0.981182 0.281046 0.000000
1.000000 0.280773 0.000000
1.000000 0.280699 0.000000
1.000000 0.280699 0.000000
0.000000 0.323391 0.000000
0.011667 0.323225 0.000000
0.047578 0.322929 0.000000
0.083191 0.322635 0.000000
0.118624 0.322343 0.000000
0.153934 0.322052 0.000000
0.189153 0.321762 0.000000
0.224301 0.321472 0.000000
0.259388 0.321183 0.000000
0.294421 0.320894 0.000000
0.329403 0.320606 0.000000
0.364335 0.320318 0.000000
0.399216 0.320031 0.000000
0.434043 0.319744 0.000000
0.468815 0.319457 0.000000
0.503527 0.319171 0.000000
0.538174 0.318886 0.000000
0.572752 0.318601 0.000000
0.607255 0.318316 0.000000
0.641679 0.318033 0.000000
0.676017 0.317750 0.000000
0.710263 0.317467 0.000000
0.744411 0.317186 0.000000
0.778454 0.316905 0.000000
0.812387 0.316626 0.000000
0.846202 0.316347 0.000000
0.879893 0.316069 0.000000
0.913453 0.315793 0.000000
0.946875 0.315517 0.000000
0.980153 0.315243 0.000000
1.000000 0.314970 0.000000
1.000000 0.314895 0.000000
1.000000 0.314895 0.000000
0.000000 0.357571 0.000000
0.010638 0.357405 0.000000
0.046549 0.357109 0.000000
0.082162 0.356816 0.000000
0.117595 0.356524 0.000000
0.152905 0.356233 0.000000
0.188124 0.355943 0.000000
0.223272 0.355653 0.000000
0.258359 0.355364 0.000000
0.293392 0.355075 0.000000
0.328374 0.354787 0.000000
0.363306 0.354499 0.000000
0.398187 0.354211 0.000000
0.433015 0.353924 0.000000
0.467786 0.353638 0.000000
0.502498 0.353352 0.000000
0.537145 0.353066 0.000000
0.571723 0.352781 0.000000
0.606227 0.352497 0.000000
0.640650 0.352213 0.000000
0.674988 0.351930 0.000000
0.709234 0.351648 0.000000
0.743382 0.351366 0.000000
0.777425 0.351086 0.000000
0.811358 0.350806 0.000000
0.845173 0.350528 0.000000
0.878864 0.350250 0.000000
0.912424 0.349973 0.000000
0.945847 0.349698 0.000000
0.979124 0.349424 0.000000
1.000000 0.349151 0.000000
1.000000 0.349075 0.000000
1.000000 0.349075 0.000000
0.000000 0.391732 0.000000
0.009610 0.391566 0.000000
0.045521 0.391270 0.000000
0.081134 0.390976 0.000000
0.116567 0.390684 0.000000
0.151877 0.390393 0.000000
0.187096 0.390103 0.000000
0.222244 0.389813 0.000000
0.257331 0.389524 0.000000
0.292364 0.389235 0.000000
0.327346 0.388947 0.000000
0.362278 0.388659 0.000000
0.397159 0.388372 0.000000
0.431986 0.388085 0.000000
0.466758 0.387798 0.000000
0.501470 0.387512 0.000000
0.536117 0.387227 0.000000
0.570695 0.386942 0.000000
0.605198 0.386657 0.000000
0.639622 0.386374 0.000000
0.673960 0.386091 0.000000
0.708206 0.385808 0.000000
0.742354 0.385527 0.000000
0.776397 0.385246 0.000000
0.810330 0.384967 0.000000
0.844145 0.384688 0.000000
0.877836 0.384410 0.000000
0.911396 0.384134 0.000000
0.944818 0.383858 0.000000
0.978096 0.383584 0.000000
1.000000 0.383311 0.000000
1.000000 0.383235 0.000000
1.000000 0.383235 0.000000
0.000000 0.425868 0.000000
0.008582 0.425702 0.000000
0.044493 0.425406 0.000000
0.080107 0.425112 0.000000
0.115540 0.424820 0.000000
0.150850 0.424529 0.000000
0.186069 0.424239 0.000000
0.221216 0.423950 0.000000
0.256304 0.423660 0.000000
0.291337 0.423372 0.000000
0.326319 0.423083 0.000000
0.361250 0.422795 0.000000
0.396131 0.422508 0.000000
0.430959 0.422221 0.000000
0.465731 0.421934 0.000000
0.500442 0.421648 0.000000
0.535089 0.421363 0.000000
0.569667 0.421078 0.000000
0.604171 0.420793 0.000000
0.638595 0.420510 0.000000
0.672932 0.420227 0.000000
0.707178 0.419945 0.000000
0.741326 0.419663 0.000000
0.775370 0.419383 0.000000
0.809302 0.419103 0.000000
0.843118 0.418824 0.000000
0.876809 0.418547 0.000000
0.910369 0.418270 0.000000
0.943791 0.417995 0.000000
0.977158 0.417770 0.000000
1.000000 0.417565 0.000000
1.000000 0.417510 0.000000
1.000000 0.417510 0.000000
0.000000 0.459975 0.000000
0.007556 0.459809 0.000000
0.043467 0.459513 0.000000
0.079080 0.459219 0.000000
0.114513 0.458927 0.000000
0.149823 0.458636 0.000000
0.185042 0.458346 0.000000
0.220190 0.458057 0.000000
0.255277 0.457767 0.000000
0.290310 0.457479 0.000000
0.325292 0.457190 0.000000
0.360224 0.456902 0.000000
0.395105 0.456615 0.000000
0.429932 0.456328 0.000000
0.464704 0.456041 0.000000
0.499416 0.455755 0.000000
0.534063 0.455470 0.000000
0.568641 0.455185 0.000000
0.603144 0.454900 0.000000
0.637568 0.454617 0.000000
0.671906 0.454334 0.000000
0.706152 0.454052 0.000000
0.740300 0.453770 0.000000
0.774343 0.453490 0.000000
0.808276 0.453210 0.000000
0.842118 0.452946 0.000000
0.875932 0.452738 0.000000
0.909615 0.452530 0.000000
0.943160 0.452323 0.000000
0.976559 0.452117 0.000000
1.000000 0.451912 0.000000
1.000000 0.451860 0.000000
1.000000 0.451860 0.000000
0.000000 0.494047 0.000000
0.006530 0.493881 0.000000
0.042441 0.493585 0.000000
0.078055 0.493292 0.000000
0.113487 0.493000 0.000000
0.148797 0.492709 0.000000
0.184017 0.492419 0.000000
0.219164 0.492129 0.000000
0.254251 0.491840 0.000000
0.289284 0.491551 0.000000
0.324266 0.491263 0.000000
0.359198 0.490975 0.000000
0.394079 0.490687 0.000000
0.428907 0.490400 0.000000
0.463678 0.490114 0.000000
0.498390 0.489828 0.000000
0.533037 0.489542 0.000000
0.567615 0.489257 0.000000
0.602119 0.488973 0.000000
0.636542 0.488689 0.000000
0.670880 0.488406 0.000000
0.705126 0.488124 0.000000
0.739356 0.487888 0.000000
0.773524 0.487678 0.000000
0.807581 0.487468 0.000000
0.841520 0.487258 0.000000
0.875334 0.487050 0.000000
0.909017 0.486842 0.000000
0.942562 0.486635 0.000000
0.975961 0.486429 0.000000
1.000000 0.486224 0.000000
1.000000 0.486175 0.000000
1.000000 0.486175 0.000000
0.000000 0.528079 0.000000
0.005506 0.527913 0.000000
0.041417 0.527617 0.000000
0.077030 0.527324 0.000000
0.112463 0.527032 0.000000
0.147773 0.526741 0.000000
0.182992 0.526451 0.000000
0.218140 0.526161 0.000000
0.253227 0.525872 0.000000
0.288260 0.525583 0.000000
0.323242 0.525295 0.000000
0.358174 0.525007 0.000000
0.393055 0.524719 0.000000
0.427883 0.524432 0.000000
0.462654 0.524146 0.000000
0.497366 0.523860 0.000000
0.532013 0.523574 0.000000
0.566591 0.523289 0.000000
0.601102 0.523009 0.000000
0.635651 0.522796 0.000000
0.670115 0.522583 0.000000
0.704486 0.522371 0.000000
0.738759 0.522160 0.000000
0.772927 0.521949 0.000000
0.806984 0.521739 0.000000
0.840923 0.521530 0.000000
0.874737 0.521321 0.000000
0.908420 0.521114 0.000000
0.941965 0.520907 0.000000
0.975364 0.520701 0.000000
1.000000 0.520496 0.000000
1.000000 0.520450 0.000000
1.000000 0.520450 0.000000
0.000000 0.562065 0.000000
0.004483 0.561899 0.000000
0.040394 0.561603 0.000000
0.076007 0.561309 0.000000
0.111440 0.561017 0.000000
0.146750 0.560726 0.000000
0.181970 0.560436 0.000000
0.217117 0.560146 0.000000
0.252204 0.559857 0.000000
0.287237 0.559568 0.000000
0.322219 0.559280 0.000000
0.357151 0.558992 0.000000
0.392032 0.558705 0.000000
0.426860 0.558418 0.000000
0.461631 0.558131 0.000000
0.496397 0.557875 0.000000
0.531171 0.557661 0.000000
0.565876 0.557447 0.000000
0.600505 0.557233 0.000000
0.635055 0.557020 0.000000
0.669518 0.556808 0.000000
0.703890 0.556596 0.000000
0.738163 0.556385 0.000000
0.772331 0.556174 0.000000
0.806388 0.555964 0.000000
0.840327 0.555755 0.000000
0.874141 0.555546 0.000000
0.907824 0.555338 0.000000
0.941368 0.555131 0.000000
0.974768 0.554925 0.000000
1.000000 0.554720 0.000000
1.000000 0.554677 0.000000
1.000000 0.554677 0.000000
0.000000 0.595997 0.000000
0.003462 0.595831 0.000000
0.039373 0.595535 0.000000
0.074986 0.595242 0.000000
0.110419 0.594950 0.000000
0.145729 0.594659 0.000000
0.180948 0.594369 0.000000
0.216096 0.594079 0.000000
0.251183 0.593790 0.000000
0.286216 0.593501 0.000000
0.321198 0.593213 0.000000
0.356130 0.592925 0.000000
0.391109 0.592692 0.000000
0.426064 0.592477 0.000000
0.460963 0.592262 0.000000
0.495801 0.592047 0.000000
0.530576 0.591832 0.000000
0.565280 0.591618 0.000000
0.599910 0.591405 0.000000
0.634460 0.591192 0.000000
0.668923 0.590979 0.000000
0.703294 0.590767 0.000000
0.737567 0.590556 0.000000
0.771735 0.590345 0.000000
0.805792 0.590135 0.000000
0.839731 0.589926 0.000000
0.873546 0.589717 0.000000
0.907228 0.589510 0.000000
0.940773 0.589303 0.000000
0.974172 0.589097 0.000000
1.000000 0.588892 0.000000
1.000000 0.588852 0.000000
1.000000 0.588852 0.000000
0.000000 0.629870 0.000000
0.002442 0.629705 0.000000
0.038353 0.629409 0.000000
0.073966 0.629115 0.000000
0.109399 0.628823 0.000000
0.144709 0.628532 0.000000
0.179929 0.628242 0.000000
0.215076 0.627952 0.000000
0.250175 0.627669 0.000000
0.285336 0.627453 0.000000
0.320446 0.627236 0.000000
0.355506 0.627020 0.000000
0.390514 0.626804 0.000000
0.425470 0.626588 0.000000
0.460368 0.626373 0.000000
0.495207 0.626158 0.000000
0.529981 0.625944 0.000000
0.564686 0.625730 0.000000
0.599316 0.625516 0.000000
0.633865 0.625303 0.000000
0.668329 0.625091 0.000000
0.702700 0.624879 0.000000
0.736973 0.624667 0.000000
0.771141 0.624457 0.000000
0.805198 0.624247 0.000000
0.839137 0.624037 0.000000
0.872951 0.623829 0.000000
0.906634 0.623621 0.000000
0.940179 0.623414 0.000000
0.973578 0.623208 0.000000
1.000000 0.623003 0.000000
1.000000 0.622966 0.000000
1.000000 0.622966 0.000000
0.000000 0.663677 0.000000
0.001425 0.663512 0.000000
0.037336 0.663216 0.000000
0.072949 0.662922 0.000000
0.108382 0.662630 0.000000
0.143742 0.662367 0.000000
0.179090 0.662149 0.000000
0.214366 0.661932 0.000000
0.249582 0.661714 0.000000
0.284743 0.661498 0.000000
0.319853 0.661281 0.000000
0.354913 0.661065 0.000000
0.389921 0.660849 0.000000
0.424876 0.660633 0.000000
0.459775 0.660418 0.000000
0.494614 0.660203 0.000000
0.529388 0.659989 0.000000
0.564093 0.659775 0.000000
0.598722 0.659561 0.000000
0.633272 0.659348 0.000000
0.667736 0.659136 0.000000
0.702107 0.658924 0.000000
0.736380 0.658712 0.000000
0.770548 0.658502 0.000000
0.804605 0.658292 0.000000
0.838544 0.658082 0.000000
0.872358 0.657874 0.000000
0.906041 0.657666 0.000000
0.939586 0.657459 0.000000
0.972985 0.657253 0.000000
1.000000 0.657048 0.000000
1.000000 0.657014 0.000000
1.000000 0.657014 0.000000
0.000000 0.697412 0.000000
0.000409 0.697246 0.000000
0.036404 0.696997 0.000000
0.072148 0.696776 0.000000
0.107710 0.696557 0.000000
0.143150 0.696339 0.000000
0.178498 0.696121 0.000000
0.213774 0.695903 0.000000
0.248990 0.695686 0.000000
0.284151 0.695469 0.000000
0.319261 0.695252 0.000000
0.354321 0.695036 0.000000
0.389329 0.694820 0.000000
0.424285 0.694605 0.000000
0.459183 0.694390 0.000000
0.494022 0.694175 0.000000
0.528796 0.693960 0.000000
0.563501 0.693746 0.000000
0.598131 0.693533 0.000000
0.632680 0.693320 0.000000
0.667144 0.693107 0.000000
0.701515 0.692895 0.000000
0.735788 0.692684 0.000000
0.769956 0.692473 0.000000
0.804013 0.692263 0.000000
0.837952 0.692054 0.000000
0.871766 0.691845 0.000000
0.905449 0.691638 0.000000
0.938994 0.691431 0.000000
0.972393 0.691225 0.000000
1.000000 0.691020 0.000000
1.000000 0.690989 0.000000
1.000000 0.690989 0.000000
0.000000 0.731234 0.000000
0.000000 0.731110 0.000000
0.035814 0.730888 0.000000
0.071557 0.730667 0.000000
0.107120 0.730448 0.000000
0.142559 0.730229 0.000000
0.177907 0.730011 0.000000
0.213184 0.729794 0.000000
0.248399 0.729577 0.000000
0.283560 0.729360 0.000000
0.318671 0.729143 0.000000
0.353730 0.728927 0.000000
0.388739 0.728711 0.000000
0.423694 0.728496 0.000000
0.458593 0.728280 0.000000
0.493432 0.728066 0.000000
0.528206 0.727851 0.000000
0.562910 0.727637 0.000000
0.597540 0.727424 0.000000
0.632090 0.727211 0.000000
0.666553 0.726998 0.000000
0.700924 0.726786 0.000000
0.735197 0.726575 0.000000
0.769365 0.726364 0.000000
0.803422 0.726154 0.000000
0.837361 0.725945 0.000000
0.871176 0.725736 0.000000
0.904859 0.725528 0.000000
0.938403 0.725322 0.000000
0.971802 0.725116 0.000000
1.000000 0.724911 0.000000
1.000000 0.724883 0.000000
1.000000 0.724883 0.000000
0.000000 0.765037 0.000000
0.000000 0.764913 0.000000
0.035225 0.764691 0.000000
0.070968 0.764470 0.000000
0.106531 0.764251 0.000000
0.141970 0.764032 0.000000
0.177318 0.763814 0.000000
0.212595 0.763597 0.000000
0.247810 0.763380 0.000000
0.282971 0.763163 0.000000
0.318082 0.762946 0.000000
0.353141 0.762730 0.000000
0.388150 0.762514 0.000000
0.423105 0.762299 0.000000
0.458004 0.762084 0.000000
0.492843 0.761869 0.000000
0.527617 0.761654 0.000000
0.562321 0.761440 0.000000
0.596951 0.761227 0.000000
0.631501 0.761014 0.000000
0.665964 0.760801 0.000000
0.700335 0.760589 0.000000
0.734608 0.760378 0.000000
0.768777 0.760167 0.000000
0.802833 0.759957 0.000000
0.836772 0.759748 0.000000
0.870587 0.759539 0.000000
0.904270 0.759332 0.000000
0.937814 0.759125 0.000000
0.971213 0.758919 0.000000
1.000000 0.758714 0.000000
1.000000 0.758689 0.000000
1.000000 0.758689 0.000000
0.000000 0.798746 0.000000
0.000000 0.798621 0.000000
0.034637 0.798399 0.000000
0.070381 0.798178 0.000000
0.105944 0.797959 0.000000
0.141383 0.797741 0.000000
0.176731 0.797523 0.000000
0.212007 0.797305 0.000000
0.247223 0.797088 0.000000
0.282384 0.796871 0.000000
0.317494 0.796655 0.000000
0.352554 0.796438 0.000000
0.387563 0.796222 0.000000
0.422518 0.796007 0.000000
0.457417 0.795792 0.000000
0.492255 0.795577 0.000000
0.527029 0.795362 0.000000
0.561734 0.795148 0.000000
0.596364 0.794935 0.000000
0.630913 0.794722 0.000000
0.665377 0.794509 0.000000
0.699748 0.794297 0.000000
0.734021 0.794086 0.000000
0.768189 0.793875 0.000000
0.802246 0.793665 0.000000
0.836185 0.793456 0.000000
0.869999 0.793247 0.000000
0.903682 0.793040 0.000000
0.937227 0.792833 0.000000
0.970626 0.792627 0.000000
1.000000 0.792422 0.000000
1.000000 0.792400 0.000000
1.000000 0.792400 0.000000
0.000000 0.832352 0.000000
0.000000 0.832227 0.000000
0.034052 0.832005 0.000000
0.069795 0.831784 0.000000
0.105358 0.831565 0.000000
0.140797 0.831346 0.000000
0.176146 0.831128 0.000000
0.211422 0.830911 0.000000
0.246637 0.830694 0.000000
0.281799 0.830477 0.000000
0.316909 0.830260 0.000000
0.351968 0.830044 0.000000
0.386977 0.829828 0.000000
0.421932 0.829613 0.000000
0.456831 0.829398 0.000000
0.491670 0.829183 0.000000
0.526444 0.828968 0.000000
0.561148 0.828754 0.000000
0.595778 0.828541 0.000000
0.630328 0.828328 0.000000
0.664791 0.828115 0.000000
0.699163 0.827903 0.000000
0.733435 0.827692 0.000000
0.767604 0.827481 0.000000
0.801661 0.827271 0.000000
0.835599 0.827062 0.000000
0.869414 0.826853 0.000000
0.903097 0.826646 0.000000
0.936641 0.826439 0.000000
0.970041 0.826233 0.000000
1.000000 0.826028 0.000000
1.000000 0.826009 0.000000
1.000000 0.826009 0.000000
0.000000 0.865848 0.000000
0.000000 0.865723 0.000000
0.033468 0.865501 0.000000
0.069212 0.865281 0.000000
0.104774 0.865061 0.000000
0.140214 0.864843 0.000000
0.175562 0.864625 0.000000
0.210838 0.864407 0.000000
0.246054 0.864190 0.000000
0.281215 0.863973 0.000000
0.316325 0.863757 0.000000
0.351385 0.863540 0.000000
0.386393 0.863325 0.000000
0.421349 0.863109 0.000000
0.456247 0.862894 0.000000
0.491086 0.862679 0.000000
0.525860 0.862465 0.000000
0.560565 0.862251 0.000000
0.595195 0.862037 0.000000
0.629744 0.861824 0.000000
0.664208 0.861611 0.000000
0.698579 0.861399 0.000000
0.732852 0.861188 0.000000
0.767020 0.860977 0.000000
0.801077 0.860767 0.000000
0.835016 0.860558 0.000000
0.868830 0.860350 0.000000
