assets/preview/luts/clean_aesthetic.cube
TITLE "Clean Aesthetic (Skin)"
LUT_3D_SIZE 5
DOMAIN_MIN 0.0 0.0 0.0
DOMAIN_MAX 1.0 1.0 1.0
0.001282 0.000000 0.002582
0.269122 0.000000 0.000088
0.547908 0.000000 0.000000
0.822121 0.000000 0.000000
1.000000 0.000000 0.000000
0.000000 0.254982 0.000000
0.261447 0.252775 0.000000
0.540233 0.250477 0.000000
0.814446 0.248217 0.000000
1.000000 0.246488 0.000000
0.000000 0.528079 0.000000
0.253227 0.525872 0.000000
0.532013 0.523574 0.000000
0.806984 0.521739 0.000000
1.000000 0.520450 0.000000
0.000000 0.798746 0.000000
0.247223 0.797088 0.000000
0.527029 0.795362 0.000000
0.802246 0.793665 0.000000
1.000000 0.792400 0.000000
0.000000 1.000000 0.000000
0.243558 1.000000 0.000000
0.523381 1.000000 0.000000
0.798613 1.000000 0.000000
1.000000 1.000000 0.000000
0.000548 0.000000 0.250139
0.268388 0.000000 0.247645
0.547174 0.000000 0.245048
0.821387 0.000000 0.242494
1.000000 0.000000 0.240543
0.000000 0.254293 0.241995
0.260713 0.252086 0.239501
0.539499 0.249788 0.236904
0.813712 0.247528 0.234350
1.000000 0.245799 0.232395
0.000000 0.527390 0.233274
0.252493 0.525183 0.230779
0.531339 0.522919 0.228199
0.806556 0.521222 0.225913
1.000000 0.519934 0.224175
0.000000 0.798228 0.225038
0.246795 0.796570 0.222805
0.526601 0.794845 0.220482
0.801818 0.793148 0.218197
1.000000 0.791885 0.216483
0.000000 1.000000 0.219009
0.243135 1.000000 0.216792
0.522958 1.000000 0.214485
0.798191 1.000000 0.212216
1.000000 1.000000 0.210534
0.000000 0.000000 0.526550
0.267569 0.000000 0.524056
0.546355 0.000000 0.521459
0.820568 0.000000 0.518905
1.000000 0.000000 0.516954
0.000000 0.253524 0.518406
0.259894 0.251316 0.515912
0.538680 0.249019 0.513315
0.812893 0.246759 0.510761
1.000000 0.245029 0.508806
0.000000 0.526621 0.509684
0.251674 0.524413 0.507190
0.530862 0.522341 0.504701
0.806079 0.520644 0.502416
1.000000 0.519359 0.500680
0.000000 0.797650 0.501540
0.246317 0.795993 0.499308
0.526124 0.794267 0.496984
0.801341 0.792570 0.494699
1.000000 0.791310 0.492988
0.000000 1.000000 0.495516
0.242663 1.000000 0.493300
0.522486 1.000000 0.490993
0.797718 1.000000 0.488724
1.000000 1.000000 0.487044
0.000000 0.000000 0.802869
0.266750 0.000000 0.800375
0.545536 0.000000 0.797778
0.819749 0.000000 0.795224
1.000000 0.000000 0.793272
0.000000 0.252755 0.794725
0.259075 0.250547 0.792231
0.537861 0.248250 0.789634
0.812074 0.245990 0.787080
1.000000 0.244259 0.785125
0.000000 0.525852 0.786004
0.250855 0.523644 0.783509
0.530384 0.521764 0.781112
0.805601 0.520066 0.778826
1.000000 0.518784 0.777093
0.000000 0.797073 0.777950
0.245840 0.795415 0.775718
0.525646 0.793690 0.773395
0.800863 0.791992 0.771110
1.000000 0.790734 0.769401
0.000000 1.000000 0.771932
0.242191 1.000000 0.769716
0.522014 1.000000 0.767409
0.797246 1.000000 0.765140
1.000000 1.000000 0.763463
0.000000 0.000000 1.000000
0.266054 0.000000 1.000000
0.544839 0.000000 1.000000
0.819051 0.000000 1.000000
1.000000 0.000000 1.000000
0.000000 0.252100 1.000000
0.258377 0.249892 1.000000
0.537162 0.247594 1.000000
0.811374 0.245333 1.000000
1.000000 0.243601 1.000000
0.000000 0.525194 1.000000
0.250169 0.522995 1.000000
0.529976 0.521269 1.000000
0.805192 0.519572 1.000000
1.000000 0.518292 1.000000
0.000000 0.796579 1.000000
0.245431 0.794921 1.000000
0.525238 0.793195 1.000000
0.800454 0.791498 1.000000
1.000000 0.790242 1.000000
0.000000 1.000000 1.000000
0.241787 1.000000 1.000000
0.521610 1.000000 1.000000
0.796843 1.000000 1.000000
1.000000 1.000000 1.000000
