assets/preview/luts/cool_blue_steel.cube
TITLE "Cool Blue Steel"
LUT_3D_SIZE 5
DOMAIN_MIN 0.0 0.0 0.0
DOMAIN_MAX 1.0 1.0 1.0
0.000300 0.000300 0.048138
0.194931 0.003825 0.050391
0.422665 0.007950 0.053096
0.652953 0.012121 0.055831
0.884888 0.016322 0.058586
0.014482 0.243017 0.057385
0.212477 0.246828 0.059712
0.440225 0.251204 0.062432
0.670528 0.255630 0.065182
0.902478 0.260087 0.067952
0.028806 0.488164 0.066775
0.230152 0.492035 0.069163
0.457900 0.496412 0.071882
0.687927 0.500787 0.075125
0.918405 0.504978 0.080522
0.043132 0.733132 0.078142
0.245436 0.736810 0.082881
0.471739 0.740925 0.088179
0.700581 0.745087 0.093537
0.931060 0.749278 0.098933
0.057462 0.977462 0.096585
0.258090 0.981110 0.101293
0.484394 0.985225 0.106591
0.713236 0.989386 0.111949
0.943714 0.993577 0.117345
0.001870 0.001870 0.299692
0.196869 0.005401 0.301952
0.424603 0.009526 0.304657
0.654891 0.013698 0.307392
0.886826 0.017899 0.310147
0.016057 0.244683 0.308945
0.214420 0.248500 0.311279
0.442169 0.252877 0.313999
0.672472 0.257302 0.316749
0.904422 0.261759 0.319518
0.030381 0.489829 0.318334
0.232095 0.493708 0.320729
0.459844 0.498084 0.323449
0.689318 0.502360 0.327677
0.919797 0.506551 0.333074
0.044708 0.734708 0.330698
0.246827 0.738383 0.335433
0.473131 0.742498 0.340731
0.701973 0.746659 0.346089
0.932451 0.750850 0.351485
0.059037 0.979037 0.349140
0.259482 0.982682 0.353845
0.485785 0.986797 0.359143
0.714627 0.990958 0.364501
0.945106 0.995149 0.369897
0.003375 0.003375 0.540970
0.198728 0.006913 0.543237
0.426461 0.011038 0.545941
0.656749 0.015209 0.548676
0.888685 0.019410 0.551431
0.017568 0.246280 0.550228
0.216285 0.250104 0.552569
0.444033 0.254480 0.555288
0.674336 0.258906 0.558038
0.906286 0.263363 0.560808
0.031892 0.491427 0.559618
0.233960 0.495312 0.562019
0.461708 0.499688 0.564738
0.690653 0.503868 0.569912
0.921132 0.508059 0.575308
0.046219 0.736219 0.572936
0.248162 0.739891 0.577668
0.474465 0.744006 0.582966
0.703307 0.748167 0.588324
0.933786 0.752358 0.593720
0.060549 0.980549 0.591378
0.260816 0.984190 0.596079
0.487120 0.988305 0.601378
0.715962 0.992467 0.606736
0.946441 0.996657 0.612132
0.004852 0.004852 0.777740
0.200552 0.008397 0.780012
0.428285 0.012522 0.782717
0.658573 0.016693 0.785452
0.890509 0.020894 0.788207
0.019051 0.247848 0.787003
0.218114 0.251678 0.789349
0.445862 0.256054 0.792069
0.676165 0.260480 0.794819
0.908115 0.264937 0.797589
0.033375 0.492994 0.796392
0.235789 0.496886 0.798800
0.463121 0.501187 0.802263
0.691963 0.505348 0.807621
0.922441 0.509539 0.813017
0.047702 0.737702 0.810647
0.249471 0.741371 0.815376
0.475775 0.745486 0.820674
0.704617 0.749647 0.826032
0.935096 0.753838 0.831429
0.062032 0.982032 0.829089
0.262126 0.985670 0.833788
0.488429 0.989785 0.839086
0.717271 0.993947 0.844444
0.947750 0.998137 0.849840
0.005776 0.005776 0.925776
0.201718 0.009333 0.929333
0.429460 0.013466 0.933466
0.659757 0.017647 0.937647
0.891702 0.021857 0.941857
0.020009 0.248863 0.940009
0.219314 0.252706 0.943639
0.447071 0.257091 0.947788
0.677383 0.261526 0.951983
0.909343 0.265992 0.956208
0.034364 0.494041 0.954364
0.237020 0.497944 0.958055
0.464001 0.502182 0.962182
0.692836 0.506336 0.966336
0.923307 0.510519 0.970519
0.048688 0.738688 0.968688
0.250334 0.742348 0.972348
0.476630 0.746456 0.976456
0.705464 0.750609 0.980609
0.935936 0.754793 0.984793
0.062992 0.982992 0.982992
0.262962 0.986622 0.986622
0.489258 0.990729 0.990729
0.718093 0.994883 0.994883
0.948564 0.999066 0.999066
