assets/preview/luts/cool_blue_steel.cube
TITLE "Cool Blue Steel"
LUT_3D_SIZE 9
DOMAIN_MIN 0.0 0.0 0.0
DOMAIN_MAX 1.0 1.0 1.0
0.000300 0.000300 0.048138
0.082800 0.001794 0.049060
0.194931 0.003825 0.050391
0.308380 0.005880 0.051739
0.422665 0.007950 0.053096
0.537564 0.010031 0.054461
0.652953 0.012121 0.055831
0.768747 0.014219 0.057207
0.884888 0.016322 0.058586
0.007320 0.120444 0.052691
0.091501 0.122069 0.053648
0.203639 0.124224 0.054987
0.317096 0.126404 0.056342
0.431388 0.128601 0.057707
0.546295 0.130809 0.059079
0.661691 0.133026 0.060457
0.777492 0.135251 0.061840
0.893641 0.137483 0.063227
0.014482 0.243017 0.057385
0.100338 0.244673 0.058373
0.212477 0.246828 0.059712
0.325934 0.249008 0.061067
0.440225 0.251204 0.062432
0.555132 0.253412 0.063804
0.670528 0.255630 0.065182
0.786330 0.257855 0.066565
0.902478 0.260087 0.067952
0.021644 0.365590 0.062080
0.109176 0.367277 0.063098
0.221314 0.369432 0.064438
0.334771 0.371612 0.065792
0.449063 0.373808 0.067157
0.563970 0.376016 0.068529
0.679366 0.378233 0.069907
0.795167 0.380459 0.071290
0.911316 0.382691 0.072677
0.028806 0.488164 0.066775
0.118013 0.489881 0.067824
0.230152 0.492035 0.069163
0.343608 0.494216 0.070517
0.457900 0.496412 0.071882
0.572807 0.498620 0.073254
0.687927 0.500787 0.075125
0.802994 0.502880 0.077820
0.918405 0.504978 0.080522
0.035968 0.610737 0.071469
0.126851 0.612484 0.072549
0.238989 0.614639 0.073888
0.351845 0.616711 0.076315
0.465412 0.618776 0.078973
0.579590 0.620852 0.081647
0.694254 0.622937 0.084331
0.809321 0.625029 0.087025
0.924733 0.627128 0.089728
0.043132 0.733132 0.078142
0.134008 0.734784 0.080272
0.245436 0.736810 0.082881
0.358173 0.738860 0.085520
0.471739 0.740925 0.088179
0.585917 0.743002 0.090853
0.700581 0.745087 0.093537
0.815648 0.747179 0.096231
0.931060 0.749278 0.098933
0.050297 0.855297 0.087364
0.140336 0.856934 0.089478
0.251763 0.858960 0.092087
0.364500 0.861010 0.094726
0.478066 0.863075 0.097385
0.592245 0.865151 0.100059
0.706908 0.867236 0.102743
0.821975 0.869329 0.105437
0.937387 0.871427 0.108139
0.057462 0.977462 0.096585
0.146663 0.979084 0.098684
0.258090 0.981110 0.101293
0.370827 0.983160 0.103932
0.484394 0.985225 0.106591
0.598572 0.987301 0.109264
0.713236 0.989386 0.111949
0.828303 0.991478 0.114643
0.943714 0.993577 0.117345
0.001099 0.001099 0.176155
0.083786 0.002596 0.177080
0.195917 0.004627 0.178411
0.309367 0.006682 0.179759
0.423651 0.008752 0.181116
0.538551 0.010834 0.182481
0.653939 0.012924 0.183851
0.769733 0.015021 0.185227
0.885874 0.017125 0.186606
0.008122 0.121291 0.180710
0.092490 0.122920 0.181671
0.204629 0.125075 0.183010
0.318085 0.127255 0.184365
0.432377 0.129452 0.185730
0.547284 0.131660 0.187102
0.662680 0.133877 0.188480
0.778481 0.136102 0.189863
0.894630 0.138334 0.191249
0.015284 0.243865 0.185405
0.101327 0.245524 0.186396
0.213466 0.247679 0.187735
0.326923 0.249859 0.189090
0.441214 0.252055 0.190455
0.556121 0.254263 0.191827
0.671517 0.256481 0.193205
0.787319 0.258706 0.194588
0.903467 0.260938 0.195975
0.022446 0.366438 0.190099
0.110165 0.368128 0.191121
0.222303 0.370283 0.192460
0.335760 0.372463 0.193815
0.450052 0.374659 0.195180
0.564959 0.376867 0.196552
0.680355 0.379084 0.197930
0.796156 0.381310 0.199313
0.912305 0.383542 0.200700
0.029608 0.489011 0.194794
0.119002 0.490732 0.195846
0.231141 0.492886 0.197185
0.344598 0.495067 0.198540
0.458889 0.497263 0.199905
0.573796 0.499471 0.201277
0.688635 0.501587 0.203650
0.803702 0.503680 0.206344
0.919114 0.505778 0.209046
0.036770 0.611585 0.199489
0.127840 0.613335 0.200571
0.239817 0.615461 0.202199
0.352553 0.617511 0.204839
0.466120 0.619576 0.207498
0.580298 0.621652 0.210171
0.694962 0.623737 0.212856
0.810029 0.625829 0.215550
0.925441 0.627928 0.218252
0.043934 0.733934 0.206668
0.134716 0.735584 0.208796
0.246144 0.737611 0.211405
0.358881 0.739661 0.214045
0.472447 0.741726 0.216704
0.586625 0.743802 0.219377
0.701289 0.745887 0.222062
0.816356 0.747979 0.224756
0.931768 0.750078 0.227458
0.051099 0.856099 0.215890
0.141044 0.857734 0.218002
0.252471 0.859760 0.220611
0.365208 0.861810 0.223251
0.478774 0.863875 0.225910
0.592953 0.865952 0.228583
0.707616 0.868037 0.231268
0.822683 0.870129 0.233962
0.938095 0.872227 0.236664
0.058264 0.978264 0.225111
0.147371 0.979884 0.227208
0.258798 0.981910 0.229817
0.371535 0.983960 0.232457
0.485102 0.986025 0.235116
0.599280 0.988101 0.237789
0.713944 0.990186 0.240473
0.829011 0.992279 0.243167
0.944423 0.994377 0.245870
0.001870 0.001870 0.299692
0.084738 0.003370 0.300621
0.196869 0.005401 0.301952
0.310318 0.007456 0.303300
0.424603 0.009526 0.304657
0.539502 0.011608 0.306022
0.654891 0.013698 0.307392
0.770685 0.015795 0.308768
0.886826 0.017899 0.310147
0.008895 0.122109 0.304251
0.093444 0.123742 0.305215
0.205583 0.125896 0.306554
0.319040 0.128077 0.307909
0.433331 0.130273 0.309273
0.548238 0.132481 0.310646
0.663634 0.134698 0.312023
0.779436 0.136923 0.313406
0.895584 0.139155 0.314793
0.016057 0.244683 0.308945
0.102282 0.246345 0.309940
0.214420 0.248500 0.311279
0.327877 0.250680 0.312634
0.442169 0.252877 0.313999
0.557076 0.255085 0.315371
0.672472 0.257302 0.316749
0.788273 0.259527 0.318131
0.904422 0.261759 0.319518
0.023219 0.367256 0.313640
0.111119 0.368949 0.314665
0.223258 0.371104 0.316004
0.336715 0.373284 0.317359
0.451006 0.375480 0.318724
0.565913 0.377688 0.320096
0.681309 0.379906 0.321474
0.797111 0.382131 0.322856
0.913259 0.384363 0.324243
0.030381 0.489829 0.318334
0.119957 0.491553 0.319390
0.232095 0.493708 0.320729
0.345552 0.495888 0.322084
0.459844 0.498084 0.323449
0.574654 0.500275 0.324993
0.689318 0.502360 0.327677
0.804385 0.504452 0.330372
0.919797 0.506551 0.333074
0.037544 0.612403 0.323029
0.128794 0.614157 0.324115
0.240500 0.616233 0.326227
0.353237 0.618283 0.328866
0.466803 0.620348 0.331525
0.580982 0.622424 0.334199
0.695645 0.624509 0.336883
0.810712 0.626602 0.339577
0.926124 0.628700 0.342280
0.044708 0.734708 0.330698
0.135400 0.736357 0.332824
0.246827 0.738383 0.335433
0.359564 0.740433 0.338072
0.473131 0.742498 0.340731
0.587309 0.744574 0.343405
0.701973 0.746659 0.346089
0.817040 0.748751 0.348783
0.932451 0.750850 0.351485
0.051872 0.856872 0.339919
0.141727 0.858506 0.342030
0.253154 0.860533 0.344639
0.365891 0.862582 0.347278
0.479458 0.864648 0.349937
0.593636 0.866724 0.352611
0.708300 0.868809 0.355295
0.823367 0.870901 0.357989
0.938779 0.873000 0.360691
0.059037 0.979037 0.349140
0.148054 0.980656 0.351236
0.259482 0.982682 0.353845
0.372218 0.984732 0.356484
0.485785 0.986797 0.359143
0.599963 0.988873 0.361816
0.714627 0.990958 0.364501
0.829694 0.993051 0.367195
0.945106 0.995149 0.369897
0.002627 0.002627 0.421058
0.085673 0.004131 0.421989
0.197804 0.006162 0.423321
0.311253 0.008217 0.424668
0.425538 0.010287 0.426026
0.540437 0.012368 0.427390
0.655826 0.014458 0.428761
0.771620 0.016555 0.430136
0.887761 0.018659 0.431515
0.009655 0.122913 0.425618
0.094382 0.124548 0.426586
0.206521 0.126703 0.427925
0.319977 0.128883 0.429280
0.434269 0.131080 0.430645
0.549176 0.133288 0.432017
0.664572 0.135505 0.433395
0.780374 0.137730 0.434777
0.896522 0.139962 0.436164
0.016817 0.245486 0.430313
0.103220 0.247152 0.431311
0.215358 0.249307 0.432650
0.328815 0.251487 0.434005
0.443106 0.253683 0.435370
0.558014 0.255891 0.436742
0.673409 0.258109 0.438120
0.789211 0.260334 0.439502
0.905360 0.262566 0.440889
0.023979 0.368059 0.435008
0.112057 0.369756 0.436036
0.224196 0.371911 0.437375
0.337652 0.374091 0.438730
0.451944 0.376287 0.440095
0.566851 0.378495 0.441467
0.682247 0.380712 0.442845
0.798048 0.382938 0.444228
0.914141 0.385159 0.445714
0.031141 0.490633 0.439702
0.120894 0.492360 0.440761
0.233033 0.494514 0.442100
0.346490 0.496695 0.443455
0.460781 0.498891 0.444820
0.575326 0.501033 0.446839
0.689990 0.503118 0.449524
0.805056 0.505211 0.452218
0.920468 0.507309 0.454920
0.038304 0.613206 0.444397
0.129732 0.614963 0.445486
0.241171 0.616992 0.448074
0.353908 0.619042 0.450713
0.467475 0.621107 0.453372
0.581653 0.623183 0.456045
0.696317 0.625268 0.458730
0.811384 0.627360 0.461424
0.926796 0.629459 0.464126
0.045468 0.735468 0.452546
0.136071 0.737115 0.454671
0.247498 0.739141 0.457280
0.360235 0.741191 0.459919
0.473802 0.743256 0.462578
0.587980 0.745333 0.465251
0.702644 0.747418 0.467936
0.817711 0.749510 0.470630
0.933123 0.751609 0.473332
0.052633 0.857633 0.461767
0.142398 0.859265 0.463877
0.253826 0.861291 0.466485
0.366563 0.863341 0.469125
0.480129 0.865406 0.471784
0.594307 0.867482 0.474457
0.708971 0.869567 0.477142
0.824038 0.871660 0.479836
0.939450 0.873758 0.482538
0.059798 0.979798 0.470988
0.148726 0.981415 0.473082
0.260153 0.983441 0.475691
0.372890 0.985491 0.478331
0.486456 0.987556 0.480990
0.600635 0.989632 0.483663
0.715298 0.991717 0.486348
0.830365 0.993809 0.489042
0.945777 0.995908 0.491744
0.003375 0.003375 0.540970
0.086596 0.004882 0.541905
0.198728 0.006913 0.543237
0.312177 0.008968 0.544584
0.426461 0.011038 0.545941
0.541361 0.013119 0.547306
0.656749 0.015209 0.548676
0.772544 0.017307 0.550052
0.888685 0.019410 0.551431
0.010406 0.123707 0.545534
0.095309 0.125346 0.546504
0.207447 0.127500 0.547844
0.320904 0.129681 0.549198
0.435195 0.131877 0.550563
0.550103 0.134085 0.551935
0.665498 0.136302 0.553313
0.781300 0.138527 0.554696
0.897449 0.140759 0.556083
0.017568 0.246280 0.550228
0.104146 0.247949 0.551230
0.216285 0.250104 0.552569
0.329741 0.252284 0.553923
0.444033 0.254480 0.555288
0.558940 0.256688 0.556660
0.674336 0.258906 0.558038
0.790137 0.261131 0.559421
0.906286 0.263363 0.560808
0.024730 0.368853 0.554923
0.112983 0.370553 0.555955
0.225122 0.372708 0.557294
0.338579 0.374888 0.558648
0.452870 0.377084 0.560013
0.567777 0.379292 0.561385
0.683173 0.381510 0.562763
0.798975 0.383735 0.564146
0.914804 0.385909 0.566103
0.031892 0.491427 0.559618
0.121821 0.493157 0.560680
0.233960 0.495312 0.562019
0.347416 0.497492 0.563373
0.461708 0.499688 0.564738
0.575989 0.501783 0.567228
0.690653 0.503868 0.569912
0.805720 0.505960 0.572606
0.921132 0.508059 0.575308
0.039054 0.614000 0.564312
0.130407 0.615715 0.565853
0.241835 0.617741 0.568462
0.354571 0.619791 0.571101
0.468138 0.621856 0.573760
0.582316 0.623932 0.576433
0.696980 0.626017 0.579118
0.812047 0.628110 0.581812
0.927459 0.630208 0.584514
0.046219 0.736219 0.572936
0.136734 0.737865 0.575059
0.248162 0.739891 0.577668
0.360899 0.741941 0.580307
0.474465 0.744006 0.582966
0.588643 0.746082 0.585639
0.703307 0.748167 0.588324
0.818374 0.750259 0.591018
0.933786 0.752358 0.593720
0.053384 0.858384 0.582157
0.143062 0.860014 0.584265
0.254489 0.862041 0.586874
0.367226 0.864091 0.589513
0.480792 0.866156 0.592172
0.594971 0.868232 0.594845
0.709634 0.870317 0.597530
0.824701 0.872409 0.600224
0.940113 0.874508 0.602926
0.060549 0.980549 0.591378
0.149389 0.982164 0.593471
0.260816 0.984190 0.596079
0.373553 0.986240 0.598719
0.487120 0.988305 0.601378
0.601298 0.990382 0.604051
0.715962 0.992467 0.606736
0.831029 0.994559 0.609430
0.946441 0.996657 0.612132
0.004116 0.004116 0.659791
0.087512 0.005627 0.660729
0.199643 0.007658 0.662061
0.313092 0.009713 0.663408
0.427377 0.011783 0.664766
0.542276 0.013864 0.666130
0.657665 0.015954 0.667501
0.773459 0.018051 0.668876
0.889600 0.020155 0.670255
0.011150 0.124493 0.664358
0.096227 0.126135 0.665332
0.208365 0.128290 0.666671
0.321822 0.130470 0.668025
0.436113 0.132667 0.669390
0.551021 0.134875 0.670762
0.666416 0.137092 0.672140
0.782218 0.139317 0.673523
0.898367 0.141549 0.674910
0.018312 0.247067 0.669052
0.105064 0.248739 0.670057
0.217203 0.250894 0.671396
0.330659 0.253074 0.672750
0.444951 0.255270 0.674115
0.559858 0.257478 0.675487
0.675254 0.259696 0.676865
0.791055 0.261921 0.678248
0.907204 0.264153 0.679635
0.025474 0.369640 0.673747
0.113901 0.371343 0.674782
0.226040 0.373498 0.676121
0.339497 0.375678 0.677475
0.453788 0.377874 0.678840
0.568695 0.380082 0.680212
0.684091 0.382299 0.681590
0.799893 0.384525 0.682973
0.915462 0.386652 0.685395
0.032636 0.492213 0.678441
0.122739 0.493947 0.679507
0.234878 0.496101 0.680846
0.348334 0.498282 0.682200
0.462468 0.500449 0.683847
0.576646 0.502525 0.686520
0.691310 0.504610 0.689205
0.806377 0.506703 0.691899
0.921789 0.508801 0.694601
0.039798 0.614787 0.683136
0.131065 0.616458 0.685145
0.242492 0.618484 0.687754
0.355229 0.620534 0.690394
0.468795 0.622599 0.693053
0.582973 0.624675 0.695726
0.697637 0.626760 0.698411
0.812704 0.628852 0.701105
0.928116 0.630951 0.703807
0.046963 0.736963 0.692230
0.137392 0.738607 0.694351
0.248819 0.740634 0.696960
0.361556 0.742684 0.699600
0.475123 0.744749 0.702259
0.589301 0.746825 0.704932
0.703965 0.748910 0.707616
0.819031 0.751002 0.710311
0.934443 0.753101 0.713013
0.054128 0.859128 0.701451
0.143719 0.860757 0.703557
0.255146 0.862783 0.706166
0.367883 0.864833 0.708806
0.481450 0.866898 0.711464
0.595628 0.868975 0.714138
0.710292 0.871060 0.716822
0.825359 0.873152 0.719516
0.940771 0.875250 0.722219
0.061293 0.981293 0.710672
0.150046 0.982907 0.712763
0.261473 0.984933 0.715372
0.374210 0.986983 0.718011
0.487777 0.989048 0.720670
0.601955 0.991124 0.723344
0.716619 0.993209 0.726028
0.831686 0.995302 0.728722
0.947098 0.997400 0.731425
0.004852 0.004852 0.777740
0.088420 0.006366 0.778680
0.200552 0.008397 0.780012
0.314001 0.010452 0.781360
0.428285 0.012522 0.782717
0.543185 0.014603 0.784082
0.658573 0.016693 0.785452
0.774368 0.018790 0.786827
0.890509 0.020894 0.788207
0.011889 0.125274 0.782308
0.097138 0.126919 0.783285
0.209276 0.129074 0.784624
0.322733 0.131254 0.785979
0.437025 0.133451 0.787344
0.551932 0.135659 0.788716
0.667328 0.137876 0.790094
0.783129 0.140101 0.791477
0.899278 0.142333 0.792864
0.019051 0.247848 0.787003
0.105975 0.249523 0.788010
0.218114 0.251678 0.789349
0.331571 0.253858 0.790704
0.445862 0.256054 0.792069
0.560769 0.258262 0.793441
0.676165 0.260480 0.794819
0.791967 0.262705 0.796202
0.908115 0.264937 0.797589
0.026213 0.370421 0.791698
0.114813 0.372127 0.792735
0.226951 0.374282 0.794074
0.340408 0.376462 0.795429
0.454700 0.378658 0.796794
0.569607 0.380866 0.798166
0.685003 0.383084 0.799544
0.800702 0.385290 0.801109
0.916114 0.387389 0.803811
0.033375 0.492994 0.796392
0.123650 0.494731 0.797461
0.235789 0.496886 0.798800
0.349245 0.499066 0.800154
0.463121 0.501187 0.802263
0.577299 0.503263 0.804936
0.691963 0.505348 0.807621
0.807029 0.507440 0.810315
0.922441 0.509539 0.813017
0.040537 0.615537 0.801426
0.131717 0.617195 0.803561
0.243144 0.619221 0.806170
0.355881 0.621271 0.808810
0.469448 0.623336 0.811469
0.583626 0.625412 0.814142
0.698290 0.627497 0.816826
0.813357 0.629590 0.819521
0.928769 0.631688 0.822223
0.047702 0.737702 0.810647
0.138044 0.739345 0.812767
0.249471 0.741371 0.815376
0.362208 0.743421 0.818016
0.475775 0.745486 0.820674
0.589953 0.747562 0.823348
0.704617 0.749647 0.826032
0.819684 0.751739 0.828726
0.935096 0.753838 0.831429
0.054867 0.859867 0.819868
0.144371 0.861494 0.821973
0.255799 0.863521 0.824582
0.368536 0.865571 0.827221
0.482102 0.867636 0.829880
0.596280 0.869712 0.832554
0.710944 0.871797 0.835238
0.826011 0.873889 0.837932
0.941423 0.875988 0.840634
0.062032 0.982032 0.829089
0.150699 0.983644 0.831179
0.262126 0.985670 0.833788
0.374863 0.987720 0.836427
0.488429 0.989785 0.839086
0.602608 0.991862 0.841760
0.717271 0.993947 0.844444
0.832338 0.996039 0.847138
0.947750 0.998137 0.849840
0.005584 0.005584 0.894961
0.089323 0.007100 0.895904
0.201455 0.009131 0.897236
0.314904 0.011186 0.898584
0.429188 0.013256 0.899941
0.544088 0.015337 0.901306
0.659476 0.017427 0.902676
0.775271 0.019525 0.904051
0.891412 0.021628 0.905431
0.012622 0.126050 0.899532
0.098043 0.127699 0.900512
0.210182 0.129854 0.901851
0.323639 0.132034 0.903206
0.437930 0.134230 0.904571
0.552838 0.136438 0.905943
0.668233 0.138655 0.907321
0.784035 0.140881 0.908703
0.900184 0.143112 0.910090
0.019785 0.248624 0.904226
0.106881 0.250302 0.905237
0.219020 0.252457 0.906576
0.332476 0.254637 0.907931
0.446768 0.256834 0.909296
0.561675 0.259042 0.910668
0.677071 0.261259 0.912046
0.792872 0.263484 0.913428
0.909021 0.265716 0.914815
0.026947 0.371197 0.908921
0.115718 0.372906 0.909962
0.227857 0.375061 0.911301
0.341314 0.377241 0.912656
0.455605 0.379437 0.914021
0.570512 0.381645 0.915393
0.685908 0.383863 0.916771
0.801351 0.386023 0.918795
0.916763 0.388122 0.921497
0.034109 0.493770 0.913616
0.124556 0.495510 0.914687
0.236694 0.497665 0.916026
0.350151 0.499845 0.917381
0.463769 0.501919 0.919949
0.577947 0.503995 0.922622
0.692611 0.506080 0.925306
0.807678 0.508173 0.928001
0.923090 0.510271 0.930703
0.041271 0.616271 0.919114
0.132365 0.617928 0.921247
0.243793 0.619954 0.923856
0.356530 0.622004 0.926496
0.470096 0.624069 0.929154
0.584274 0.626145 0.931828
0.698938 0.628230 0.934512
0.814005 0.630322 0.937206
0.929417 0.632421 0.939909
0.048436 0.738436 0.928335
0.138693 0.740077 0.930453
0.250120 0.742104 0.933062
0.362857 0.744154 0.935701
0.476423 0.746219 0.938360
0.590602 0.748295 0.941034
0.705265 0.750380 0.943718
0.820332 0.752472 0.946412
0.935744 0.754571 0.949115
0.055601 0.860601 0.937556
0.145020 0.862227 0.939659
0.256447 0.864253 0.942268
0.369184 0.866303 0.944907
0.482751 0.868368 0.947566
0.596929 0.870445 0.950240
0.711593 0.872530 0.952924
0.826660 0.874622 0.955618
0.942071 0.876720 0.958320
0.062766 0.982766 0.946777
0.151347 0.984377 0.948865
0.262774 0.986403 0.951474
0.375511 0.988453 0.954113
0.489078 0.990518 0.956772
0.603256 0.992594 0.959445
0.717920 0.994679 0.962130
0.832987 0.996772 0.964824
0.948399 0.998870 0.967526
0.005776 0.005776 0.925776
0.089582 0.007297 0.927297
0.201718 0.009333 0.929333
0.315171 0.011392 0.931392
0.429460 0.013466 0.933466
0.544364 0.015552 0.935552
0.659757 0.017647 0.937647
0.775556 0.019749 0.939749
0.891702 0.021857 0.941857
0.012831 0.126275 0.932831
0.098318 0.127928 0.934389
0.210461 0.130087 0.936431
0.323922 0.132271 0.938498
0.438219 0.134472 0.940580
0.553130 0.136684 0.942673
0.668531 0.138906 0.944775
0.784337 0.141136 0.946884
0.900490 0.143373 0.949000
0.020009 0.248863 0.940009
0.107171 0.250547 0.941597
0.219314 0.252706 0.943639
0.332775 0.254891 0.945706
0.447071 0.257091 0.947788
0.561983 0.259304 0.949881
0.677383 0.261526 0.951983
0.793190 0.263755 0.954092
0.909343 0.265992 0.956208
0.027186 0.371452 0.947186
0.116024 0.373166 0.948805
0.228167 0.375325 0.950847
0.341628 0.377510 0.952914
0.455924 0.379710 0.954996
0.570836 0.381923 0.957089
0.686236 0.384145 0.959191
0.801585 0.386288 0.961288
0.916993 0.388382 0.963382
0.034364 0.494041 0.954364
0.124877 0.495785 0.956013
0.237020 0.497944 0.958055
0.350438 0.500121 0.960121
0.464001 0.502182 0.962182
0.578176 0.504255 0.964255
0.692836 0.506336 0.966336
0.807899 0.508424 0.968424
0.923307 0.510519 0.970519
0.041536 0.616536 0.961536
0.132596 0.618189 0.963189
0.244019 0.620211 0.965211
0.356753 0.622258 0.967258
0.470315 0.624319 0.969319
0.584490 0.626391 0.971391
0.699150 0.628473 0.973473
0.814213 0.630561 0.975561
0.929621 0.632656 0.977656
0.048688 0.738688 0.968688
0.138910 0.740326 0.970326
0.250334 0.742348 0.972348
0.363067 0.744394 0.974394
0.476630 0.746456 0.976456
0.590804 0.748528 0.978528
0.705464 0.750609 0.980609
0.820527 0.752698 0.982698
0.935936 0.754793 0.984793
0.055840 0.860840 0.975840
0.145224 0.862462 0.977462
0.256648 0.864485 0.979485
0.369381 0.866531 0.981531
0.482944 0.868593 0.983593
0.597119 0.870665 0.985665
0.711779 0.872746 0.987746
0.826842 0.874835 0.989835
0.942250 0.876930 0.991930
0.062992 0.982992 0.982992
0.151539 0.984599 0.984599
0.262962 0.986622 0.986622
0.375696 0.988668 0.988668
0.489258 0.990729 0.990729
0.603433 0.992802 0.992802
0.718093 0.994883 0.994883
0.833156 0.996972 0.996972
0.948564 0.999066 0.999066
