assets/preview/luts/cool_blue_steel.cube
TITLE "Cool Blue Steel"
LUT_3D_SIZE 33
DOMAIN_MIN 0.0 0.0 0.0
DOMAIN_MAX 1.0 1.0 1.0
0.000300 0.000300 0.048138
0.000677 0.000307 0.048084
0.027669 0.000796 0.048405
0.055112 0.001293 0.048731
0.082800 0.001794 0.049060
0.110658 0.002299 0.049391
0.138647 0.002806 0.049723
0.166744 0.003315 0.050057
0.194931 0.003825 0.050391
0.223197 0.004337 0.050727
0.251531 0.004851 0.051064
0.279928 0.005365 0.051401
0.308380 0.005880 0.051739
0.336884 0.006397 0.052077
0.365435 0.006914 0.052416
0.394029 0.007432 0.052756
0.422665 0.007950 0.053096
0.451338 0.008470 0.053437
0.480047 0.008990 0.053778
0.508790 0.009510 0.054119
0.537564 0.010031 0.054461
0.566369 0.010553 0.054803
0.595203 0.011075 0.055145
0.624065 0.011598 0.055488
0.652953 0.012121 0.055831
0.681866 0.012645 0.056175
0.710803 0.013169 0.056518
0.739764 0.013694 0.056862
0.768747 0.014219 0.057207
0.797751 0.014744 0.057551
0.826777 0.015270 0.057896
0.855823 0.015796 0.058241
0.884888 0.016322 0.058586
0.001949 0.028514 0.049170
0.002745 0.028538 0.049124
0.029739 0.029057 0.049446
0.057183 0.029585 0.049774
0.084873 0.030117 0.050105
0.112733 0.030652 0.050437
0.140724 0.031190 0.050771
0.168822 0.031730 0.051107
0.197011 0.032271 0.051444
0.225279 0.032815 0.051781
0.253615 0.033359 0.052120
0.282014 0.033905 0.052459
0.310468 0.034452 0.052798
0.338974 0.034999 0.053139
0.367526 0.035548 0.053480
0.396123 0.036098 0.053821
0.424760 0.036648 0.054163
0.453435 0.037199 0.054506
0.482146 0.037750 0.054848
0.510890 0.038303 0.055192
0.539667 0.038856 0.055535
0.568474 0.039409 0.055879
0.597310 0.039963 0.056224
0.626173 0.040518 0.056568
0.655063 0.041073 0.056913
0.683978 0.041629 0.057258
0.712917 0.042185 0.057604
0.741879 0.042741 0.057950
0.770864 0.043298 0.058296
0.799871 0.043856 0.058642
0.828898 0.044414 0.058989
0.857946 0.044972 0.059336
0.887013 0.045530 0.059683
0.003739 0.059157 0.050343
0.004954 0.059189 0.050305
0.031948 0.059708 0.050627
0.059393 0.060235 0.050955
0.087082 0.060768 0.051286
0.114942 0.061303 0.051619
0.142933 0.061841 0.051953
0.171032 0.062381 0.052288
0.199221 0.062922 0.052625
0.227488 0.063466 0.052962
0.255825 0.064010 0.053301
0.284223 0.064556 0.053640
0.312677 0.065103 0.053980
0.341183 0.065650 0.054320
0.369736 0.066199 0.054661
0.398332 0.066748 0.055002
0.426969 0.067299 0.055344
0.455644 0.067850 0.055687
0.484355 0.068401 0.056030
0.513100 0.068954 0.056373
0.541876 0.069507 0.056716
0.570683 0.070060 0.057060
0.599519 0.070614 0.057405
0.628382 0.071169 0.057749
0.657272 0.071724 0.058094
0.686187 0.072280 0.058440
0.715126 0.072836 0.058785
0.744089 0.073392 0.059131
0.773074 0.073949 0.059477
0.802080 0.074507 0.059824
0.831107 0.075065 0.060170
0.860155 0.075623 0.060517
0.889222 0.076181 0.060864
0.005530 0.089800 0.051517
0.007164 0.089840 0.051486
0.034158 0.090359 0.051809
0.061602 0.090886 0.052136
0.089291 0.091418 0.052467
0.117151 0.091954 0.052800
0.145143 0.092492 0.053134
0.173241 0.093032 0.053470
0.201430 0.093573 0.053806
0.229697 0.094116 0.054144
0.258034 0.094661 0.054482
0.286432 0.095207 0.054821
0.314887 0.095753 0.055161
0.343392 0.096301 0.055501
0.371945 0.096850 0.055842
0.400541 0.097399 0.056184
0.429178 0.097950 0.056526
0.457853 0.098501 0.056868
0.486564 0.099052 0.057211
0.515309 0.099605 0.057554
0.544085 0.100158 0.057898
0.572892 0.100711 0.058242
0.601728 0.101265 0.058586
0.630592 0.101820 0.058931
0.659481 0.102375 0.059276
0.688396 0.102931 0.059621
0.717336 0.103487 0.059966
0.746298 0.104043 0.060312
0.775283 0.104600 0.060658
0.804289 0.105158 0.061005
0.833317 0.105715 0.061351
0.862364 0.106274 0.061698
0.891432 0.106832 0.062045
0.007320 0.120444 0.052691
0.009373 0.120491 0.052668
0.036367 0.121010 0.052990
0.063812 0.121537 0.053318
0.091501 0.122069 0.053648
0.119361 0.122605 0.053981
0.147352 0.123143 0.054315
0.175450 0.123683 0.054651
0.203639 0.124224 0.054987
0.231907 0.124767 0.055325
0.260243 0.125312 0.055663
0.288642 0.125858 0.056002
0.317096 0.126404 0.056342
0.345602 0.126952 0.056683
0.374154 0.127501 0.057023
0.402751 0.128050 0.057365
0.431388 0.128601 0.057707
0.460063 0.129152 0.058049
0.488774 0.129703 0.058392
0.517518 0.130256 0.058735
0.546295 0.130809 0.059079
0.575102 0.131362 0.059423
0.603938 0.131916 0.059767
0.632801 0.132471 0.060112
0.661691 0.133026 0.060457
0.690606 0.133582 0.060802
0.719545 0.134138 0.061148
0.748507 0.134694 0.061494
0.777492 0.135251 0.061840
0.806499 0.135809 0.062186
0.835526 0.136366 0.062533
0.864574 0.136925 0.062880
0.893641 0.137483 0.063227
0.009111 0.151087 0.053864
0.011583 0.151142 0.053849
0.038576 0.151661 0.054171
0.066021 0.152188 0.054499
0.093710 0.152720 0.054830
0.121570 0.153256 0.055162
0.149561 0.153794 0.055497
0.177660 0.154334 0.055832
0.205849 0.154875 0.056169
0.234116 0.155418 0.056506
0.262453 0.155963 0.056845
0.290851 0.156509 0.057184
0.319305 0.157055 0.057523
0.347811 0.157603 0.057864
0.376364 0.158152 0.058205
0.404960 0.158701 0.058546
0.433597 0.159252 0.058888
0.462272 0.159803 0.059231
0.490983 0.160354 0.059573
0.519728 0.160907 0.059917
0.548504 0.161460 0.060260
0.577311 0.162013 0.060604
0.606147 0.162567 0.060949
0.635010 0.163122 0.061293
0.663900 0.163677 0.061638
0.692815 0.164233 0.061983
0.721754 0.164789 0.062329
0.750717 0.165345 0.062675
0.779702 0.165902 0.063021
0.808708 0.166460 0.063367
0.837736 0.167017 0.063714
0.866783 0.167575 0.064061
0.895850 0.168134 0.064408
0.010901 0.181730 0.055038
0.013792 0.181793 0.055030
0.040786 0.182312 0.055353
0.068230 0.182839 0.055680
0.095920 0.183371 0.056011
0.123779 0.183907 0.056344
0.151771 0.184445 0.056678
0.179869 0.184984 0.057013
0.208058 0.185526 0.057350
0.236326 0.186069 0.057687
0.264662 0.186614 0.058026
0.293060 0.187159 0.058365
0.321515 0.187706 0.058705
0.350020 0.188254 0.059045
0.378573 0.188803 0.059386
0.407169 0.189352 0.059727
0.435806 0.189902 0.060069
0.464482 0.190453 0.060412
0.493192 0.191005 0.060755
0.521937 0.191558 0.061098
0.550714 0.192110 0.061442
0.579521 0.192664 0.061786
0.608356 0.193218 0.062130
0.637220 0.193773 0.062474
0.666109 0.194328 0.062819
0.695024 0.194883 0.063165
0.723964 0.195440 0.063510
0.752926 0.195996 0.063856
0.781911 0.196553 0.064202
0.810918 0.197110 0.064549
0.839945 0.197668 0.064895
0.868993 0.198226 0.065242
0.898060 0.198785 0.065589
0.012692 0.212374 0.056212
0.016001 0.212444 0.056211
0.042995 0.212963 0.056534
0.070440 0.213490 0.056862
0.098129 0.214022 0.057192
0.125989 0.214558 0.057525
0.153980 0.215095 0.057859
0.182079 0.215635 0.058195
0.210268 0.216177 0.058531
0.238535 0.216720 0.058869
0.266871 0.217265 0.059207
0.295270 0.217810 0.059546
0.323724 0.218357 0.059886
0.352230 0.218905 0.060226
0.380782 0.219454 0.060567
0.409379 0.220003 0.060909
0.438016 0.220553 0.061251
0.466691 0.221104 0.061593
0.495402 0.221656 0.061936
0.524146 0.222208 0.062279
0.552923 0.222761 0.062623
0.581730 0.223315 0.062967
0.610566 0.223869 0.063311
0.639429 0.224424 0.063656
0.668319 0.224979 0.064001
0.697234 0.225534 0.064346
0.726173 0.226091 0.064692
0.755135 0.226647 0.065037
0.784120 0.227204 0.065383
0.813127 0.227761 0.065730
0.842154 0.228319 0.066076
0.871202 0.228877 0.066423
0.900269 0.229436 0.066770
0.014482 0.243017 0.057385
0.018211 0.243095 0.057393
0.045204 0.243614 0.057715
0.072649 0.244141 0.058043
0.100338 0.244673 0.058373
0.128198 0.245209 0.058706
0.156189 0.245746 0.059040
0.184288 0.246286 0.059376
0.212477 0.246828 0.059712
0.240744 0.247371 0.060050
0.269081 0.247916 0.060388
0.297479 0.248461 0.060727
0.325934 0.249008 0.061067
0.354439 0.249556 0.061408
0.382992 0.250105 0.061749
0.411588 0.250654 0.062090
0.440225 0.251204 0.062432
0.468900 0.251755 0.062774
0.497611 0.252307 0.063117
0.526356 0.252859 0.063460
0.555132 0.253412 0.063804
0.583939 0.253966 0.064148
0.612775 0.254520 0.064492
0.641638 0.255075 0.064837
0.670528 0.255630 0.065182
0.699443 0.256185 0.065527
0.728382 0.256741 0.065873
0.757345 0.257298 0.066219
0.786330 0.257855 0.066565
0.815336 0.258412 0.066911
0.844364 0.258970 0.067258
0.873411 0.259528 0.067605
0.902478 0.260087 0.067952
0.016273 0.273660 0.058559
0.020420 0.273746 0.058574
0.047414 0.274265 0.058896
0.074858 0.274792 0.059224
0.102548 0.275324 0.059555
0.130407 0.275859 0.059887
0.158399 0.276397 0.060222
0.186497 0.276937 0.060557
0.214686 0.277479 0.060894
0.242954 0.278022 0.061231
0.271290 0.278567 0.061570
0.299689 0.279112 0.061909
0.328143 0.279659 0.062248
0.356649 0.280207 0.062589
0.385201 0.280755 0.062930
0.413798 0.281305 0.063271
0.442435 0.281855 0.063613
0.471110 0.282406 0.063956
0.499820 0.282958 0.064298
0.528565 0.283510 0.064642
0.557342 0.284063 0.064985
0.586149 0.284617 0.065329
0.614984 0.285171 0.065674
0.643848 0.285726 0.066018
0.672738 0.286281 0.066363
0.701652 0.286836 0.066709
0.730592 0.287392 0.067054
0.759554 0.287949 0.067400
0.788539 0.288506 0.067746
0.817546 0.289063 0.068092
0.846573 0.289621 0.068439
0.875621 0.290179 0.068786
0.904688 0.290738 0.069133
0.018063 0.304304 0.059733
0.022629 0.304397 0.059755
0.049623 0.304916 0.060078
0.077068 0.305443 0.060405
0.104757 0.305975 0.060736
0.132617 0.306510 0.061069
0.160608 0.307048 0.061403
0.188707 0.307588 0.061738
0.216896 0.308130 0.062075
0.245163 0.308673 0.062413
0.273499 0.309218 0.062751
0.301898 0.309763 0.063090
0.330352 0.310310 0.063430
0.358858 0.310858 0.063770
0.387411 0.311406 0.064111
0.416007 0.311956 0.064453
0.444644 0.312506 0.064794
0.473319 0.313057 0.065137
0.502030 0.313609 0.065480
0.530774 0.314161 0.065823
0.559551 0.314714 0.066167
0.588358 0.315268 0.066511
0.617194 0.315822 0.066855
0.646057 0.316376 0.067200
0.674947 0.316932 0.067545
0.703862 0.317487 0.067890
0.732801 0.318043 0.068235
0.761764 0.318600 0.068581
0.790748 0.319157 0.068927
0.819755 0.319714 0.069274
0.848782 0.320272 0.069620
0.877830 0.320830 0.069967
0.906897 0.321389 0.070314
0.019854 0.334947 0.060906
0.024839 0.335048 0.060937
0.051832 0.335567 0.061259
0.079277 0.336094 0.061587
0.106966 0.336626 0.061917
0.134826 0.337161 0.062250
0.162818 0.337699 0.062584
0.190916 0.338239 0.062920
0.219105 0.338781 0.063256
0.247372 0.339324 0.063594
0.275709 0.339868 0.063932
0.304107 0.340414 0.064271
0.332562 0.340961 0.064611
0.361067 0.341509 0.064951
0.389620 0.342057 0.065292
0.418216 0.342607 0.065634
0.446853 0.343157 0.065976
0.475528 0.343708 0.066318
0.504239 0.344260 0.066661
0.532984 0.344812 0.067004
0.561760 0.345365 0.067348
0.590567 0.345919 0.067692
0.619403 0.346473 0.068036
0.648267 0.347027 0.068381
0.677156 0.347583 0.068726
0.706071 0.348138 0.069071
0.735010 0.348694 0.069417
0.763973 0.349251 0.069762
0.792958 0.349808 0.070109
0.821964 0.350365 0.070455
0.850992 0.350923 0.070802
0.880039 0.351481 0.071148
0.909106 0.352040 0.071495
0.021644 0.365590 0.062080
0.027048 0.365699 0.062118
0.054042 0.366217 0.062440
0.081486 0.366745 0.062768
0.109176 0.367277 0.063098
0.137036 0.367812 0.063431
0.165027 0.368350 0.063765
0.193125 0.368890 0.064101
0.221314 0.369432 0.064438
0.249582 0.369975 0.064775
0.277918 0.370519 0.065113
0.306317 0.371065 0.065453
0.334771 0.371612 0.065792
0.363277 0.372160 0.066133
0.391829 0.372708 0.066474
0.420426 0.373258 0.066815
0.449063 0.373808 0.067157
0.477738 0.374359 0.067499
0.506449 0.374911 0.067842
0.535193 0.375463 0.068185
0.563970 0.376016 0.068529
0.592777 0.376570 0.068873
0.621613 0.377124 0.069217
0.650476 0.377678 0.069562
0.679366 0.378233 0.069907
0.708281 0.378789 0.070252
0.737220 0.379345 0.070598
0.766182 0.379902 0.070944
0.795167 0.380459 0.071290
0.824174 0.381016 0.071636
0.853201 0.381574 0.071983
0.882249 0.382132 0.072330
0.911316 0.382691 0.072677
0.023435 0.396234 0.063254
0.029257 0.396350 0.063299
0.056251 0.396868 0.063621
0.083696 0.397396 0.063949
0.111385 0.397928 0.064280
0.139245 0.398463 0.064612
0.167236 0.399001 0.064947
0.195335 0.399541 0.065282
0.223524 0.400083 0.065619
0.251791 0.400626 0.065956
0.280128 0.401170 0.066295
0.308526 0.401716 0.066634
0.336980 0.402263 0.066974
0.365486 0.402811 0.067314
0.394039 0.403359 0.067655
0.422635 0.403909 0.067996
0.451272 0.404459 0.068338
0.479947 0.405010 0.068681
0.508658 0.405562 0.069024
0.537403 0.406114 0.069367
0.566179 0.406667 0.069710
0.594986 0.407221 0.070054
0.623822 0.407775 0.070399
0.652685 0.408329 0.070743
0.681575 0.408884 0.071088
0.710490 0.409440 0.071434
0.739429 0.409996 0.071779
0.768392 0.410553 0.072125
0.797377 0.411110 0.072471
0.826383 0.411667 0.072817
0.855410 0.412225 0.073164
0.884458 0.412783 0.073511
0.913525 0.413341 0.073858
0.025225 0.426877 0.064427
0.031467 0.427001 0.064480
0.058461 0.427519 0.064803
0.085905 0.428047 0.065130
0.113594 0.428579 0.065461
0.141454 0.429114 0.065794
0.169446 0.429652 0.066128
0.197544 0.430192 0.066463
0.225733 0.430734 0.066800
0.254000 0.431277 0.067138
0.282337 0.431821 0.067476
0.310735 0.432367 0.067815
0.339190 0.432914 0.068155
0.367695 0.433461 0.068495
0.396248 0.434010 0.068836
0.424844 0.434560 0.069178
0.453481 0.435110 0.069520
0.482156 0.435661 0.069862
0.510867 0.436213 0.070205
0.539612 0.436765 0.070548
0.568388 0.437318 0.070892
0.597195 0.437871 0.071236
0.626031 0.438426 0.071580
0.654895 0.438980 0.071925
0.683784 0.439535 0.072270
0.712699 0.440091 0.072615
0.741639 0.440647 0.072960
0.770601 0.441204 0.073306
0.799586 0.441761 0.073652
0.828592 0.442318 0.073999
0.857496 0.442853 0.074567
0.886359 0.443378 0.075242
0.915242 0.443903 0.075919
0.027016 0.457520 0.065601
0.033676 0.457652 0.065662
0.060670 0.458170 0.065984
0.088115 0.458698 0.066312
0.115804 0.459230 0.066642
0.143664 0.459765 0.066975
0.171655 0.460303 0.067309
0.199753 0.460843 0.067645
0.227942 0.461385 0.067981
0.256210 0.461928 0.068319
0.284546 0.462472 0.068657
0.312945 0.463018 0.068996
0.341399 0.463565 0.069336
0.369905 0.464112 0.069676
0.398457 0.464661 0.070017
0.427054 0.465211 0.070359
0.455691 0.465761 0.070701
0.484366 0.466312 0.071043
0.513077 0.466864 0.071386
0.541821 0.467416 0.071729
0.570598 0.467969 0.072073
0.599405 0.468522 0.072417
0.628241 0.469077 0.072761
0.657104 0.469631 0.073106
0.685994 0.470186 0.073451
0.714909 0.470742 0.073796
0.743832 0.471295 0.074170
0.772611 0.471818 0.074844
0.801412 0.472342 0.075518
0.830234 0.472866 0.076193
0.859078 0.473391 0.076868
0.887941 0.473916 0.077544
0.916824 0.474441 0.078220
0.028806 0.488164 0.066775
0.035886 0.488302 0.066843
0.062879 0.488821 0.067165
0.090324 0.489349 0.067493
0.118013 0.489881 0.067824
0.145873 0.490416 0.068156
0.173864 0.490954 0.068490
0.201963 0.491494 0.068826
0.230152 0.492035 0.069163
0.258419 0.492579 0.069500
0.286756 0.493123 0.069838
0.315154 0.493669 0.070178
0.343608 0.494216 0.070517
0.372114 0.494763 0.070858
0.400667 0.495312 0.071199
0.429263 0.495862 0.071540
0.457900 0.496412 0.071882
0.486575 0.496963 0.072224
0.515286 0.497514 0.072567
0.544031 0.498067 0.072911
0.572807 0.498620 0.073254
0.601614 0.499173 0.073598
0.630450 0.499727 0.073942
0.659220 0.500265 0.074453
0.687927 0.500787 0.075125
0.716658 0.501310 0.075798
0.745414 0.501833 0.076471
0.774193 0.502356 0.077145
0.802994 0.502880 0.077820
0.831816 0.503404 0.078494
0.860659 0.503928 0.079170
0.889523 0.504453 0.079845
0.918405 0.504978 0.080522
0.030597 0.518807 0.067948
0.038095 0.518953 0.068024
0.065089 0.519472 0.068346
0.092533 0.519999 0.068674
0.120223 0.520532 0.069005
0.148082 0.521067 0.069337
0.176074 0.521605 0.069672
0.204172 0.522145 0.070007
0.232361 0.522686 0.070344
0.260629 0.523230 0.070681
0.288965 0.523774 0.071020
0.317363 0.524320 0.071359
0.345818 0.524867 0.071699
0.374323 0.525414 0.072039
0.402876 0.525963 0.072380
0.431472 0.526512 0.072721
0.460109 0.527063 0.073063
0.488785 0.527614 0.073406
0.517495 0.528165 0.073749
0.546240 0.528718 0.074092
0.574845 0.529240 0.074742
0.603469 0.529760 0.075412
0.632122 0.530281 0.076083
0.660802 0.530803 0.076755
0.689508 0.531325 0.077427
0.718240 0.531847 0.078100
0.746996 0.532370 0.078773
0.775774 0.532893 0.079447
0.804575 0.533417 0.080121
0.833398 0.533941 0.080796
0.862241 0.534466 0.081471
0.891105 0.534990 0.082147
0.919987 0.535516 0.082823
0.032387 0.549450 0.069122
0.040304 0.549604 0.069205
0.067298 0.550123 0.069528
0.094743 0.550650 0.069855
0.122432 0.551182 0.070186
0.150292 0.551718 0.070519
0.178283 0.552256 0.070853
0.206382 0.552796 0.071188
0.234571 0.553337 0.071525
0.262838 0.553880 0.071863
0.291174 0.554425 0.072201
0.319573 0.554971 0.072540
0.348027 0.555517 0.072880
0.376533 0.556065 0.073220
0.405085 0.556614 0.073561
0.433682 0.557163 0.073903
0.462248 0.557701 0.074371
0.490741 0.558219 0.075038
0.519270 0.558738 0.075706
0.547832 0.559257 0.076374
0.576426 0.559777 0.077044
0.605051 0.560298 0.077714
0.633704 0.560819 0.078385
0.662384 0.561340 0.079056
0.691090 0.561862 0.079728
0.719822 0.562385 0.080401
0.748577 0.562907 0.081074
0.777356 0.563431 0.081748
0.806157 0.563954 0.082422
0.834980 0.564479 0.083097
0.863823 0.565003 0.083773
0.892686 0.565528 0.084448
0.921569 0.566053 0.085125
0.034178 0.580094 0.070296
0.042514 0.580255 0.070387
0.069507 0.580774 0.070709
0.096952 0.581301 0.071037
0.124641 0.581833 0.071367
0.152501 0.582369 0.071700
0.180492 0.582907 0.072034
0.208591 0.583447 0.072370
0.236780 0.583988 0.072706
0.265047 0.584531 0.073044
0.293384 0.585076 0.073382
0.321782 0.585622 0.073721
0.350237 0.586168 0.074061
0.378588 0.586688 0.074676
0.406960 0.587204 0.075340
0.435375 0.587721 0.076006
0.463830 0.588238 0.076672
0.492323 0.588756 0.077339
0.520852 0.589275 0.078007
0.549414 0.589795 0.078676
0.578008 0.590314 0.079345
0.606632 0.590835 0.080015
0.635285 0.591356 0.080686
0.663966 0.591878 0.081358
0.692672 0.592400 0.082030
0.721404 0.592922 0.082703
0.750159 0.593445 0.083376
0.778938 0.593968 0.084050
0.807739 0.594492 0.084724
0.836562 0.595016 0.085399
0.865405 0.595540 0.086074
0.894268 0.596065 0.086750
0.923151 0.596590 0.087426
0.035968 0.610737 0.071469
0.044723 0.610906 0.071568
0.071717 0.611425 0.071890
0.099161 0.611952 0.072218
0.126851 0.612484 0.072549
0.154710 0.613020 0.072881
0.182702 0.613558 0.073216
0.210800 0.614098 0.073551
0.238989 0.614639 0.073888
0.267196 0.615171 0.074333
0.295353 0.615683 0.074992
0.323571 0.616197 0.075653
0.351845 0.616711 0.076315
0.380170 0.617226 0.076978
0.408542 0.617742 0.077642
0.436957 0.618258 0.078307
0.465412 0.618776 0.078973
0.493905 0.619294 0.079641
0.522434 0.619813 0.080309
0.550996 0.620332 0.080977
0.579590 0.620852 0.081647
0.608214 0.621372 0.082317
0.636867 0.621893 0.082988
0.665547 0.622415 0.083659
0.694254 0.622937 0.084331
0.722985 0.623459 0.085004
0.751741 0.623982 0.085677
0.780520 0.624506 0.086351
0.809321 0.625029 0.087025
0.838143 0.625553 0.087700
0.866987 0.626078 0.088376
0.895850 0.626603 0.089051
0.924733 0.627128 0.089728
0.037759 0.641380 0.072643
0.046932 0.641557 0.072749
0.073926 0.642076 0.073072
0.101371 0.642603 0.073399
0.129060 0.643135 0.073730
0.156920 0.643671 0.074063
0.184760 0.644181 0.074667
0.212680 0.644689 0.075321
0.240690 0.645198 0.075976
0.268778 0.645709 0.076634
0.296935 0.646221 0.077293
0.325153 0.646734 0.077954
0.353427 0.647248 0.078616
0.381752 0.647763 0.079279
0.410123 0.648279 0.079943
0.438538 0.648796 0.080609
0.466994 0.649313 0.081275
0.495487 0.649831 0.081942
0.524016 0.650350 0.082610
0.552578 0.650869 0.083279
0.581172 0.651389 0.083948
0.609796 0.651910 0.084618
0.638449 0.652431 0.085289
0.667129 0.652952 0.085961
0.695836 0.653474 0.086633
0.724567 0.653997 0.087306
0.753323 0.654520 0.087979
0.782102 0.655043 0.088653
0.810903 0.655567 0.089327
0.839725 0.656091 0.090002
0.868568 0.656615 0.090677
0.897432 0.657140 0.091353
0.926315 0.657665 0.092029
0.039550 0.672024 0.073817
0.049142 0.672208 0.073930
0.076061 0.672713 0.074386
0.103331 0.673209 0.075025
0.130845 0.673709 0.075669
0.158528 0.674213 0.076317
0.186342 0.674719 0.076968
0.214262 0.675226 0.077622
0.242272 0.675736 0.078278
0.270360 0.676246 0.078936
0.298517 0.676758 0.079595
0.326735 0.677271 0.080255
0.355009 0.677786 0.080917
0.383334 0.678301 0.081581
0.411705 0.678816 0.082245
0.440120 0.679333 0.082910
0.468575 0.679851 0.083576
0.497069 0.680369 0.084244
0.525597 0.680887 0.084911
0.554160 0.681407 0.085580
0.582754 0.681927 0.086250
0.611378 0.682447 0.086920
0.640031 0.682968 0.087591
0.668711 0.683490 0.088262
0.697418 0.684012 0.088934
0.726149 0.684534 0.089607
0.754905 0.685057 0.090280
0.783683 0.685580 0.090954
0.812484 0.686104 0.091628
0.841307 0.686628 0.092303
0.870150 0.687153 0.092979
0.899014 0.687678 0.093654
0.927896 0.688203 0.094331
0.041341 0.702591 0.075837
0.050820 0.702763 0.076060
0.077642 0.703251 0.076688
0.104913 0.703747 0.077326
0.132427 0.704247 0.077971
0.160110 0.704750 0.078619
0.187923 0.705256 0.079270
0.215844 0.705764 0.079924
0.243854 0.706273 0.080579
0.271942 0.706784 0.081237
0.300099 0.707296 0.081896
0.328317 0.707809 0.082557
0.356591 0.708323 0.083219
0.384915 0.708838 0.083882
0.413287 0.709354 0.084546
0.441702 0.709871 0.085212
0.470157 0.710388 0.085878
0.498650 0.710906 0.086545
0.527179 0.711425 0.087213
0.555741 0.711944 0.087882
0.584336 0.712464 0.088551
0.612960 0.712985 0.089221
0.641613 0.713506 0.089892
0.670293 0.714027 0.090564
0.698999 0.714549 0.091236
0.727731 0.715072 0.091908
0.756486 0.715595 0.092582
0.785265 0.716118 0.093256
0.814066 0.716642 0.093930
0.842889 0.717166 0.094605
0.871732 0.717690 0.095280
0.900595 0.718215 0.095956
0.929478 0.718740 0.096632
0.043132 0.733132 0.078142
0.052402 0.733300 0.078361
0.079224 0.733788 0.078989
0.106495 0.734284 0.079628
0.134008 0.734784 0.080272
0.161691 0.735288 0.080920
0.189505 0.735793 0.081571
0.217425 0.736301 0.082225
0.245436 0.736810 0.082881
0.273524 0.737321 0.083539
0.301680 0.737833 0.084198
0.329899 0.738346 0.084858
0.358173 0.738860 0.085520
0.386497 0.739375 0.086184
0.414869 0.739891 0.086848
0.443284 0.740408 0.087513
0.471739 0.740925 0.088179
0.500232 0.741444 0.088846
0.528761 0.741962 0.089514
0.557323 0.742482 0.090183
0.585917 0.743002 0.090853
0.614542 0.743522 0.091523
0.643194 0.744043 0.092194
0.671875 0.744565 0.092865
0.700581 0.745087 0.093537
0.729313 0.745609 0.094210
0.758068 0.746132 0.094883
0.786847 0.746655 0.095557
0.815648 0.747179 0.096231
0.844471 0.747703 0.096906
0.873314 0.748228 0.097581
0.902177 0.748752 0.098257
0.931060 0.749278 0.098933
0.044923 0.763673 0.080448
0.053983 0.763838 0.080663
0.080806 0.764326 0.081291
0.108077 0.764821 0.081929
0.135590 0.765322 0.082574
0.163273 0.765825 0.083222
0.191087 0.766331 0.083873
0.219007 0.766839 0.084527
0.247017 0.767348 0.085182
0.275105 0.767859 0.085840
0.303262 0.768371 0.086499
0.331480 0.768884 0.087160
0.359754 0.769398 0.087822
0.388079 0.769913 0.088485
0.416451 0.770429 0.089149
0.444866 0.770945 0.089815
0.473321 0.771463 0.090481
0.501814 0.771981 0.091148
0.530343 0.772500 0.091816
0.558905 0.773019 0.092485
0.587499 0.773539 0.093154
0.616123 0.774060 0.093824
0.644776 0.774581 0.094495
0.673456 0.775102 0.095167
0.702163 0.775624 0.095839
0.730894 0.776147 0.096511
0.759650 0.776669 0.097185
0.788429 0.777193 0.097858
0.817230 0.777716 0.098533
0.846052 0.778240 0.099208
0.874896 0.778765 0.099883
0.903759 0.779290 0.100559
0.932642 0.779815 0.101235
0.046714 0.794214 0.082753
0.055565 0.794375 0.082964
0.082388 0.794863 0.083592
0.109658 0.795359 0.084231
0.137172 0.795859 0.084875
0.164855 0.796363 0.085523
0.192669 0.796868 0.086174
0.220589 0.797376 0.086828
0.248599 0.797885 0.087484
0.276687 0.798396 0.088141
0.304844 0.798908 0.088801
0.333062 0.799421 0.089461
0.361336 0.799935 0.090123
0.389661 0.800450 0.090787
0.418032 0.800966 0.091451
0.446447 0.801483 0.092116
0.474903 0.802000 0.092782
0.503396 0.802518 0.093449
0.531925 0.803037 0.094117
0.560487 0.803557 0.094786
0.589081 0.804076 0.095456
0.617705 0.804597 0.096126
0.646358 0.805118 0.096797
0.675038 0.805639 0.097468
0.703745 0.806161 0.098140
0.732476 0.806684 0.098813
0.761232 0.807207 0.099486
