assets/preview/luts/cozy_amber_indoor.cube
TITLE "Cozy Amber Indoor"
LUT_3D_SIZE 9
DOMAIN_MIN 0.0 0.0 0.0
DOMAIN_MAX 1.0 1.0 1.0
0.005591 0.000000 0.000000
0.145170 0.000000 0.000000
0.308746 0.000000 0.000000
0.471022 0.000000 0.000000
0.631902 0.000000 0.000000
0.790859 0.000000 0.000000
0.947217 0.000000 0.000000
1.000000 0.000000 0.000000
1.000000 0.000000 0.000000
0.000000 0.115261 0.000000
0.132413 0.111280 0.000000
0.295989 0.106615 0.000000
0.458265 0.101986 0.000000
0.619145 0.097398 0.000000
0.778102 0.092864 0.000000
0.934459 0.088404 0.000000
1.000000 0.084040 0.000000
1.000000 0.083505 0.000000
0.000000 0.256183 0.000000
0.116837 0.252202 0.000000
0.280413 0.247536 0.000000
0.442689 0.242908 0.000000
0.603569 0.238319 0.000000
0.762526 0.233786 0.000000
0.918883 0.229326 0.000000
1.000000 0.224962 0.000000
1.000000 0.224396 0.000000
0.000000 0.397089 0.000000
0.101263 0.393108 0.000000
0.264838 0.388443 0.000000
0.427114 0.383815 0.000000
0.587994 0.379226 0.000000
0.746951 0.374693 0.000000
0.903309 0.370233 0.000000
1.000000 0.365869 0.000000
1.000000 0.365272 0.000000
0.000000 0.537714 0.000000
0.085719 0.533733 0.000000
0.249295 0.529067 0.000000
0.411571 0.524439 0.000000
0.572451 0.519850 0.000000
0.732495 0.515766 0.000000
0.890605 0.512031 0.000000
1.000000 0.508375 0.000000
1.000000 0.507989 0.000000
0.000000 0.677585 0.000000
0.070260 0.673604 0.000000
0.235160 0.669486 0.000000
0.399255 0.665609 0.000000
0.561938 0.661766 0.000000
0.722676 0.657969 0.000000
0.880786 0.654234 0.000000
1.000000 0.650579 0.000000
1.000000 0.650329 0.000000
0.000000 0.817614 0.000000
0.060024 0.814280 0.000000
0.225432 0.810372 0.000000
0.389527 0.806495 0.000000
0.552210 0.802652 0.000000
0.712949 0.798855 0.000000
0.871058 0.795120 0.000000
1.000000 0.791465 0.000000
1.000000 0.791352 0.000000
0.000000 0.956600 0.000000
0.050427 0.953265 0.000000
0.215836 0.949358 0.000000
0.379931 0.945481 0.000000
0.542613 0.941638 0.000000
0.703352 0.937841 0.000000
0.861462 0.934106 0.000000
1.000000 0.930450 0.000000
1.000000 0.930472 0.000000
0.000000 1.000000 0.000000
0.044763 1.000000 0.000000
0.210256 1.000000 0.000000
0.374433 1.000000 0.000000
0.537198 1.000000 0.000000
0.698018 1.000000 0.000000
0.856208 1.000000 0.000000
1.000000 1.000000 0.000000
1.000000 1.000000 0.000000
0.004897 0.000000 0.067370
0.144474 0.000000 0.063692
0.308046 0.000000 0.059382
0.470319 0.000000 0.055106
0.631195 0.000000 0.050866
0.790149 0.000000 0.046678
0.946503 0.000000 0.042558
1.000000 0.000000 0.038526
1.000000 0.000000 0.038060
0.000000 0.114612 0.056425
0.131708 0.110628 0.052747
0.295280 0.105959 0.048436
0.457553 0.101327 0.044160
0.618429 0.096736 0.039921
0.777383 0.092199 0.035732
0.933737 0.087736 0.031612
1.000000 0.083369 0.027580
1.000000 0.082832 0.027089
0.000000 0.255523 0.043061
0.116121 0.251539 0.039383
0.279693 0.246870 0.035072
0.441966 0.242239 0.030796
0.602843 0.237647 0.026557
0.761797 0.233110 0.022368
0.918151 0.228647 0.018248
1.000000 0.224280 0.014216
1.000000 0.223712 0.013695
0.000000 0.396419 0.029698
0.100536 0.392436 0.026020
0.264109 0.387767 0.021710
0.426381 0.383135 0.017434
0.587258 0.378543 0.013195
0.746212 0.374006 0.009006
0.902566 0.369544 0.004886
1.000000 0.365176 0.000854
1.000000 0.364578 0.000301
0.000000 0.537033 0.016363
0.084983 0.533049 0.012685
0.248555 0.528380 0.008374
0.410828 0.523749 0.004098
0.571704 0.519157 0.000000
0.732026 0.515191 0.000000
0.890144 0.511464 0.000000
1.000000 0.507816 0.000000
1.000000 0.507437 0.000000
0.000000 0.676894 0.003098
0.069512 0.672910 0.000000
0.234693 0.668912 0.000000
0.398796 0.665044 0.000000
0.561487 0.661209 0.000000
0.722234 0.657420 0.000000
0.880352 0.653693 0.000000
1.000000 0.650045 0.000000
1.000000 0.649804 0.000000
0.000000 0.817050 0.000000
0.059573 0.813723 0.000000
0.224991 0.809824 0.000000
0.389094 0.805956 0.000000
0.551785 0.802121 0.000000
0.712532 0.798332 0.000000
0.870650 0.794605 0.000000
1.000000 0.790957 0.000000
1.000000 0.790852 0.000000
0.000000 0.956061 0.000000
0.050002 0.952734 0.000000
0.215420 0.948835 0.000000
0.379523 0.944967 0.000000
0.542214 0.941132 0.000000
0.702961 0.937343 0.000000
0.861078 0.933616 0.000000
1.000000 0.929968 0.000000
1.000000 0.929998 0.000000
0.000000 1.000000 0.000000
0.044368 1.000000 0.000000
0.209868 1.000000 0.000000
0.374054 1.000000 0.000000
0.536828 1.000000 0.000000
0.697656 1.000000 0.000000
0.855854 1.000000 0.000000
1.000000 1.000000 0.000000
1.000000 1.000000 0.000000
0.003566 0.000000 0.197685
0.143142 0.000000 0.194007
0.306715 0.000000 0.189697
0.468988 0.000000 0.185420
0.629864 0.000000 0.181181
0.788818 0.000000 0.176993
0.945172 0.000000 0.172872
1.000000 0.000000 0.168840
1.000000 0.000000 0.168372
0.000000 0.113376 0.186739
0.130377 0.109392 0.183061
0.293949 0.104723 0.178751
0.456222 0.100091 0.174475
0.617098 0.095499 0.170236
0.776052 0.090962 0.166047
0.932406 0.086500 0.161927
1.000000 0.082132 0.157895
1.000000 0.081593 0.157401
0.000000 0.254287 0.173376
0.114790 0.250303 0.169698
0.278362 0.245634 0.165387
0.440635 0.241002 0.161111
0.601512 0.236411 0.156872
0.760466 0.231874 0.152683
0.916820 0.227411 0.148563
1.000000 0.223044 0.144531
1.000000 0.222473 0.144007
0.000000 0.395183 0.160013
0.099205 0.391199 0.156335
0.262777 0.386531 0.152025
0.425050 0.381899 0.147749
0.585927 0.377307 0.143509
0.744881 0.372770 0.139321
0.901235 0.368307 0.135201
1.000000 0.363940 0.131169
1.000000 0.363339 0.130613
0.000000 0.535797 0.146677
0.083652 0.531813 0.142999
0.247224 0.527144 0.138689
0.409497 0.522513 0.134413
0.570437 0.517947 0.130126
0.731184 0.514158 0.124595
0.889302 0.510431 0.119155
1.000000 0.506784 0.113831
1.000000 0.506416 0.113233
0.000000 0.675657 0.133413
0.068433 0.671778 0.129547
0.233850 0.667879 0.123856
0.397953 0.664011 0.118210
0.560644 0.660176 0.112612
0.721391 0.656387 0.107081
0.879509 0.652660 0.101641
1.000000 0.649013 0.096317
1.000000 0.648783 0.095856
0.000000 0.816017 0.117052
0.058731 0.812690 0.112195
0.224148 0.808791 0.106504
0.388251 0.804923 0.100858
0.550942 0.801088 0.095260
0.711689 0.797299 0.089730
0.869807 0.793572 0.084289
1.000000 0.789925 0.078965
1.000000 0.789831 0.078641
0.000000 0.955029 0.099934
0.049160 0.951701 0.095078
0.214577 0.947802 0.089386
0.378680 0.943934 0.083740
0.541371 0.940099 0.078143
0.702118 0.936310 0.072612
0.860236 0.932583 0.067172
1.000000 0.928936 0.061848
1.000000 0.928977 0.061658
0.000000 1.000000 0.089286
0.043547 1.000000 0.084501
0.209048 1.000000 0.078893
0.373234 1.000000 0.073330
0.536007 1.000000 0.067815
0.696835 1.000000 0.062365
0.855033 1.000000 0.057005
1.000000 1.000000 0.051783
1.000000 1.000000 0.051669
0.002192 0.000000 0.332174
0.141769 0.000000 0.328496
0.305341 0.000000 0.324186
0.467614 0.000000 0.319910
0.628490 0.000000 0.315671
0.787444 0.000000 0.311482
0.943798 0.000000 0.307362
1.000000 0.000000 0.303330
1.000000 0.000000 0.302859
0.000000 0.112100 0.321229
0.129003 0.108116 0.317551
0.292575 0.103447 0.313241
0.454848 0.098815 0.308964
0.615724 0.094224 0.304725
0.774678 0.089687 0.300536
0.931032 0.085224 0.296416
1.000000 0.080856 0.292384
1.000000 0.080314 0.291888
0.000000 0.253011 0.307865
0.113416 0.249027 0.304187
0.276988 0.244358 0.299877
0.439261 0.239727 0.295601
0.600138 0.235135 0.291361
0.759092 0.230598 0.287173
0.915446 0.226135 0.283053
1.000000 0.221768 0.279020
1.000000 0.221195 0.278493
0.000000 0.393907 0.294503
0.097831 0.389923 0.290825
0.261404 0.385255 0.286514
0.423676 0.380623 0.282238
0.584553 0.376031 0.277999
0.743507 0.371494 0.273810
0.899861 0.367031 0.269690
1.000000 0.362723 0.265552
1.000000 0.362230 0.264827
0.000000 0.534521 0.281167
0.082278 0.530537 0.277489
0.245850 0.525868 0.273179
0.408123 0.521237 0.268903
0.569568 0.516882 0.264238
0.730314 0.513093 0.258707
0.888432 0.509366 0.253267
1.000000 0.505718 0.247943
1.000000 0.505363 0.247357
0.000000 0.674382 0.267903
0.067563 0.670713 0.263659
0.232980 0.666814 0.257968
0.397084 0.662946 0.252322
0.559775 0.659111 0.246724
0.720522 0.655322 0.241193
0.878639 0.651595 0.235753
1.000000 0.647947 0.230429
1.000000 0.647730 0.229981
0.000000 0.814952 0.251164
0.057861 0.811625 0.246307
0.223278 0.807726 0.240616
0.387382 0.803858 0.234970
0.550073 0.800023 0.229372
0.710820 0.796234 0.223842
0.868937 0.792507 0.218402
1.000000 0.788859 0.213078
1.000000 0.788778 0.212765
0.000000 0.953963 0.234046
0.048290 0.950636 0.229190
0.213707 0.946737 0.223498
0.377810 0.942869 0.217852
0.540502 0.939034 0.212255
0.701248 0.935245 0.206724
0.859366 0.931518 0.201284
1.000000 0.927870 0.195960
1.000000 0.927924 0.195782
0.000000 1.000000 0.223421
0.042700 1.000000 0.218636
0.208201 1.000000 0.213028
0.372387 1.000000 0.207465
0.535161 1.000000 0.201950
0.695989 1.000000 0.196500
0.854186 1.000000 0.191140
1.000000 1.000000 0.185930
1.000000 1.000000 0.185816
0.000790 0.000000 0.469401
0.140367 0.000000 0.465723
0.303939 0.000000 0.461413
0.466212 0.000000 0.457137
0.627089 0.000000 0.452897
0.786042 0.000000 0.448709
0.942397 0.000000 0.444588
1.000000 0.000000 0.440556
1.000000 0.000000 0.440083
0.000000 0.110798 0.458455
0.127601 0.106814 0.454777
0.291173 0.102145 0.450467
0.453446 0.097514 0.446191
0.614323 0.092922 0.441952
0.773276 0.088385 0.437763
0.929631 0.083922 0.433643
1.000000 0.079555 0.429611
1.000000 0.079010 0.429112
0.000000 0.251709 0.445092
0.112014 0.247725 0.441414
0.275587 0.243057 0.437103
0.437860 0.238425 0.432827
0.598736 0.233833 0.428588
0.757690 0.229296 0.424399
0.914044 0.224833 0.420279
1.000000 0.220466 0.416247
1.000000 0.219890 0.415717
0.000000 0.392606 0.431729
0.096430 0.388622 0.428051
0.260002 0.383953 0.423741
0.422275 0.379321 0.419465
0.583151 0.374729 0.415225
0.742105 0.370192 0.411037
0.898459 0.365730 0.406917
1.000000 0.361636 0.402393
1.000000 0.361155 0.401681
0.000000 0.533219 0.418394
0.080876 0.529235 0.414716
0.244448 0.524567 0.410405
0.406721 0.519935 0.406129
0.568680 0.515795 0.401080
0.729427 0.512006 0.395549
0.887545 0.508279 0.390109
1.000000 0.504631 0.384785
1.000000 0.504288 0.384211
0.000000 0.673080 0.405129
0.066676 0.669626 0.400501
0.232093 0.665727 0.394809
0.396196 0.661859 0.389163
0.558888 0.658024 0.383566
0.719634 0.654235 0.378035
0.877752 0.650508 0.372595
1.000000 0.646860 0.367271
1.000000 0.646655 0.366835
0.000000 0.813865 0.388005
0.056974 0.810538 0.383149
0.222391 0.806638 0.377458
0.386494 0.802770 0.371811
0.549186 0.798935 0.366214
0.709932 0.795146 0.360683
0.868050 0.791419 0.355243
1.000000 0.787772 0.349919
1.000000 0.787703 0.349619
0.000000 0.952876 0.370888
0.047403 0.949549 0.366031
0.212820 0.945650 0.360340
0.376923 0.941781 0.354694
0.539614 0.937947 0.349096
0.700361 0.934158 0.343566
0.858479 0.930430 0.338125
1.000000 0.926783 0.332801
1.000000 0.926849 0.332636
0.000000 1.000000 0.360286
0.041836 1.000000 0.355501
0.207337 1.000000 0.349893
0.371523 1.000000 0.344330
0.534297 1.000000 0.338815
0.695125 1.000000 0.333365
0.853322 1.000000 0.328005
1.000000 1.000000 0.322808
1.000000 1.000000 0.322693
0.000000 0.000000 0.608429
0.138947 0.000000 0.604751
0.302519 0.000000 0.600440
0.464792 0.000000 0.596164
0.625668 0.000000 0.591925
0.784622 0.000000 0.587736
0.940977 0.000000 0.583616
1.000000 0.000000 0.579584
1.000000 0.000000 0.579108
0.000000 0.109479 0.597483
0.126181 0.105495 0.593805
0.289753 0.100826 0.589495
0.452026 0.096195 0.585219
0.612903 0.091603 0.580979
0.771856 0.087066 0.576791
0.928211 0.082603 0.572671
1.000000 0.078236 0.568639
1.000000 0.077688 0.568137
0.000000 0.250390 0.584119
0.110594 0.246406 0.580441
0.274167 0.241738 0.576131
0.436439 0.237106 0.571855
0.597316 0.232514 0.567616
0.756270 0.227977 0.563427
0.912624 0.223514 0.559307
1.000000 0.219147 0.555275
1.000000 0.218568 0.554742
0.000000 0.391287 0.570757
0.095009 0.387303 0.567079
0.258582 0.382634 0.562769
0.420855 0.378002 0.558492
0.581731 0.373410 0.554253
0.740685 0.368874 0.550065
0.897039 0.364411 0.545944
1.000000 0.360535 0.541031
1.000000 0.360066 0.540331
0.000000 0.531900 0.557421
0.079456 0.527916 0.553743
0.243028 0.523248 0.549433
0.405301 0.518616 0.545157
0.567781 0.514693 0.539717
0.728528 0.510904 0.534187
0.886646 0.507177 0.528746
1.000000 0.503530 0.523422
1.000000 0.503200 0.522861
0.000000 0.671851 0.543995
0.065777 0.668524 0.539138
0.231194 0.664625 0.533447
0.395297 0.660757 0.527801
0.557989 0.656922 0.522203
0.718735 0.653133 0.516673
0.876853 0.649406 0.511232
1.000000 0.645759 0.505908
1.000000 0.645566 0.505485
0.000000 0.812763 0.526643
0.056075 0.809436 0.521786
0.221492 0.805537 0.516095
0.385595 0.801669 0.510449
0.548287 0.797834 0.504851
0.709033 0.794045 0.499321
0.867151 0.790318 0.493881
1.000000 0.786671 0.488557
1.000000 0.786615 0.488270
0.000000 0.951774 0.509525
0.046504 0.948447 0.504669
0.211921 0.944548 0.498977
0.376024 0.940680 0.493331
0.538715 0.936845 0.487734
0.699462 0.933056 0.482203
0.857580 0.929329 0.476763
1.000000 0.925682 0.471439
1.000000 0.925760 0.471286
0.000000 1.000000 0.498947
0.040961 1.000000 0.494162
0.206462 1.000000 0.488554
0.370648 1.000000 0.482991
0.533421 1.000000 0.477476
0.694249 1.000000 0.472026
0.852447 1.000000 0.466666
1.000000 1.000000 0.461481
1.000000 1.000000 0.461367
0.000000 0.000000 0.748493
0.137516 0.000000 0.744815
0.301088 0.000000 0.740505
0.463361 0.000000 0.736228
0.624238 0.000000 0.731989
0.783192 0.000000 0.727801
0.939546 0.000000 0.723680
1.000000 0.000000 0.719648
1.000000 0.000000 0.719169
0.000000 0.108150 0.737547
0.124750 0.104166 0.733869
0.288322 0.099498 0.729559
0.450595 0.094866 0.725283
0.611472 0.090274 0.721044
0.770426 0.085737 0.716855
0.926780 0.081274 0.712735
1.000000 0.076907 0.708703
1.000000 0.076356 0.708198
0.000000 0.249062 0.724184
0.109164 0.245078 0.720505
0.272736 0.240409 0.716195
0.435009 0.235777 0.711919
0.595885 0.231185 0.707680
0.754839 0.226648 0.703491
0.911193 0.222186 0.699371
1.000000 0.217818 0.695339
1.000000 0.217237 0.694804
0.000000 0.389958 0.710821
0.093579 0.385974 0.707143
0.257151 0.381305 0.702833
0.419424 0.376674 0.698557
0.580300 0.372082 0.694317
0.739254 0.367545 0.690129
0.895608 0.363082 0.686009
1.000000 0.359425 0.680702
1.000000 0.358969 0.680015
0.000000 0.530572 0.697485
0.078025 0.526588 0.693807
0.241597 0.521919 0.689497
0.404184 0.517418 0.684986
0.566876 0.513583 0.679388
0.727622 0.509794 0.673858
0.885740 0.506067 0.668418
1.000000 0.502420 0.663094
1.000000 0.502103 0.662545
0.000000 0.670742 0.683666
0.064871 0.667415 0.678809
0.230289 0.663516 0.673118
0.394392 0.659647 0.667472
0.557083 0.655813 0.661874
0.717830 0.652023 0.656344
0.875947 0.648296 0.650904
1.000000 0.644649 0.645580
1.000000 0.644469 0.645169
0.000000 0.811654 0.666314
0.055169 0.808326 0.661458
0.220587 0.804427 0.655766
0.384690 0.800559 0.650120
0.547381 0.796724 0.644523
0.708128 0.792935 0.638992
0.866245 0.789208 0.633552
1.000000 0.785561 0.628228
1.000000 0.785518 0.627953
0.000000 0.950665 0.649196
0.045598 0.947338 0.644340
0.211015 0.943438 0.638649
0.375119 0.939570 0.633002
0.537810 0.935735 0.627405
0.698556 0.931946 0.621874
0.856674 0.928219 0.616434
1.000000 0.924572 0.611110
1.000000 0.924663 0.610970
0.000000 1.000000 0.638642
0.040079 1.000000 0.633857
0.205580 1.000000 0.628249
0.369766 1.000000 0.622686
0.532539 1.000000 0.617171
0.693367 1.000000 0.611721
0.851565 1.000000 0.606361
1.000000 1.000000 0.601189
1.000000 1.000000 0.601075
0.000000 0.000000 0.888904
0.136082 0.000000 0.885226
0.299654 0.000000 0.880916
0.461927 0.000000 0.876640
0.622803 0.000000 0.872401
0.781757 0.000000 0.868212
0.938112 0.000000 0.864092
1.000000 0.000000 0.860060
1.000000 0.000000 0.859578
0.000000 0.106818 0.877959
0.123316 0.102834 0.874281
0.286888 0.098166 0.869971
0.449161 0.093534 0.865694
0.610038 0.088942 0.861455
0.768991 0.084405 0.857267
0.925346 0.079942 0.853146
1.000000 0.075575 0.849114
1.000000 0.075021 0.848607
0.000000 0.247730 0.864595
0.107729 0.243746 0.860917
0.271302 0.239077 0.856607
0.433574 0.234445 0.852331
0.594451 0.229853 0.848091
0.753405 0.225316 0.843903
0.909759 0.220854 0.839783
1.000000 0.216486 0.835750
1.000000 0.215902 0.835212
0.000000 0.388626 0.851233
0.092144 0.384642 0.847555
0.255717 0.379973 0.843244
0.417990 0.375342 0.838968
0.578866 0.370750 0.834729
0.737820 0.366213 0.830540
0.894678 0.361960 0.826043
1.000000 0.358313 0.820719
1.000000 0.357870 0.820045
0.000000 0.529240 0.837897
0.076591 0.525256 0.834219
0.240163 0.520587 0.829909
0.403276 0.516306 0.825003
0.565968 0.512471 0.819406
0.726714 0.508682 0.813875
0.884832 0.504955 0.808435
1.000000 0.501308 0.803111
1.000000 0.501003 0.802576
0.000000 0.669629 0.823683
0.063963 0.666302 0.818827
0.229381 0.662403 0.813136
0.393484 0.658535 0.807489
0.556175 0.654700 0.801892
0.716922 0.650911 0.796361
0.875039 0.647184 0.790921
1.000000 0.643537 0.785597
1.000000 0.643370 0.785199
0.000000 0.810541 0.806332
0.054261 0.807214 0.801475
0.219679 0.803315 0.795784
0.383782 0.799447 0.790138
0.546473 0.795612 0.784540
0.707220 0.791823 0.779010
0.865337 0.788096 0.773569
1.000000 0.784448 0.768245
1.000000 0.784418 0.767984
0.000000 0.949552 0.789214
0.044690 0.946225 0.784357
0.210107 0.942326 0.778666
0.374211 0.938458 0.773020
0.536902 0.934623 0.767422
0.697649 0.930834 0.761892
0.855766 0.927107 0.756452
1.000000 0.923459 0.751128
1.000000 0.923563 0.751001
0.000000 1.000000 0.778683
0.039195 1.000000 0.773898
0.204696 1.000000 0.768291
0.368882 1.000000 0.762727
0.531655 1.000000 0.757212
0.692483 1.000000 0.751763
0.850681 1.000000 0.746402
1.000000 1.000000 0.741243
1.000000 1.000000 0.741129
0.000000 0.000000 1.000000
0.134651 0.000000 1.000000
0.298223 0.000000 1.000000
0.460496 0.000000 1.000000
0.621372 0.000000 1.000000
0.780326 0.000000 1.000000
0.936680 0.000000 1.000000
1.000000 0.000000 1.000000
1.000000 0.000000 0.999683
0.000000 0.105489 1.000000
0.121885 0.101505 1.000000
0.285457 0.096837 1.000000
0.447730 0.092205 1.000000
0.608606 0.087613 1.000000
0.767560 0.083076 0.997374
0.923914 0.078613 0.993254
1.000000 0.074246 0.989222
1.000000 0.073689 0.988712
0.000000 0.246400 1.000000
0.106298 0.242417 1.000000
0.269870 0.237748 0.996714
0.432143 0.233116 0.992438
0.593020 0.228524 0.988199
0.751974 0.223987 0.984010
0.908328 0.219525 0.979890
1.000000 0.215157 0.975858
1.000000 0.214570 0.975317
0.000000 0.387297 0.991340
0.090713 0.383313 0.987662
0.254286 0.378644 0.983352
0.416558 0.374012 0.979076
0.577435 0.369421 0.974837
0.736389 0.364884 0.970648
0.893772 0.360850 0.965758
1.000000 0.357203 0.960434
1.000000 0.356772 0.959773
0.000000 0.527910 0.978005
0.075160 0.523927 0.974327
0.238732 0.519258 0.970016
0.402371 0.515196 0.964718
0.565062 0.511361 0.959120
0.725808 0.507572 0.953590
0.883926 0.503845 0.948150
1.000000 0.500198 0.942826
1.000000 0.499906 0.942303
0.000000 0.668519 0.963398
0.063057 0.665192 0.958541
0.228475 0.661293 0.952850
0.392578 0.657425 0.947204
0.555269 0.653590 0.941607
0.716016 0.649801 0.936076
0.874134 0.646074 0.930636
1.000000 0.642427 0.925312
1.000000 0.642272 0.924927
0.000000 0.809431 0.946046
0.053355 0.806104 0.941190
0.218773 0.802205 0.935498
0.382876 0.798337 0.929852
0.545567 0.794502 0.924255
0.706314 0.790713 0.918724
0.864432 0.786986 0.913284
1.000000 0.783338 0.907960
1.000000 0.783321 0.907711
0.000000 0.948442 0.928928
0.043784 0.945115 0.924072
0.209202 0.941216 0.918381
0.373305 0.937348 0.912735
0.535996 0.933513 0.907137
0.696743 0.929724 0.901606
0.854860 0.925997 0.896166
1.000000 0.922360 0.890853
1.000000 0.922466 0.890728
0.000000 1.000000 0.918422
0.038313 1.000000 0.913637
0.203814 1.000000 0.908029
0.368000 1.000000 0.902466
0.530773 1.000000 0.896950
0.691601 1.000000 0.891501
0.849799 1.000000 0.886141
1.000000 1.000000 0.880994
1.000000 1.000000 0.880880
