assets/preview/luts/cozy_amber_indoor.cube
TITLE "Cozy Amber Indoor"
LUT_3D_SIZE 5
DOMAIN_MIN 0.0 0.0 0.0
DOMAIN_MAX 1.0 1.0 1.0
0.005591 0.000000 0.000000
0.308746 0.000000 0.000000
0.631902 0.000000 0.000000
0.947217 0.000000 0.000000
1.000000 0.000000 0.000000
0.000000 0.256183 0.000000
0.280413 0.247536 0.000000
0.603569 0.238319 0.000000
0.918883 0.229326 0.000000
1.000000 0.224396 0.000000
0.000000 0.537714 0.000000
0.249295 0.529067 0.000000
0.572451 0.519850 0.000000
0.890605 0.512031 0.000000
1.000000 0.507989 0.000000
0.000000 0.817614 0.000000
0.225432 0.810372 0.000000
0.552210 0.802652 0.000000
0.871058 0.795120 0.000000
1.000000 0.791352 0.000000
0.000000 1.000000 0.000000
0.210256 1.000000 0.000000
0.537198 1.000000 0.000000
0.856208 1.000000 0.000000
1.000000 1.000000 0.000000
0.003566 0.000000 0.197685
0.306715 0.000000 0.189697
0.629864 0.000000 0.181181
0.945172 0.000000 0.172872
1.000000 0.000000 0.168372
0.000000 0.254287 0.173376
0.278362 0.245634 0.165387
0.601512 0.236411 0.156872
0.916820 0.227411 0.148563
1.000000 0.222473 0.144007
0.000000 0.535797 0.146677
0.247224 0.527144 0.138689
0.570437 0.517947 0.130126
0.889302 0.510431 0.119155
1.000000 0.506416 0.113233
0.000000 0.816017 0.117052
0.224148 0.808791 0.106504
0.550942 0.801088 0.095260
0.869807 0.793572 0.084289
1.000000 0.789831 0.078641
0.000000 1.000000 0.089286
0.209048 1.000000 0.078893
0.536007 1.000000 0.067815
0.855033 1.000000 0.057005
1.000000 1.000000 0.051669
0.000790 0.000000 0.469401
0.303939 0.000000 0.461413
0.627089 0.000000 0.452897
0.942397 0.000000 0.444588
1.000000 0.000000 0.440083
0.000000 0.251709 0.445092
0.275587 0.243057 0.437103
0.598736 0.233833 0.428588
0.914044 0.224833 0.420279
1.000000 0.219890 0.415717
0.000000 0.533219 0.418394
0.244448 0.524567 0.410405
0.568680 0.515795 0.401080
0.887545 0.508279 0.390109
1.000000 0.504288 0.384211
0.000000 0.813865 0.388005
0.222391 0.806638 0.377458
0.549186 0.798935 0.366214
0.868050 0.791419 0.355243
1.000000 0.787703 0.349619
0.000000 1.000000 0.360286
0.207337 1.000000 0.349893
0.534297 1.000000 0.338815
0.853322 1.000000 0.328005
1.000000 1.000000 0.322693
0.000000 0.000000 0.748493
0.301088 0.000000 0.740505
0.624238 0.000000 0.731989
0.939546 0.000000 0.723680
1.000000 0.000000 0.719169
0.000000 0.249062 0.724184
0.272736 0.240409 0.716195
0.595885 0.231185 0.707680
0.911193 0.222186 0.699371
1.000000 0.217237 0.694804
0.000000 0.530572 0.697485
0.241597 0.521919 0.689497
0.566876 0.513583 0.679388
0.885740 0.506067 0.668418
1.000000 0.502103 0.662545
0.000000 0.811654 0.666314
0.220587 0.804427 0.655766
0.547381 0.796724 0.644523
0.866245 0.789208 0.633552
1.000000 0.785518 0.627953
0.000000 1.000000 0.638642
0.205580 1.000000 0.628249
0.532539 1.000000 0.617171
0.851565 1.000000 0.606361
1.000000 1.000000 0.601075
0.000000 0.000000 1.000000
0.298223 0.000000 1.000000
0.621372 0.000000 1.000000
0.936680 0.000000 1.000000
1.000000 0.000000 0.999683
0.000000 0.246400 1.000000
0.269870 0.237748 0.996714
0.593020 0.228524 0.988199
0.908328 0.219525 0.979890
1.000000 0.214570 0.975317
0.000000 0.527910 0.978005
0.238732 0.519258 0.970016
0.565062 0.511361 0.959120
0.883926 0.503845 0.948150
1.000000 0.499906 0.942303
0.000000 0.809431 0.946046
0.218773 0.802205 0.935498
0.545567 0.794502 0.924255
0.864432 0.786986 0.913284
1.000000 0.783321 0.907711
0.000000 1.000000 0.918422
0.203814 1.000000 0.908029
0.530773 1.000000 0.896950
0.849799 1.000000 0.886141
1.000000 1.000000 0.880880
