assets/preview/luts/cozy_amber_indoor.cube
TITLE "Cozy Amber Indoor"
LUT_3D_SIZE 33
DOMAIN_MIN 0.0 0.0 0.0
DOMAIN_MAX 1.0 1.0 1.0
0.005591 0.000000 0.000000
0.020692 0.000000 0.000000
0.062521 0.000000 0.000000
0.103963 0.000000 0.000000
0.145170 0.000000 0.000000
0.186219 0.000000 0.000000
0.227151 0.000000 0.000000
0.267989 0.000000 0.000000
0.308746 0.000000 0.000000
0.349428 0.000000 0.000000
0.390036 0.000000 0.000000
0.430569 0.000000 0.000000
0.471022 0.000000 0.000000
0.511390 0.000000 0.000000
0.551664 0.000000 0.000000
0.591838 0.000000 0.000000
0.631902 0.000000 0.000000
0.671846 0.000000 0.000000
0.711661 0.000000 0.000000
0.751336 0.000000 0.000000
0.790859 0.000000 0.000000
0.830220 0.000000 0.000000
0.869408 0.000000 0.000000
0.908411 0.000000 0.000000
0.947217 0.000000 0.000000
0.985814 0.000000 0.000000
1.000000 0.000000 0.000000
1.000000 0.000000 0.000000
1.000000 0.000000 0.000000
1.000000 0.000000 0.000000
1.000000 0.000000 0.000000
1.000000 0.000000 0.000000
1.000000 0.000000 0.000000
0.004551 0.009244 0.000000
0.019653 0.008813 0.000000
0.061482 0.007620 0.000000
0.102924 0.006438 0.000000
0.144131 0.005263 0.000000
0.185180 0.004092 0.000000
0.226112 0.002924 0.000000
0.266950 0.001760 0.000000
0.307707 0.000597 0.000000
0.348389 0.000000 0.000000
0.388997 0.000000 0.000000
0.429530 0.000000 0.000000
0.469983 0.000000 0.000000
0.510350 0.000000 0.000000
0.550625 0.000000 0.000000
0.590799 0.000000 0.000000
0.630863 0.000000 0.000000
0.670807 0.000000 0.000000
0.710622 0.000000 0.000000
0.750296 0.000000 0.000000
0.789820 0.000000 0.000000
0.829181 0.000000 0.000000
0.868369 0.000000 0.000000
0.907372 0.000000 0.000000
0.946177 0.000000 0.000000
0.984774 0.000000 0.000000
1.000000 0.000000 0.000000
1.000000 0.000000 0.000000
1.000000 0.000000 0.000000
1.000000 0.000000 0.000000
1.000000 0.000000 0.000000
1.000000 0.000000 0.000000
1.000000 0.000000 0.000000
0.000634 0.044687 0.000000
0.015735 0.044256 0.000000
0.057564 0.043063 0.000000
0.099006 0.041881 0.000000
0.140213 0.040706 0.000000
0.181262 0.039535 0.000000
0.222194 0.038368 0.000000
0.263032 0.037203 0.000000
0.303789 0.036041 0.000000
0.344471 0.034880 0.000000
0.385079 0.033722 0.000000
0.425612 0.032566 0.000000
0.466065 0.031412 0.000000
0.506433 0.030261 0.000000
0.546708 0.029112 0.000000
0.586881 0.027966 0.000000
0.626945 0.026824 0.000000
0.666890 0.025684 0.000000
0.706704 0.024549 0.000000
0.746379 0.023417 0.000000
0.785902 0.022290 0.000000
0.825264 0.021167 0.000000
0.864451 0.020050 0.000000
0.903454 0.018937 0.000000
0.942260 0.017831 0.000000
0.980857 0.016730 0.000000
1.000000 0.015635 0.000000
1.000000 0.014547 0.000000
1.000000 0.013466 0.000000
1.000000 0.012947 0.000000
1.000000 0.012947 0.000000
1.000000 0.012947 0.000000
1.000000 0.012947 0.000000
0.000000 0.080002 0.000000
0.011832 0.079571 0.000000
0.053661 0.078378 0.000000
0.095103 0.077196 0.000000
0.136310 0.076021 0.000000
0.177359 0.074850 0.000000
0.218291 0.073683 0.000000
0.259129 0.072518 0.000000
0.299886 0.071356 0.000000
0.340568 0.070195 0.000000
0.381176 0.069037 0.000000
0.421709 0.067881 0.000000
0.462162 0.066727 0.000000
0.502529 0.065576 0.000000
0.542804 0.064427 0.000000
0.582978 0.063282 0.000000
0.623042 0.062139 0.000000
0.662986 0.061000 0.000000
0.702801 0.059864 0.000000
0.742475 0.058732 0.000000
0.781999 0.057605 0.000000
0.821360 0.056483 0.000000
0.860548 0.055365 0.000000
0.899551 0.054252 0.000000
0.938356 0.053146 0.000000
0.976954 0.052045 0.000000
1.000000 0.050950 0.000000
1.000000 0.049862 0.000000
1.000000 0.048781 0.000000
1.000000 0.048254 0.000000
1.000000 0.048254 0.000000
1.000000 0.048254 0.000000
1.000000 0.048254 0.000000
0.000000 0.115261 0.000000
0.007935 0.114830 0.000000
0.049764 0.113637 0.000000
0.091206 0.112455 0.000000
0.132413 0.111280 0.000000
0.173462 0.110109 0.000000
0.214393 0.108942 0.000000
0.255232 0.107777 0.000000
0.295989 0.106615 0.000000
0.336671 0.105454 0.000000
0.377279 0.104296 0.000000
0.417812 0.103140 0.000000
0.458265 0.101986 0.000000
0.498632 0.100835 0.000000
0.538907 0.099686 0.000000
0.579081 0.098540 0.000000
0.619145 0.097398 0.000000
0.659089 0.096258 0.000000
0.698904 0.095123 0.000000
0.738578 0.093991 0.000000
0.778102 0.092864 0.000000
0.817463 0.091741 0.000000
0.856651 0.090624 0.000000
0.895653 0.089511 0.000000
0.934459 0.088404 0.000000
0.973056 0.087304 0.000000
1.000000 0.086209 0.000000
1.000000 0.085121 0.000000
1.000000 0.084040 0.000000
1.000000 0.083505 0.000000
1.000000 0.083505 0.000000
1.000000 0.083505 0.000000
1.000000 0.083505 0.000000
0.000000 0.150496 0.000000
0.004040 0.150065 0.000000
0.045869 0.148872 0.000000
0.087311 0.147690 0.000000
0.128518 0.146515 0.000000
0.169567 0.145344 0.000000
0.210499 0.144177 0.000000
0.251337 0.143012 0.000000
0.292094 0.141850 0.000000
0.332776 0.140689 0.000000
0.373384 0.139531 0.000000
0.413917 0.138375 0.000000
0.454370 0.137221 0.000000
0.494738 0.136070 0.000000
0.535012 0.134921 0.000000
0.575186 0.133776 0.000000
0.615250 0.132633 0.000000
0.655195 0.131494 0.000000
0.695009 0.130358 0.000000
0.734684 0.129226 0.000000
0.774207 0.128099 0.000000
0.813569 0.126977 0.000000
0.852756 0.125859 0.000000
0.891759 0.124746 0.000000
0.930565 0.123640 0.000000
0.969162 0.122539 0.000000
1.000000 0.121444 0.000000
1.000000 0.120356 0.000000
1.000000 0.119275 0.000000
1.000000 0.118733 0.000000
1.000000 0.118733 0.000000
1.000000 0.118733 0.000000
1.000000 0.118733 0.000000
0.000000 0.185724 0.000000
0.000146 0.185293 0.000000
0.041976 0.184100 0.000000
0.083417 0.182918 0.000000
0.124625 0.181743 0.000000
0.165673 0.180572 0.000000
0.206605 0.179405 0.000000
0.247443 0.178240 0.000000
0.288200 0.177078 0.000000
0.328882 0.175917 0.000000
0.369491 0.174759 0.000000
0.410023 0.173603 0.000000
0.450476 0.172449 0.000000
0.490844 0.171298 0.000000
0.531119 0.170149 0.000000
0.571293 0.169003 0.000000
0.611356 0.167861 0.000000
0.651301 0.166721 0.000000
0.691116 0.165586 0.000000
0.730790 0.164454 0.000000
0.770314 0.163327 0.000000
0.809675 0.162204 0.000000
0.848863 0.161087 0.000000
0.887865 0.159974 0.000000
0.926671 0.158867 0.000000
0.965268 0.157767 0.000000
1.000000 0.156672 0.000000
1.000000 0.155584 0.000000
1.000000 0.154503 0.000000
1.000000 0.153953 0.000000
1.000000 0.153953 0.000000
1.000000 0.153953 0.000000
1.000000 0.153953 0.000000
0.000000 0.220952 0.000000
0.000000 0.220521 0.000000
0.038082 0.219328 0.000000
0.079524 0.218146 0.000000
0.120731 0.216971 0.000000
0.161780 0.215800 0.000000
0.202711 0.214633 0.000000
0.243550 0.213468 0.000000
0.284307 0.212306 0.000000
0.324989 0.211145 0.000000
0.365597 0.209987 0.000000
0.406130 0.208831 0.000000
0.446583 0.207677 0.000000
0.486950 0.206526 0.000000
0.527225 0.205377 0.000000
0.567399 0.204231 0.000000
0.607463 0.203089 0.000000
0.647407 0.201949 0.000000
0.687222 0.200814 0.000000
0.726896 0.199682 0.000000
0.766420 0.198555 0.000000
0.805781 0.197432 0.000000
0.844969 0.196315 0.000000
0.883971 0.195202 0.000000
0.922777 0.194095 0.000000
0.961374 0.192995 0.000000
0.999751 0.191900 0.000000
1.000000 0.190812 0.000000
1.000000 0.189731 0.000000
1.000000 0.189173 0.000000
1.000000 0.189173 0.000000
1.000000 0.189173 0.000000
1.000000 0.189173 0.000000
0.000000 0.256183 0.000000
0.000000 0.255752 0.000000
0.034188 0.254559 0.000000
0.075630 0.253377 0.000000
0.116837 0.252202 0.000000
0.157886 0.251031 0.000000
0.198817 0.249863 0.000000
0.239655 0.248699 0.000000
0.280413 0.247536 0.000000
0.321095 0.246376 0.000000
0.361703 0.245218 0.000000
0.402236 0.244062 0.000000
0.442689 0.242908 0.000000
0.483056 0.241757 0.000000
0.523331 0.240608 0.000000
0.563505 0.239462 0.000000
0.603569 0.238319 0.000000
0.643513 0.237180 0.000000
0.683328 0.236045 0.000000
0.723002 0.234913 0.000000
0.762526 0.233786 0.000000
0.801887 0.232663 0.000000
0.841075 0.231545 0.000000
0.880077 0.230433 0.000000
0.918883 0.229326 0.000000
0.957480 0.228225 0.000000
0.995857 0.227131 0.000000
1.000000 0.226043 0.000000
1.000000 0.224962 0.000000
1.000000 0.224396 0.000000
1.000000 0.224396 0.000000
1.000000 0.224396 0.000000
1.000000 0.224396 0.000000
0.000000 0.291415 0.000000
0.000000 0.290985 0.000000
0.030294 0.289791 0.000000
0.071735 0.288610 0.000000
0.112943 0.287434 0.000000
0.153991 0.286263 0.000000
0.194923 0.285096 0.000000
0.235761 0.283931 0.000000
0.276518 0.282769 0.000000
0.317200 0.281609 0.000000
0.357809 0.280450 0.000000
0.398341 0.279294 0.000000
0.438794 0.278140 0.000000
0.479162 0.276989 0.000000
0.519437 0.275840 0.000000
0.559611 0.274695 0.000000
0.599674 0.273552 0.000000
0.639619 0.272413 0.000000
0.679434 0.271277 0.000000
0.719108 0.270146 0.000000
0.758632 0.269018 0.000000
0.797993 0.267896 0.000000
0.837181 0.266778 0.000000
0.876183 0.265666 0.000000
0.914989 0.264559 0.000000
0.953586 0.263458 0.000000
0.991963 0.262363 0.000000
1.000000 0.261275 0.000000
1.000000 0.260195 0.000000
1.000000 0.259621 0.000000
1.000000 0.259621 0.000000
1.000000 0.259621 0.000000
1.000000 0.259621 0.000000
0.000000 0.326647 0.000000
0.000000 0.326216 0.000000
0.026400 0.325023 0.000000
0.067841 0.323841 0.000000
0.109049 0.322666 0.000000
0.150097 0.321495 0.000000
0.191029 0.320328 0.000000
0.231867 0.319163 0.000000
0.272624 0.318001 0.000000
0.313306 0.316840 0.000000
0.353914 0.315682 0.000000
0.394447 0.314526 0.000000
0.434900 0.313372 0.000000
0.475268 0.312221 0.000000
0.515543 0.311072 0.000000
0.555716 0.309926 0.000000
0.595780 0.308784 0.000000
0.635725 0.307644 0.000000
0.675539 0.306509 0.000000
0.715214 0.305377 0.000000
0.754737 0.304250 0.000000
0.794099 0.303127 0.000000
0.833286 0.302010 0.000000
0.872289 0.300897 0.000000
0.911095 0.299791 0.000000
0.949692 0.298690 0.000000
0.988068 0.297595 0.000000
1.000000 0.296507 0.000000
1.000000 0.295426 0.000000
1.000000 0.294845 0.000000
1.000000 0.294845 0.000000
1.000000 0.294845 0.000000
1.000000 0.294845 0.000000
0.000000 0.361874 0.000000
0.000000 0.361443 0.000000
0.022506 0.360250 0.000000
0.063948 0.359068 0.000000
0.105155 0.357893 0.000000
0.146204 0.356722 0.000000
0.187135 0.355554 0.000000
0.227974 0.354390 0.000000
0.268731 0.353227 0.000000
0.309413 0.352067 0.000000
0.350021 0.350909 0.000000
0.390554 0.349753 0.000000
0.431007 0.348599 0.000000
0.471374 0.347447 0.000000
0.511649 0.346299 0.000000
0.551823 0.345153 0.000000
0.591887 0.344010 0.000000
0.631831 0.342871 0.000000
0.671646 0.341735 0.000000
0.711320 0.340604 0.000000
0.750844 0.339477 0.000000
0.790205 0.338354 0.000000
0.829393 0.337236 0.000000
0.868395 0.336124 0.000000
0.907201 0.335017 0.000000
0.945798 0.333916 0.000000
0.984175 0.332822 0.000000
1.000000 0.331734 0.000000
1.000000 0.330653 0.000000
1.000000 0.330064 0.000000
1.000000 0.330064 0.000000
1.000000 0.330064 0.000000
1.000000 0.330064 0.000000
0.000000 0.397089 0.000000
0.000000 0.396659 0.000000
0.018614 0.395466 0.000000
0.060055 0.394284 0.000000
0.101263 0.393108 0.000000
0.142311 0.391938 0.000000
0.183243 0.390770 0.000000
0.224081 0.389605 0.000000
0.264838 0.388443 0.000000
0.305520 0.387283 0.000000
0.346128 0.386125 0.000000
0.386661 0.384968 0.000000
0.427114 0.383815 0.000000
0.467482 0.382663 0.000000
0.507757 0.381515 0.000000
0.547930 0.380369 0.000000
0.587994 0.379226 0.000000
0.627939 0.378087 0.000000
0.667753 0.376951 0.000000
0.707428 0.375820 0.000000
0.746951 0.374693 0.000000
0.786313 0.373570 0.000000
0.825500 0.372452 0.000000
0.864503 0.371340 0.000000
0.903309 0.370233 0.000000
0.941906 0.369132 0.000000
0.980282 0.368038 0.000000
1.000000 0.366950 0.000000
1.000000 0.365869 0.000000
1.000000 0.365272 0.000000
1.000000 0.365272 0.000000
1.000000 0.365272 0.000000
1.000000 0.365272 0.000000
0.000000 0.432288 0.000000
0.000000 0.431858 0.000000
0.014723 0.430665 0.000000
0.056165 0.429483 0.000000
0.097372 0.428307 0.000000
0.138421 0.427137 0.000000
0.179353 0.425969 0.000000
0.220191 0.424805 0.000000
0.260948 0.423642 0.000000
0.301630 0.422482 0.000000
0.342238 0.421324 0.000000
0.382771 0.420168 0.000000
0.423224 0.419014 0.000000
0.463591 0.417862 0.000000
0.503866 0.416714 0.000000
0.544040 0.415568 0.000000
0.584104 0.414425 0.000000
0.624048 0.413286 0.000000
0.663863 0.412150 0.000000
0.703537 0.411019 0.000000
0.743061 0.409892 0.000000
0.782422 0.408769 0.000000
0.821610 0.407651 0.000000
0.860612 0.406539 0.000000
0.899418 0.405432 0.000000
0.938015 0.404331 0.000000
0.976392 0.403237 0.000000
1.000000 0.402149 0.000000
1.000000 0.401193 0.000000
1.000000 0.400702 0.000000
1.000000 0.400702 0.000000
1.000000 0.400702 0.000000
1.000000 0.400702 0.000000
0.000000 0.467464 0.000000
0.000000 0.467033 0.000000
0.010835 0.465840 0.000000
0.052277 0.464658 0.000000
0.093484 0.463483 0.000000
0.134533 0.462312 0.000000
0.175465 0.461145 0.000000
0.216303 0.459980 0.000000
0.257060 0.458817 0.000000
0.297742 0.457657 0.000000
0.338350 0.456499 0.000000
0.378883 0.455343 0.000000
0.419336 0.454189 0.000000
0.459703 0.453038 0.000000
0.499978 0.451889 0.000000
0.540152 0.450743 0.000000
0.580216 0.449601 0.000000
0.620160 0.448461 0.000000
0.659975 0.447326 0.000000
0.699649 0.446194 0.000000
0.739173 0.445067 0.000000
0.778534 0.443944 0.000000
0.817722 0.442827 0.000000
0.856725 0.441714 0.000000
0.895536 0.440610 0.000000
0.934566 0.439688 0.000000
0.973372 0.438771 0.000000
1.000000 0.437860 0.000000
1.000000 0.436954 0.000000
1.000000 0.436498 0.000000
1.000000 0.436498 0.000000
1.000000 0.436498 0.000000
1.000000 0.436498 0.000000
0.000000 0.502608 0.000000
0.000000 0.502177 0.000000
0.006951 0.500984 0.000000
0.048392 0.499802 0.000000
0.089600 0.498627 0.000000
0.130648 0.497456 0.000000
0.171580 0.496289 0.000000
0.212418 0.495124 0.000000
0.253175 0.493962 0.000000
0.293857 0.492801 0.000000
0.334466 0.491643 0.000000
0.374998 0.490487 0.000000
0.415451 0.489333 0.000000
0.455819 0.488182 0.000000
0.496094 0.487033 0.000000
0.536267 0.485887 0.000000
0.576331 0.484745 0.000000
0.616276 0.483606 0.000000
0.656090 0.482470 0.000000
0.695765 0.481338 0.000000
0.735288 0.480211 0.000000
0.774762 0.479135 0.000000
0.814389 0.478199 0.000000
0.853828 0.477267 0.000000
0.893069 0.476340 0.000000
0.932099 0.475418 0.000000
0.970905 0.474501 0.000000
1.000000 0.473590 0.000000
1.000000 0.472685 0.000000
1.000000 0.472263 0.000000
1.000000 0.472263 0.000000
1.000000 0.472263 0.000000
1.000000 0.472263 0.000000
0.000000 0.537714 0.000000
0.000000 0.537283 0.000000
0.003070 0.536090 0.000000
0.044512 0.534908 0.000000
0.085719 0.533733 0.000000
0.126768 0.532562 0.000000
0.167700 0.531394 0.000000
0.208538 0.530230 0.000000
0.249295 0.529067 0.000000
0.289977 0.527907 0.000000
0.330585 0.526749 0.000000
0.371118 0.525593 0.000000
0.411571 0.524439 0.000000
0.451939 0.523288 0.000000
0.492213 0.522139 0.000000
0.532387 0.520993 0.000000
0.572451 0.519850 0.000000
0.612396 0.518711 0.000000
0.652409 0.517658 0.000000
0.692528 0.516710 0.000000
0.732495 0.515766 0.000000
0.772297 0.514826 0.000000
0.811924 0.513889 0.000000
0.851364 0.512958 0.000000
0.890605 0.512031 0.000000
0.929634 0.511109 0.000000
0.968441 0.510192 0.000000
1.000000 0.509281 0.000000
1.000000 0.508375 0.000000
1.000000 0.507989 0.000000
1.000000 0.507989 0.000000
1.000000 0.507989 0.000000
1.000000 0.507989 0.000000
0.000000 0.572772 0.000000
0.000000 0.572342 0.000000
0.000000 0.571149 0.000000
0.040637 0.569967 0.000000
0.081844 0.568791 0.000000
0.122893 0.567621 0.000000
0.163825 0.566453 0.000000
0.204663 0.565288 0.000000
0.245420 0.564126 0.000000
0.286102 0.562966 0.000000
0.326710 0.561807 0.000000
0.367243 0.560651 0.000000
0.407696 0.559498 0.000000
0.448064 0.558346 0.000000
0.488338 0.557198 0.000000
0.528782 0.556163 0.000000
0.569295 0.555206 0.000000
0.609687 0.554252 0.000000
0.649948 0.553301 0.000000
0.690067 0.552353 0.000000
0.730034 0.551409 0.000000
0.769836 0.550469 0.000000
0.809463 0.549533 0.000000
0.848903 0.548601 0.000000
0.888144 0.547674 0.000000
0.927173 0.546752 0.000000
0.965980 0.545835 0.000000
1.000000 0.544924 0.000000
1.000000 0.544019 0.000000
1.000000 0.543666 0.000000
1.000000 0.543666 0.000000
1.000000 0.543666 0.000000
1.000000 0.543666 0.000000
0.000000 0.607776 0.000000
0.000000 0.607345 0.000000
0.000000 0.606152 0.000000
0.036768 0.604970 0.000000
0.077975 0.603795 0.000000
0.119024 0.602624 0.000000
0.159956 0.601457 0.000000
0.200794 0.600292 0.000000
0.241551 0.599130 0.000000
0.282233 0.597969 0.000000
0.322841 0.596811 0.000000
0.363374 0.595655 0.000000
0.404155 0.594637 0.000000
0.444975 0.593673 0.000000
0.485701 0.592711 0.000000
0.526325 0.591751 0.000000
0.566838 0.590794 0.000000
0.607230 0.589840 0.000000
0.647491 0.588888 0.000000
0.687610 0.587941 0.000000
0.727577 0.586997 0.000000
0.767379 0.586056 0.000000
0.807006 0.585120 0.000000
0.846446 0.584188 0.000000
0.885686 0.583261 0.000000
0.924716 0.582339 0.000000
0.963523 0.581423 0.000000
1.000000 0.580511 0.000000
1.000000 0.579606 0.000000
1.000000 0.579288 0.000000
1.000000 0.579288 0.000000
1.000000 0.579288 0.000000
1.000000 0.579288 0.000000
0.000000 0.642716 0.000000
0.000000 0.642286 0.000000
0.000000 0.641093 0.000000
0.032906 0.639911 0.000000
0.074113 0.638735 0.000000
0.115162 0.637565 0.000000
0.156094 0.636397 0.000000
0.196932 0.635232 0.000000
0.237689 0.634070 0.000000
0.278746 0.633064 0.000000
0.319809 0.632094 0.000000
0.360796 0.631126 0.000000
0.401702 0.630160 0.000000
0.442522 0.629195 0.000000
0.483248 0.628233 0.000000
0.523873 0.627274 0.000000
0.564385 0.626317 0.000000
0.604777 0.625362 0.000000
0.645038 0.624411 0.000000
0.685158 0.623464 0.000000
0.725124 0.622519 0.000000
0.764926 0.621579 0.000000
0.804553 0.620643 0.000000
0.843993 0.619711 0.000000
0.883234 0.618784 0.000000
0.922263 0.617862 0.000000
0.961070 0.616945 0.000000
0.999641 0.616034 0.000000
1.000000 0.615129 0.000000
1.000000 0.614845 0.000000
1.000000 0.614845 0.000000
1.000000 0.614845 0.000000
1.000000 0.614845 0.000000
0.000000 0.677585 0.000000
0.000000 0.677154 0.000000
0.000000 0.675961 0.000000
0.029052 0.674779 0.000000
0.070260 0.673604 0.000000
0.111308 0.672433 0.000000
0.152651 0.671435 0.000000
0.193946 0.670459 0.000000
0.235160 0.669486 0.000000
0.276298 0.668514 0.000000
0.317361 0.667544 0.000000
0.358348 0.666576 0.000000
0.399255 0.665609 0.000000
0.440075 0.664645 0.000000
0.480801 0.663683 0.000000
0.521425 0.662723 0.000000
0.561938 0.661766 0.000000
0.602330 0.660812 0.000000
0.642591 0.659861 0.000000
0.682710 0.658913 0.000000
0.722676 0.657969 0.000000
0.762479 0.657029 0.000000
0.802106 0.656093 0.000000
0.841545 0.655161 0.000000
0.880786 0.654234 0.000000
0.919816 0.653312 0.000000
0.958622 0.652395 0.000000
0.997194 0.651484 0.000000
1.000000 0.650579 0.000000
1.000000 0.650329 0.000000
1.000000 0.650329 0.000000
1.000000 0.650329 0.000000
1.000000 0.650329 0.000000
0.000000 0.712372 0.000000
0.000000 0.711941 0.000000
0.000000 0.710748 0.000000
0.025640 0.709745 0.000000
0.067309 0.708761 0.000000
0.108818 0.707780 0.000000
0.150209 0.706802 0.000000
0.191504 0.705827 0.000000
0.232718 0.704853 0.000000
0.273856 0.703881 0.000000
0.314919 0.702911 0.000000
0.355906 0.701943 0.000000
0.396813 0.700977 0.000000
0.437633 0.700012 0.000000
0.478359 0.699050 0.000000
0.518983 0.698091 0.000000
0.559496 0.697134 0.000000
0.599888 0.696179 0.000000
0.640149 0.695228 0.000000
0.680268 0.694281 0.000000
0.720234 0.693336 0.000000
0.760037 0.692396 0.000000
0.799664 0.691460 0.000000
0.839103 0.690528 0.000000
0.878344 0.689601 0.000000
0.917374 0.688679 0.000000
0.956180 0.687762 0.000000
0.994752 0.686851 0.000000
1.000000 0.685946 0.000000
1.000000 0.685731 0.000000
1.000000 0.685731 0.000000
1.000000 0.685731 0.000000
1.000000 0.685731 0.000000
0.000000 0.747371 0.000000
0.000000 0.747011 0.000000
0.000000 0.746011 0.000000
0.023204 0.745021 0.000000
0.064874 0.744037 0.000000
0.106382 0.743056 0.000000
0.147773 0.742079 0.000000
0.189069 0.741103 0.000000
0.230282 0.740129 0.000000
0.271420 0.739158 0.000000
0.312484 0.738188 0.000000
0.353471 0.737219 0.000000
0.394377 0.736253 0.000000
0.435197 0.735289 0.000000
0.475923 0.734327 0.000000
0.516547 0.733367 0.000000
0.557060 0.732410 0.000000
0.597452 0.731456 0.000000
0.637713 0.730505 0.000000
0.677832 0.729557 0.000000
0.717799 0.728613 0.000000
0.757601 0.727672 0.000000
0.797228 0.726736 0.000000
0.836668 0.725804 0.000000
0.875908 0.724877 0.000000
0.914938 0.723955 0.000000
0.953745 0.723039 0.000000
0.992316 0.722128 0.000000
1.000000 0.721222 0.000000
1.000000 0.721041 0.000000
1.000000 0.721041 0.000000
1.000000 0.721041 0.000000
1.000000 0.721041 0.000000
0.000000 0.782547 0.000000
0.000000 0.782187 0.000000
0.000000 0.781187 0.000000
0.020776 0.780197 0.000000
0.062445 0.779213 0.000000
0.103954 0.778232 0.000000
0.145344 0.777255 0.000000
0.186640 0.776279 0.000000
0.227854 0.775305 0.000000
0.268991 0.774334 0.000000
0.310055 0.773364 0.000000
0.351042 0.772395 0.000000
0.391948 0.771429 0.000000
0.432768 0.770465 0.000000
0.473494 0.769503 0.000000
0.514118 0.768543 0.000000
0.554631 0.767586 0.000000
0.595023 0.766632 0.000000
0.635284 0.765680 0.000000
0.675403 0.764733 0.000000
0.715370 0.763789 0.000000
0.755172 0.762848 0.000000
0.794799 0.761912 0.000000
0.834239 0.760980 0.000000
0.873479 0.760053 0.000000
0.912509 0.759131 0.000000
0.951316 0.758215 0.000000
0.989887 0.757303 0.000000
1.000000 0.756398 0.000000
1.000000 0.756251 0.000000
1.000000 0.756251 0.000000
1.000000 0.756251 0.000000
1.000000 0.756251 0.000000
0.000000 0.817614 0.000000
0.000000 0.817253 0.000000
0.000000 0.816254 0.000000
0.018354 0.815264 0.000000
0.060024 0.814280 0.000000
0.101532 0.813299 0.000000
0.142923 0.812321 0.000000
0.184218 0.811346 0.000000
0.225432 0.810372 0.000000
0.266570 0.809400 0.000000
0.307634 0.808430 0.000000
0.348621 0.807462 0.000000
0.389527 0.806495 0.000000
0.430347 0.805531 0.000000
0.471073 0.804569 0.000000
0.511697 0.803609 0.000000
0.552210 0.802652 0.000000
0.592602 0.801698 0.000000
0.632863 0.800747 0.000000
0.672982 0.799799 0.000000
0.712949 0.798855 0.000000
0.752751 0.797915 0.000000
0.792378 0.796979 0.000000
0.831818 0.796047 0.000000
0.871058 0.795120 0.000000
0.910088 0.794198 0.000000
0.948895 0.793281 0.000000
0.987466 0.792370 0.000000
1.000000 0.791465 0.000000
1.000000 0.791352 0.000000
1.000000 0.791352 0.000000
1.000000 0.791352 0.000000
1.000000 0.791352 0.000000
0.000000 0.852562 0.000000
0.000000 0.852201 0.000000
0.000000 0.851202 0.000000
0.015941 0.850212 0.000000
0.057610 0.849227 0.000000
0.099119 0.848247 0.000000
0.140510 0.847269 0.000000
0.181805 0.846293 0.000000
0.223019 0.845320 0.000000
0.264157 0.844348 0.000000
0.305221 0.843378 0.000000
0.346208 0.842410 0.000000
0.387114 0.841443 0.000000
0.427934 0.840479 0.000000
0.468660 0.839517 0.000000
0.509284 0.838557 0.000000
0.549797 0.837600 0.000000
0.590189 0.836646 0.000000
0.630450 0.835695 0.000000
0.670569 0.834747 0.000000
0.710535 0.833803 0.000000
0.750338 0.832863 0.000000
0.789965 0.831926 0.000000
0.829405 0.830995 0.000000
0.868645 0.830068 0.000000
0.907675 0.829146 0.000000
0.946481 0.828229 0.000000
0.985053 0.827318 0.000000
1.000000 0.826412 0.000000
1.000000 0.826333 0.000000
1.000000 0.826333 0.000000
1.000000 0.826333 0.000000
1.000000 0.826333 0.000000
0.000000 0.887381 0.000000
0.000000 0.887021 0.000000
0.000000 0.886021 0.000000
0.013537 0.885031 0.000000
0.055206 0.884047 0.000000
0.096715 0.883067 0.000000
0.138106 0.882089 0.000000
0.179401 0.881113 0.000000
0.220615 0.880140 0.000000
0.261753 0.879168 0.000000
0.302816 0.878198 0.000000
0.343803 0.877229 0.000000
0.384710 0.876263 0.000000
0.425530 0.875299 0.000000
0.466256 0.874337 0.000000
0.506880 0.873377 0.000000
0.547393 0.872420 0.000000
0.587785 0.871466 0.000000
0.628046 0.870515 0.000000
0.668165 0.869567 0.000000
0.708131 0.868623 0.000000
0.747934 0.867682 0.000000
0.787561 0.866746 0.000000
0.827000 0.865815 0.000000
0.866241 0.864888 0.000000
0.905271 0.863966 0.000000
0.944077 0.863049 0.000000
