assets/preview/luts/faded_film.cube
TITLE "Faded Film"
LUT_3D_SIZE 9
DOMAIN_MIN 0.0 0.0 0.0
DOMAIN_MAX 1.0 1.0 1.0
0.116099 0.108077 0.105839
0.195589 0.112478 0.110321
0.273327 0.116783 0.114704
0.349875 0.121022 0.119019
0.425796 0.125226 0.123300
0.501652 0.129427 0.127577
0.578007 0.133655 0.131882
0.655422 0.137942 0.136246
0.734460 0.142319 0.140702
0.130823 0.199199 0.121108
0.210313 0.203600 0.125589
0.288051 0.207905 0.129972
0.364599 0.212144 0.134288
0.440520 0.216348 0.138569
0.516376 0.220549 0.142845
0.592731 0.224777 0.147150
0.670146 0.229064 0.151515
0.749185 0.233441 0.155971
0.145212 0.288246 0.136029
0.224702 0.292648 0.140510
0.302440 0.296952 0.144893
0.378988 0.301191 0.149209
0.454909 0.305395 0.153490
0.530765 0.309596 0.157766
0.607120 0.313824 0.162071
0.684535 0.318111 0.166436
0.763574 0.322488 0.170892
0.159372 0.375876 0.150712
0.238862 0.380278 0.155194
0.316600 0.384583 0.159577
0.393148 0.388821 0.163893
0.469069 0.393026 0.168173
0.544925 0.397226 0.172450
0.621280 0.401454 0.176755
0.698695 0.405741 0.181120
0.777734 0.410118 0.185576
0.173409 0.462747 0.165269
0.252900 0.467148 0.169750
0.330638 0.471453 0.174133
0.407186 0.475692 0.178449
0.483106 0.479896 0.182730
0.558963 0.484097 0.187006
0.635317 0.488325 0.191311
0.713057 0.492795 0.195577
0.792461 0.497379 0.199923
0.187430 0.549515 0.179808
0.266920 0.553916 0.184290
0.344658 0.558221 0.188672
0.421310 0.562519 0.192957
0.497582 0.566922 0.197130
0.573790 0.571321 0.201301
0.650497 0.575749 0.205498
0.728270 0.580238 0.209754
0.807675 0.584821 0.214100
0.201763 0.636964 0.194372
0.281622 0.641574 0.198742
0.359719 0.646082 0.203016
0.436621 0.650521 0.207224
0.512893 0.654924 0.211398
0.589101 0.659323 0.215568
0.665808 0.663751 0.219766
0.743582 0.668240 0.224022
0.822986 0.672824 0.228367
0.217287 0.726188 0.208838
0.297145 0.730798 0.213208
0.375243 0.735306 0.217482
0.452145 0.739745 0.221690
0.528417 0.744148 0.225864
0.604624 0.748547 0.230034
0.681332 0.752975 0.234232
0.759105 0.757464 0.238488
0.838510 0.762048 0.242833
0.233139 0.817297 0.223609
0.312997 0.821907 0.227979
0.391095 0.826415 0.232253
0.467997 0.830854 0.236461
0.544269 0.835257 0.240635
0.620476 0.839656 0.244805
0.697184 0.844084 0.249003
0.774957 0.848573 0.253259
0.854361 0.853157 0.257604
0.117554 0.109558 0.181857
0.197044 0.113960 0.186338
0.274782 0.118265 0.190721
0.351330 0.122504 0.195037
0.427251 0.126708 0.199317
0.503107 0.130909 0.203594
0.579461 0.135137 0.207899
0.656877 0.139424 0.212264
0.735915 0.143800 0.216720
0.132278 0.200680 0.197125
0.211768 0.205082 0.201607
0.289506 0.209387 0.205990
0.366054 0.213626 0.210306
0.441975 0.217830 0.214586
0.517831 0.222030 0.218863
0.594186 0.226259 0.223168
0.671601 0.230545 0.227533
0.750639 0.234922 0.231989
0.146667 0.289728 0.212046
0.226157 0.294129 0.216528
0.303895 0.298434 0.220911
0.380443 0.302673 0.225227
0.456364 0.306877 0.229507
0.532220 0.311078 0.233784
0.608575 0.315306 0.238089
0.685990 0.319593 0.242454
0.765028 0.323970 0.246910
0.160827 0.377358 0.226730
0.240317 0.381760 0.231212
0.318055 0.386064 0.235595
0.394603 0.390303 0.239910
0.470524 0.394507 0.244191
0.546380 0.398708 0.248468
0.622735 0.402936 0.252773
0.700150 0.407223 0.257137
0.779188 0.411600 0.261594
0.174864 0.464228 0.241286
0.254355 0.468630 0.245768
0.332092 0.472935 0.250151
0.408640 0.477174 0.254467
0.484561 0.481378 0.258747
0.560418 0.485578 0.263024
0.636862 0.489857 0.267302
0.714635 0.494347 0.271558
0.794040 0.498930 0.275903
0.188885 0.550996 0.255825
0.268375 0.555398 0.260307
0.346113 0.559703 0.264690
0.422889 0.564071 0.268937
0.499161 0.568473 0.273111
0.575368 0.572872 0.277281
0.652076 0.577300 0.281478
0.729849 0.581790 0.285734
0.809253 0.586373 0.290080
0.203342 0.638516 0.270352
0.283200 0.643126 0.274722
0.361298 0.647634 0.278996
0.438200 0.652073 0.283204
0.514472 0.656476 0.287378
0.590679 0.660875 0.291548
0.667387 0.665303 0.295746
0.745160 0.669792 0.300002
0.824565 0.674375 0.304347
0.218866 0.727740 0.284818
0.298724 0.732350 0.289188
0.376822 0.736858 0.293462
0.453724 0.741297 0.297670
0.529996 0.745700 0.301844
0.606203 0.750099 0.306014
0.682911 0.754527 0.310212
0.760684 0.759016 0.314468
0.840088 0.763600 0.318813
0.234718 0.818849 0.299589
0.314576 0.823458 0.303959
0.392673 0.827967 0.308233
0.469575 0.832406 0.312441
0.545847 0.836809 0.316615
0.622055 0.841208 0.320785
0.698762 0.845635 0.324983
0.776536 0.850125 0.329239
0.855940 0.854708 0.333584
0.118976 0.111007 0.256165
0.198466 0.115409 0.260647
0.276204 0.119713 0.265030
0.352752 0.123952 0.269346
0.428673 0.128156 0.273626
0.504529 0.132357 0.277903
0.580884 0.136585 0.282208
0.658299 0.140872 0.286573
0.737337 0.145249 0.291029
0.133700 0.202129 0.271434
0.213190 0.206531 0.275916
0.290928 0.210835 0.280299
0.367476 0.215074 0.284615
0.443397 0.219278 0.288895
0.519253 0.223479 0.293172
0.595608 0.227707 0.297477
0.673023 0.231994 0.301842
0.752062 0.236371 0.306298
0.148089 0.291176 0.286355
0.227579 0.295578 0.290837
0.305317 0.299883 0.295220
0.381865 0.304122 0.299536
0.457786 0.308326 0.303816
0.533642 0.312526 0.308093
0.609997 0.316754 0.312398
0.687412 0.321041 0.316763
0.766451 0.325418 0.321219
0.162249 0.378806 0.301039
0.241739 0.383208 0.305521
0.319477 0.387513 0.309903
0.396025 0.391752 0.314219
0.471946 0.395956 0.318500
0.547802 0.400156 0.322777
0.624157 0.404385 0.327081
0.701572 0.408671 0.331446
0.780611 0.413048 0.335902
0.176286 0.465677 0.315595
0.255777 0.470079 0.320077
0.333515 0.474383 0.324460
0.410063 0.478622 0.328776
0.485983 0.482826 0.333056
0.561840 0.487027 0.337333
0.638405 0.491374 0.341574
0.716179 0.495864 0.345830
0.795583 0.500447 0.350175
0.190307 0.552445 0.330134
0.269797 0.556847 0.334616
0.347535 0.561151 0.338999
0.424432 0.565587 0.343209
0.500704 0.569990 0.347383
0.576911 0.574389 0.351553
0.653619 0.578817 0.355751
0.731392 0.583307 0.360007
0.810797 0.587890 0.364352
0.204885 0.640033 0.344624
0.284743 0.644642 0.348995
0.362841 0.649151 0.353268
0.439743 0.653590 0.357477
0.516015 0.657992 0.361650
0.592222 0.662391 0.365821
0.668930 0.666819 0.370018
0.746703 0.671309 0.374274
0.826108 0.675892 0.378619
0.220409 0.729257 0.359090
0.300267 0.733867 0.363460
0.378365 0.738375 0.367734
0.455267 0.742814 0.371942
0.531539 0.747217 0.376116
0.607746 0.751616 0.380286
0.684454 0.756044 0.384484
0.762227 0.760533 0.388740
0.841631 0.765117 0.393085
0.236261 0.820366 0.373862
0.316119 0.824975 0.378232
0.394216 0.829484 0.382505
0.471119 0.833923 0.386714
0.547391 0.838325 0.390887
0.623598 0.842724 0.395058
0.700305 0.847152 0.399255
0.778079 0.851642 0.403511
0.857483 0.856225 0.407856
0.120375 0.112432 0.329290
0.199866 0.116834 0.333772
0.277604 0.121139 0.338155
0.354152 0.125378 0.342471
0.430072 0.129582 0.346751
0.505929 0.133782 0.351028
0.582283 0.138011 0.355333
0.659698 0.142297 0.359698
0.738737 0.146674 0.364154
0.135100 0.203554 0.344559
0.214590 0.207956 0.349041
0.292328 0.212261 0.353424
0.368876 0.216500 0.357739
0.444797 0.220704 0.362020
0.520653 0.224904 0.366297
0.597007 0.229132 0.370602
0.674422 0.233419 0.374966
0.753461 0.237796 0.379422
0.149489 0.292601 0.359480
0.228979 0.297003 0.363962
0.306717 0.301308 0.368345
0.383265 0.305547 0.372660
0.459186 0.309751 0.376941
0.535042 0.313952 0.381218
0.611396 0.318180 0.385523
0.688811 0.322467 0.389887
0.767850 0.326843 0.394344
0.163649 0.380232 0.374164
0.243139 0.384633 0.378645
0.320877 0.388938 0.383028
0.397425 0.393177 0.387344
0.473346 0.397381 0.391624
0.549202 0.401582 0.395901
0.625556 0.405810 0.400206
0.702972 0.410097 0.404571
0.782010 0.414474 0.409027
0.177686 0.467102 0.388720
0.257176 0.471504 0.393202
0.334914 0.475809 0.397585
0.411462 0.480048 0.401900
0.487383 0.484252 0.406181
0.563239 0.488452 0.410458
0.639924 0.492867 0.414662
0.717697 0.497356 0.418918
0.797101 0.501940 0.423263
0.191707 0.553870 0.403259
0.271197 0.558272 0.407741
0.349048 0.562641 0.412089
0.425951 0.567080 0.416297
0.502223 0.571483 0.420471
0.578430 0.575882 0.424642
0.655138 0.580310 0.428839
0.732911 0.584799 0.433095
0.812315 0.589383 0.437440
0.206404 0.641525 0.417713
0.286262 0.646135 0.422083
0.364360 0.650643 0.426357
0.441262 0.655082 0.430565
0.517534 0.659485 0.434739
0.593741 0.663884 0.438909
0.670449 0.668312 0.443107
0.748222 0.672802 0.447363
0.827626 0.677385 0.451708
0.221928 0.730750 0.432179
0.301786 0.735359 0.436549
0.379883 0.739867 0.440823
0.456786 0.744307 0.445031
0.533058 0.748709 0.449205
0.609265 0.753108 0.453375
0.685972 0.757536 0.457573
0.763746 0.762026 0.461829
0.843150 0.766609 0.466174
0.237779 0.821858 0.446950
0.317637 0.826468 0.451320
0.395735 0.830976 0.455594
0.472637 0.835415 0.459802
0.548909 0.839818 0.463976
0.625116 0.844217 0.468146
0.701824 0.848645 0.472344
0.779597 0.853134 0.476600
0.859002 0.857718 0.480945
0.121762 0.113845 0.401755
0.201253 0.118247 0.406237
0.278990 0.122551 0.410620
0.355538 0.126790 0.414936
0.431459 0.130994 0.419216
0.507316 0.135195 0.423493
0.583670 0.139423 0.427798
0.661085 0.143710 0.432163
0.740124 0.148087 0.436619
0.136486 0.204967 0.417024
0.215977 0.209368 0.421506
0.293715 0.213673 0.425889
0.370263 0.217912 0.430204
0.446184 0.222116 0.434485
0.522040 0.226317 0.438762
0.598394 0.230545 0.443067
0.675809 0.234832 0.447431
0.754848 0.239209 0.451888
0.150875 0.294014 0.431945
0.230366 0.298416 0.436427
0.308104 0.302721 0.440810
0.384652 0.306959 0.445126
0.460573 0.311164 0.449406
0.536429 0.315364 0.453683
0.612783 0.319592 0.457988
0.690198 0.323879 0.462352
0.769237 0.328256 0.466809
0.165035 0.381644 0.446629
0.244526 0.386046 0.451110
0.322264 0.390351 0.455493
0.398812 0.394590 0.459809
0.474733 0.398794 0.464090
0.550589 0.402994 0.468366
0.626943 0.407222 0.472671
0.704358 0.411509 0.477036
0.783397 0.415886 0.481492
0.179073 0.468515 0.461185
0.258563 0.472916 0.465667
0.336301 0.477221 0.470050
0.412849 0.481460 0.474365
0.488770 0.485664 0.478646
0.564721 0.489918 0.482894
0.641429 0.494346 0.487092
0.719202 0.498836 0.491348
0.798606 0.503419 0.495693
0.193093 0.555283 0.475724
0.272584 0.559685 0.480206
0.350553 0.564120 0.484519
0.427456 0.568559 0.488727
0.503728 0.572962 0.492901
0.579935 0.577361 0.497071
0.656642 0.581789 0.501269
0.734416 0.586279 0.505524
0.813820 0.590862 0.509870
0.207909 0.643005 0.490142
0.287767 0.647614 0.494512
0.365864 0.652123 0.498786
0.442767 0.656562 0.502994
0.519039 0.660964 0.507168
0.595246 0.665363 0.511338
0.671954 0.669791 0.515536
0.749727 0.674281 0.519792
0.829131 0.678864 0.524137
0.223433 0.732229 0.504608
0.303291 0.736839 0.508978
0.381388 0.741347 0.513252
0.458290 0.745786 0.517460
0.534562 0.750189 0.521634
0.610770 0.754588 0.525804
0.687477 0.759016 0.530002
0.765251 0.763505 0.534258
0.844655 0.768089 0.538603
0.239284 0.823338 0.519379
0.319142 0.827947 0.523749
0.397240 0.832455 0.528023
0.474142 0.836895 0.532231
0.550414 0.841297 0.536405
0.626621 0.845696 0.540576
0.703329 0.850124 0.544773
0.781102 0.854614 0.549029
0.860507 0.859197 0.553374
0.123146 0.115255 0.474086
0.202637 0.119656 0.478567
0.280375 0.123961 0.482950
0.356923 0.128200 0.487266
0.432844 0.132404 0.491546
0.508700 0.136605 0.495823
0.585054 0.140833 0.500128
0.662469 0.145120 0.504493
0.741508 0.149497 0.508949
0.137871 0.206377 0.489354
0.217361 0.210778 0.493836
0.295099 0.215083 0.498219
0.371647 0.219322 0.502535
0.447568 0.223526 0.506815
0.523424 0.227727 0.511092
0.599778 0.231955 0.515397
0.677194 0.236242 0.519762
0.756232 0.240618 0.524218
0.152260 0.295424 0.504275
0.231750 0.299826 0.508757
0.309488 0.304130 0.513140
0.386036 0.308369 0.517456
0.461957 0.312573 0.521736
0.537813 0.316774 0.526013
0.614167 0.321002 0.530318
0.691583 0.325289 0.534683
0.770621 0.329666 0.539139
0.166420 0.383054 0.518959
0.245910 0.387456 0.523441
0.323648 0.391761 0.527824
0.400196 0.395999 0.532139
0.476117 0.400204 0.536420
0.551973 0.404404 0.540697
0.628328 0.408632 0.545002
0.705743 0.412919 0.549366
0.784877 0.417350 0.553794
0.180457 0.469924 0.533515
0.259947 0.474326 0.537997
0.337685 0.478631 0.542380
0.414233 0.482870 0.546696
0.490154 0.487074 0.550976
0.566223 0.491395 0.555188
0.642931 0.495823 0.559386
0.720704 0.500312 0.563642
0.800108 0.504896 0.567987
0.194478 0.556693 0.548054
0.273968 0.561094 0.552536
0.352055 0.565597 0.556813
0.428958 0.570036 0.561021
0.505230 0.574439 0.565195
0.581437 0.578838 0.569365
0.658145 0.583266 0.573563
0.735918 0.587755 0.577819
0.815322 0.592339 0.582164
0.209411 0.644481 0.562437
0.289269 0.649091 0.566807
0.367367 0.653599 0.571081
0.444269 0.658038 0.575289
0.520541 0.662441 0.579463
0.596748 0.666840 0.583633
0.673456 0.671268 0.587831
0.751229 0.675757 0.592087
0.830633 0.680341 0.596432
0.224935 0.733705 0.576903
0.304793 0.738315 0.581273
0.382890 0.742823 0.585546
0.459792 0.747262 0.589755
0.536065 0.751665 0.593928
0.612272 0.756064 0.598099
0.688979 0.760492 0.602296
0.766753 0.764981 0.606552
0.846157 0.769565 0.610897
0.240786 0.824814 0.591674
0.320644 0.829424 0.596044
0.398742 0.833932 0.600318
0.475644 0.838371 0.604526
0.551916 0.842774 0.608700
0.628123 0.847173 0.612870
0.704831 0.851601 0.617068
0.782604 0.856090 0.621324
0.862009 0.860674 0.625669
0.124538 0.116672 0.546805
0.204029 0.121074 0.551287
0.281766 0.125379 0.555670
0.358314 0.129618 0.559986
0.434235 0.133822 0.564266
0.510092 0.138022 0.568543
0.586446 0.142250 0.572848
0.663861 0.146537 0.577213
0.742900 0.150914 0.581669
0.139262 0.207794 0.562074
0.218753 0.212196 0.566556
0.296491 0.216501 0.570939
0.373039 0.220739 0.575254
0.448960 0.224944 0.579535
0.524816 0.229144 0.583812
0.601170 0.233372 0.588117
0.678585 0.237659 0.592481
0.757624 0.242036 0.596938
0.153651 0.296841 0.576995
0.233142 0.301243 0.581477
0.310880 0.305548 0.585860
0.387428 0.309787 0.590176
0.463349 0.313991 0.594456
0.539205 0.318191 0.598733
0.615559 0.322420 0.603038
0.692974 0.326707 0.607402
0.772013 0.331083 0.611859
0.167811 0.384472 0.591679
0.247302 0.388873 0.596160
0.325040 0.393178 0.600543
0.401588 0.397417 0.604859
0.477509 0.401621 0.609140
0.553365 0.405822 0.613416
0.629719 0.410050 0.617721
0.707134 0.414337 0.622086
0.786387 0.418834 0.626477
0.181849 0.471342 0.606235
0.261339 0.475744 0.610717
0.339077 0.480049 0.615100
0.415625 0.484287 0.619415
0.491546 0.488492 0.623696
0.567733 0.492879 0.627872
0.644441 0.497307 0.632070
0.722214 0.501797 0.636326
0.801619 0.506380 0.640671
0.195869 0.558110 0.620774
0.275468 0.562573 0.625223
0.353566 0.567081 0.629497
0.430468 0.571520 0.633705
0.506740 0.575923 0.637879
0.582947 0.580322 0.642049
0.659655 0.584750 0.646247
0.737428 0.589239 0.650503
0.816832 0.593823 0.654848
0.210921 0.645966 0.635121
0.290779 0.650575 0.639491
0.368877 0.655083 0.643764
0.445779 0.659523 0.647973
0.522051 0.663925 0.652146
0.598258 0.668324 0.656317
0.674966 0.672752 0.660514
0.752739 0.677242 0.664770
0.832143 0.681825 0.669116
0.226445 0.735190 0.649586
0.306303 0.739800 0.653956
0.384400 0.744308 0.658230
0.461303 0.748747 0.662438
0.537575 0.753150 0.666612
0.613782 0.757549 0.670782
0.690490 0.761976 0.674980
0.768263 0.766466 0.679236
0.847667 0.771049 0.683581
0.242296 0.826298 0.664358
0.322155 0.830908 0.668728
0.400252 0.835416 0.673001
0.477154 0.839856 0.677210
0.553426 0.844258 0.681383
0.629634 0.848657 0.685554
0.706341 0.853085 0.689751
0.784115 0.857575 0.694007
0.863519 0.862158 0.698353
0.125947 0.118107 0.620439
0.205438 0.122509 0.624921
0.283176 0.126814 0.629304
0.359724 0.131053 0.633620
0.435645 0.135257 0.637900
0.511501 0.139458 0.642177
0.587855 0.143686 0.646482
0.665270 0.147973 0.650847
0.744309 0.152349 0.655303
0.140672 0.209229 0.635708
0.220162 0.213631 0.640190
0.297900 0.217936 0.644573
0.374448 0.222175 0.648888
0.450369 0.226379 0.653169
0.526225 0.230579 0.657446
0.602579 0.234808 0.661751
0.679995 0.239094 0.666115
0.759033 0.243471 0.670572
0.155061 0.298277 0.650629
0.234551 0.302678 0.655111
0.312289 0.306983 0.659494
0.388837 0.311222 0.663809
0.464758 0.315426 0.668090
0.540614 0.319627 0.672367
0.616968 0.323855 0.676672
0.694384 0.328142 0.681036
0.773422 0.332519 0.685493
0.169221 0.385907 0.665313
0.248711 0.390309 0.669794
0.326449 0.394613 0.674177
0.402997 0.398852 0.678493
0.478918 0.403056 0.682774
0.554774 0.407257 0.687050
0.631129 0.411485 0.691355
0.708544 0.415772 0.695720
0.787916 0.420337 0.700075
0.183258 0.472777 0.679869
0.262748 0.477179 0.684351
0.340486 0.481484 0.688734
0.417034 0.485723 0.693049
0.493055 0.489983 0.697299
0.569262 0.494382 0.701470
0.645970 0.498810 0.705667
0.723743 0.503300 0.709923
0.803148 0.507883 0.714269
0.197279 0.559545 0.694408
0.276997 0.564076 0.698821
0.355095 0.568584 0.703094
0.431997 0.573023 0.707303
0.508269 0.577426 0.711476
0.584476 0.581825 0.715647
0.661184 0.586253 0.719844
0.738957 0.590743 0.724100
0.818361 0.595326 0.728445
0.212450 0.647469 0.708718
0.292308 0.652078 0.713088
0.370406 0.656587 0.717362
0.447308 0.661026 0.721570
0.523580 0.665428 0.725744
0.599787 0.669827 0.729914
0.676495 0.674255 0.734112
0.754268 0.678745 0.738368
0.833673 0.683328 0.742713
0.227974 0.736693 0.723184
0.307832 0.741303 0.727554
0.385930 0.745811 0.731828
0.462832 0.750250 0.736036
0.539104 0.754653 0.740210
0.615311 0.759052 0.744380
0.692019 0.763480 0.748578
0.769792 0.767969 0.752834
0.849196 0.772553 0.757179
0.243826 0.827802 0.737955
0.323684 0.832411 0.742325
0.401781 0.836919 0.746599
0.478683 0.841359 0.750807
0.554955 0.845761 0.754981
0.631163 0.850160 0.759151
0.707870 0.854588 0.763349
0.785644 0.859078 0.767605
0.865048 0.863661 0.771950
0.127384 0.119571 0.695512
0.206875 0.123973 0.699994
0.284612 0.128277 0.704377
0.361161 0.132516 0.708692
0.437081 0.136720 0.712973
0.512938 0.140921 0.717250
0.589292 0.145149 0.721555
0.666707 0.149436 0.725919
0.745746 0.153813 0.730376
0.142108 0.210693 0.710781
0.221599 0.215094 0.715262
0.299337 0.219399 0.719645
0.375885 0.223638 0.723961
0.451806 0.227842 0.728242
0.527662 0.232043 0.732518
0.604016 0.236271 0.736823
0.681431 0.240558 0.741188
0.760470 0.244935 0.745644
0.156497 0.299740 0.725702
0.235988 0.304142 0.730184
0.313726 0.308447 0.734566
0.390274 0.312685 0.738882
0.466195 0.316890 0.743163
0.542051 0.321090 0.747440
0.618405 0.325318 0.751744
0.695820 0.329605 0.756109
0.774859 0.333982 0.760565
0.170658 0.387370 0.740385
0.250148 0.391772 0.744867
0.327886 0.396077 0.749250
0.404434 0.400316 0.753566
0.480355 0.404520 0.757846
0.556211 0.408720 0.762123
0.632565 0.412948 0.766428
0.710071 0.417286 0.770765
0.789475 0.421870 0.775111
0.184695 0.474241 0.754942
0.264185 0.478642 0.759423
0.341923 0.482947 0.763806
0.418471 0.487186 0.768122
0.494614 0.491516 0.772335
0.570821 0.495915 0.776505
0.647529 0.500343 0.780703
0.725302 0.504832 0.784959
0.804707 0.509416 0.789304
0.198716 0.561009 0.769481
0.278556 0.565609 0.773856
0.356654 0.570117 0.778130
0.433556 0.574556 0.782338
0.509828 0.578959 0.786512
0.586035 0.583358 0.790682
0.662743 0.587786 0.794880
0.740516 0.592275 0.799136
0.819921 0.596859 0.803481
0.214009 0.649001 0.783754
0.293867 0.653611 0.788124
0.371965 0.658119 0.792398
0.448867 0.662558 0.796606
0.525139 0.666961 0.800780
0.601346 0.671360 0.804950
0.678054 0.675788 0.809148
0.755827 0.680277 0.813404
0.835232 0.684861 0.817749
0.229533 0.738225 0.798220
0.309391 0.742835 0.802590
0.387489 0.747343 0.806863
0.464391 0.751782 0.811072
0.540663 0.756185 0.815245
0.616870 0.760584 0.819416
0.693578 0.765012 0.823613
0.771351 0.769501 0.827869
0.850755 0.774085 0.832215
0.245385 0.829334 0.812991
0.325243 0.833944 0.817361
0.403340 0.838452 0.821635
0.480242 0.842891 0.825843
0.556515 0.847294 0.830017
0.632722 0.851693 0.834187
0.709429 0.856121 0.838385
0.787203 0.860610 0.842641
0.866607 0.865194 0.846986
