assets/preview/luts/faded_film.cube
TITLE "Faded Film"
LUT_3D_SIZE 5
DOMAIN_MIN 0.0 0.0 0.0
DOMAIN_MAX 1.0 1.0 1.0
0.116099 0.108077 0.105839
0.273327 0.116783 0.114704
0.425796 0.125226 0.123300
0.578007 0.133655 0.131882
0.734460 0.142319 0.140702
0.145212 0.288246 0.136029
0.302440 0.296952 0.144893
0.454909 0.305395 0.153490
0.607120 0.313824 0.162071
0.763574 0.322488 0.170892
0.173409 0.462747 0.165269
0.330638 0.471453 0.174133
0.483106 0.479896 0.182730
0.635317 0.488325 0.191311
0.792461 0.497379 0.199923
0.201763 0.636964 0.194372
0.359719 0.646082 0.203016
0.512893 0.654924 0.211398
0.665808 0.663751 0.219766
0.822986 0.672824 0.228367
0.233139 0.817297 0.223609
0.391095 0.826415 0.232253
0.544269 0.835257 0.240635
0.697184 0.844084 0.249003
0.854361 0.853157 0.257604
0.118976 0.111007 0.256165
0.276204 0.119713 0.265030
0.428673 0.128156 0.273626
0.580884 0.136585 0.282208
0.737337 0.145249 0.291029
0.148089 0.291176 0.286355
0.305317 0.299883 0.295220
0.457786 0.308326 0.303816
0.609997 0.316754 0.312398
0.766451 0.325418 0.321219
0.176286 0.465677 0.315595
0.333515 0.474383 0.324460
0.485983 0.482826 0.333056
0.638405 0.491374 0.341574
0.795583 0.500447 0.350175
0.204885 0.640033 0.344624
0.362841 0.649151 0.353268
0.516015 0.657992 0.361650
0.668930 0.666819 0.370018
0.826108 0.675892 0.378619
0.236261 0.820366 0.373862
0.394216 0.829484 0.382505
0.547391 0.838325 0.390887
0.700305 0.847152 0.399255
0.857483 0.856225 0.407856
0.121762 0.113845 0.401755
0.278990 0.122551 0.410620
0.431459 0.130994 0.419216
0.583670 0.139423 0.427798
0.740124 0.148087 0.436619
0.150875 0.294014 0.431945
0.308104 0.302721 0.440810
0.460573 0.311164 0.449406
0.612783 0.319592 0.457988
0.769237 0.328256 0.466809
0.179073 0.468515 0.461185
0.336301 0.477221 0.470050
0.488770 0.485664 0.478646
0.641429 0.494346 0.487092
0.798606 0.503419 0.495693
0.207909 0.643005 0.490142
0.365864 0.652123 0.498786
0.519039 0.660964 0.507168
0.671954 0.669791 0.515536
0.829131 0.678864 0.524137
0.239284 0.823338 0.519379
0.397240 0.832455 0.528023
0.550414 0.841297 0.536405
0.703329 0.850124 0.544773
0.860507 0.859197 0.553374
0.124538 0.116672 0.546805
0.281766 0.125379 0.555670
0.434235 0.133822 0.564266
0.586446 0.142250 0.572848
0.742900 0.150914 0.581669
0.153651 0.296841 0.576995
0.310880 0.305548 0.585860
0.463349 0.313991 0.594456
0.615559 0.322420 0.603038
0.772013 0.331083 0.611859
0.181849 0.471342 0.606235
0.339077 0.480049 0.615100
0.491546 0.488492 0.623696
0.644441 0.497307 0.632070
0.801619 0.506380 0.640671
0.210921 0.645966 0.635121
0.368877 0.655083 0.643764
0.522051 0.663925 0.652146
0.674966 0.672752 0.660514
0.832143 0.681825 0.669116
0.242296 0.826298 0.664358
0.400252 0.835416 0.673001
0.553426 0.844258 0.681383
0.706341 0.853085 0.689751
0.863519 0.862158 0.698353
0.127384 0.119571 0.695512
0.284612 0.128277 0.704377
0.437081 0.136720 0.712973
0.589292 0.145149 0.721555
0.745746 0.153813 0.730376
0.156497 0.299740 0.725702
0.313726 0.308447 0.734566
0.466195 0.316890 0.743163
0.618405 0.325318 0.751744
0.774859 0.333982 0.760565
0.184695 0.474241 0.754942
0.341923 0.482947 0.763806
0.494614 0.491516 0.772335
0.647529 0.500343 0.780703
0.804707 0.509416 0.789304
0.214009 0.649001 0.783754
0.371965 0.658119 0.792398
0.525139 0.666961 0.800780
0.678054 0.675788 0.809148
0.835232 0.684861 0.817749
0.245385 0.829334 0.812991
0.403340 0.838452 0.821635
0.556515 0.847294 0.830017
0.709429 0.856121 0.838385
0.866607 0.865194 0.846986
