assets/preview/luts/faded_film.cube
TITLE "Faded Film"
LUT_3D_SIZE 33
DOMAIN_MIN 0.0 0.0 0.0
DOMAIN_MAX 1.0 1.0 1.0
0.116099 0.108077 0.105839
0.136166 0.109188 0.106970
0.156098 0.110292 0.108094
0.175903 0.111388 0.109211
0.195589 0.112478 0.110321
0.215166 0.113563 0.111424
0.234642 0.114641 0.112522
0.254026 0.115714 0.113615
0.273327 0.116783 0.114704
0.292554 0.117848 0.115788
0.311715 0.118909 0.116868
0.330819 0.119967 0.117945
0.349875 0.121022 0.119019
0.368892 0.122075 0.120092
0.387879 0.123127 0.121162
0.406844 0.124177 0.122231
0.425796 0.125226 0.123300
0.444744 0.126275 0.124368
0.463697 0.127325 0.125437
0.482663 0.128375 0.126506
0.501652 0.129427 0.127577
0.520672 0.130480 0.128649
0.539732 0.131535 0.129724
0.558840 0.132594 0.130801
0.578007 0.133655 0.131882
0.597239 0.134720 0.132966
0.616546 0.135789 0.134054
0.635938 0.136863 0.135148
0.655422 0.137942 0.136246
0.675007 0.139026 0.137350
0.694703 0.140117 0.138461
0.714518 0.141214 0.139578
0.734460 0.142319 0.140702
0.119817 0.131088 0.109695
0.139885 0.132199 0.110826
0.159817 0.133303 0.111950
0.179621 0.134399 0.113067
0.199307 0.135489 0.114176
0.218884 0.136573 0.115280
0.238360 0.137652 0.116378
0.257744 0.138725 0.117471
0.277045 0.139794 0.118559
0.296272 0.140859 0.119643
0.315433 0.141920 0.120724
0.334537 0.142978 0.121801
0.353593 0.144033 0.122875
0.372610 0.145086 0.123947
0.391597 0.146137 0.125018
0.410562 0.147188 0.126087
0.429514 0.148237 0.127156
0.448462 0.149286 0.128224
0.467415 0.150336 0.129292
0.486382 0.151386 0.130362
0.505370 0.152438 0.131432
0.524390 0.153491 0.132505
0.543450 0.154546 0.133579
0.562559 0.155605 0.134657
0.581725 0.156666 0.135737
0.600957 0.157731 0.136822
0.620265 0.158800 0.137910
0.639656 0.159874 0.139004
0.659140 0.160953 0.140102
0.678725 0.162037 0.141206
0.698421 0.163128 0.142317
0.718236 0.164225 0.143434
0.738179 0.165330 0.144558
0.123509 0.153938 0.113524
0.143577 0.155049 0.114655
0.163509 0.156153 0.115779
0.183314 0.157250 0.116895
0.203000 0.158340 0.118005
0.222577 0.159424 0.119109
0.242053 0.160502 0.120207
0.261437 0.161576 0.121300
0.280738 0.162645 0.122388
0.299964 0.163709 0.123472
0.319125 0.164770 0.124553
0.338230 0.165828 0.125630
0.357286 0.166883 0.126704
0.376303 0.167937 0.127776
0.395289 0.168988 0.128847
0.414254 0.170038 0.129916
0.433207 0.171088 0.130985
0.452155 0.172137 0.132053
0.471108 0.173186 0.133121
0.490074 0.174237 0.134191
0.509063 0.175288 0.135261
0.528083 0.176341 0.136334
0.547143 0.177397 0.137408
0.566251 0.178455 0.138486
0.585417 0.179516 0.139566
0.604650 0.180581 0.140651
0.623957 0.181650 0.141739
0.643348 0.182724 0.142832
0.662832 0.183803 0.143931
0.682418 0.184888 0.145035
0.702114 0.185978 0.146146
0.721928 0.187076 0.147263
0.741871 0.188180 0.148387
0.127178 0.176638 0.117327
0.147245 0.177750 0.118459
0.167177 0.178853 0.119583
0.186982 0.179950 0.120699
0.206668 0.181040 0.121809
0.226245 0.182124 0.122913
0.245721 0.183203 0.124011
0.265105 0.184276 0.125104
0.284406 0.185345 0.126192
0.303632 0.186409 0.127276
0.322793 0.187471 0.128356
0.341898 0.188528 0.129433
0.360954 0.189584 0.130508
0.379971 0.190637 0.131580
0.398957 0.191688 0.132650
0.417922 0.192738 0.133720
0.436875 0.193788 0.134788
0.455823 0.194837 0.135857
0.474776 0.195887 0.136925
0.493742 0.196937 0.137994
0.512731 0.197988 0.139065
0.531751 0.199042 0.140137
0.550811 0.200097 0.141212
0.569919 0.201155 0.142289
0.589085 0.202217 0.143370
0.608318 0.203282 0.144454
0.627625 0.204351 0.145543
0.647016 0.205425 0.146636
0.666500 0.206503 0.147735
0.686086 0.207588 0.148839
0.705782 0.208679 0.149949
0.725596 0.209776 0.151067
0.745539 0.210880 0.152191
0.130823 0.199199 0.121108
0.150891 0.200310 0.122239
0.170822 0.201414 0.123363
0.190627 0.202510 0.124479
0.210313 0.203600 0.125589
0.229890 0.204684 0.126693
0.249366 0.205763 0.127791
0.268750 0.206836 0.128884
0.288051 0.207905 0.129972
0.307278 0.208970 0.131056
0.326439 0.210031 0.132137
0.345543 0.211089 0.133214
0.364599 0.212144 0.134288
0.383616 0.213197 0.135360
0.402603 0.214248 0.136431
0.421568 0.215299 0.137500
0.440520 0.216348 0.138569
0.459468 0.217397 0.139637
0.478421 0.218447 0.140705
0.497388 0.219497 0.141775
0.516376 0.220549 0.142845
0.535396 0.221602 0.143918
0.554456 0.222657 0.144992
0.573565 0.223716 0.146070
0.592731 0.224777 0.147150
0.611963 0.225842 0.148235
0.631271 0.226911 0.149323
0.650662 0.227985 0.150416
0.670146 0.229064 0.151515
0.689731 0.230148 0.152619
0.709427 0.231239 0.153730
0.729242 0.232336 0.154847
0.749185 0.233441 0.155971
0.134448 0.221629 0.124866
0.154515 0.222740 0.125998
0.174447 0.223844 0.127121
0.194252 0.224941 0.128238
0.213938 0.226031 0.129348
0.233515 0.227115 0.130452
0.252991 0.228194 0.131550
0.272375 0.229267 0.132643
0.291676 0.230336 0.133731
0.310902 0.231400 0.134815
0.330063 0.232461 0.135895
0.349168 0.233519 0.136972
0.368224 0.234575 0.138047
0.387241 0.235628 0.139119
0.406227 0.236679 0.140189
0.425192 0.237729 0.141259
0.444145 0.238779 0.142327
0.463093 0.239828 0.143395
0.482046 0.240878 0.144464
0.501012 0.241928 0.145533
0.520001 0.242979 0.146604
0.539021 0.244033 0.147676
0.558081 0.245088 0.148751
0.577189 0.246146 0.149828
0.596355 0.247207 0.150909
0.615588 0.248272 0.151993
0.634895 0.249342 0.153082
0.654286 0.250415 0.154175
0.673770 0.251494 0.155274
0.693356 0.252579 0.156378
0.713052 0.253670 0.157488
0.732866 0.254767 0.158605
0.752809 0.255871 0.159730
0.138053 0.243940 0.128605
0.158120 0.245052 0.129736
0.178052 0.246155 0.130860
0.197857 0.247252 0.131977
0.217543 0.248342 0.133086
0.237120 0.249426 0.134190
0.256596 0.250505 0.135288
0.275980 0.251578 0.136381
0.295281 0.252647 0.137469
0.314508 0.253712 0.138553
0.333669 0.254773 0.139634
0.352773 0.255831 0.140711
0.371829 0.256886 0.141785
0.390846 0.257939 0.142857
0.409833 0.258990 0.143928
0.428798 0.260041 0.144997
0.447750 0.261090 0.146066
0.466698 0.262139 0.147134
0.485651 0.263189 0.148203
0.504617 0.264239 0.149272
0.523606 0.265291 0.150342
0.542626 0.266344 0.151415
0.561686 0.267399 0.152489
0.580795 0.268457 0.153567
0.599961 0.269519 0.154647
0.619193 0.270584 0.155732
0.638500 0.271653 0.156820
0.657892 0.272727 0.157914
0.677376 0.273806 0.159012
0.696961 0.274890 0.160116
0.716657 0.275981 0.161227
0.736472 0.277078 0.162344
0.756414 0.278182 0.163468
0.141640 0.266143 0.132325
0.161708 0.267254 0.133456
0.181640 0.268358 0.134580
0.201444 0.269454 0.135697
0.221131 0.270544 0.136807
0.240708 0.271628 0.137910
0.260184 0.272707 0.139009
0.279568 0.273780 0.140101
0.298869 0.274849 0.141190
0.318095 0.275914 0.142274
0.337256 0.276975 0.143354
0.356360 0.278033 0.144431
0.375417 0.279088 0.145505
0.394434 0.280141 0.146578
0.413420 0.281192 0.147648
0.432385 0.282243 0.148717
0.451338 0.283292 0.149786
0.470286 0.284341 0.150854
0.489239 0.285391 0.151923
0.508205 0.286441 0.152992
0.527194 0.287493 0.154063
0.546214 0.288546 0.155135
0.565274 0.289601 0.156210
0.584382 0.290660 0.157287
0.603548 0.291721 0.158368
0.622781 0.292786 0.159452
0.642088 0.293855 0.160541
0.661479 0.294929 0.161634
0.680963 0.296008 0.162732
0.700549 0.297092 0.163837
0.720245 0.298183 0.164947
0.740059 0.299280 0.166064
0.760002 0.300385 0.167189
0.145212 0.288246 0.136029
0.165280 0.289357 0.137160
0.185211 0.290461 0.138284
0.205016 0.291558 0.139400
0.224702 0.292648 0.140510
0.244279 0.293732 0.141614
0.263755 0.294810 0.142712
0.283139 0.295884 0.143805
0.302440 0.296952 0.144893
0.321667 0.298017 0.145977
0.340828 0.299078 0.147058
0.359932 0.300136 0.148135
0.378988 0.301191 0.149209
0.398005 0.302244 0.150281
0.416992 0.303296 0.151352
0.435957 0.304346 0.152421
0.454909 0.305395 0.153490
0.473857 0.306445 0.154558
0.492810 0.307494 0.155626
0.511777 0.308545 0.156696
0.530765 0.309596 0.157766
0.549785 0.310649 0.158839
0.568845 0.311705 0.159913
0.587954 0.312763 0.160991
0.607120 0.313824 0.162071
0.626352 0.314889 0.163156
0.645660 0.315958 0.164244
0.665051 0.317032 0.165338
0.684535 0.318111 0.166436
0.704120 0.319196 0.167540
0.723816 0.320286 0.168651
0.743631 0.321384 0.169768
0.763574 0.322488 0.170892
0.148769 0.310261 0.139718
0.168837 0.311372 0.140849
0.188769 0.312476 0.141973
0.208573 0.313572 0.143089
0.228260 0.314662 0.144199
0.247837 0.315746 0.145303
0.267313 0.316825 0.146401
0.286697 0.317898 0.147494
0.305998 0.318967 0.148582
0.325224 0.320032 0.149666
0.344385 0.321093 0.150746
0.363489 0.322151 0.151824
0.382546 0.323206 0.152898
0.401563 0.324259 0.153970
0.420549 0.325311 0.155041
0.439514 0.326361 0.156110
0.458466 0.327410 0.157178
0.477415 0.328459 0.158247
0.496368 0.329509 0.159315
0.515334 0.330559 0.160385
0.534323 0.331611 0.161455
0.553343 0.332664 0.162528
0.572403 0.333719 0.163602
0.591511 0.334778 0.164680
0.610677 0.335839 0.165760
0.629910 0.336904 0.166845
0.649217 0.337973 0.167933
0.668608 0.339047 0.169026
0.688092 0.340126 0.170125
0.707678 0.341210 0.171229
0.727374 0.342301 0.172340
0.747188 0.343398 0.173457
0.767131 0.344503 0.174581
0.152314 0.332197 0.143393
0.172382 0.333308 0.144525
0.192313 0.334412 0.145649
0.212118 0.335509 0.146765
0.231804 0.336599 0.147875
0.251381 0.337683 0.148979
0.270857 0.338761 0.150077
0.290241 0.339835 0.151170
0.309542 0.340904 0.152258
0.328769 0.341968 0.153342
0.347930 0.343029 0.154422
0.367034 0.344087 0.155499
0.386090 0.345142 0.156574
0.405107 0.346196 0.157646
0.424094 0.347247 0.158716
0.443059 0.348297 0.159786
0.462011 0.349347 0.160854
0.480959 0.350396 0.161923
0.499912 0.351445 0.162991
0.518879 0.352496 0.164060
0.537867 0.353547 0.165131
0.556887 0.354600 0.166203
0.575947 0.355656 0.167278
0.595056 0.356714 0.168355
0.614222 0.357775 0.169436
0.633454 0.358840 0.170520
0.652762 0.359909 0.171609
0.672153 0.360983 0.172702
0.691637 0.362062 0.173801
0.711222 0.363147 0.174905
0.730918 0.364237 0.176015
0.750733 0.365335 0.177132
0.770676 0.366439 0.178257
0.155848 0.354065 0.147058
0.175915 0.355177 0.148189
0.195847 0.356280 0.149313
0.215652 0.357377 0.150429
0.235338 0.358467 0.151539
0.254915 0.359551 0.152643
0.274391 0.360630 0.153741
0.293775 0.361703 0.154834
0.313076 0.362772 0.155922
0.332303 0.363837 0.157006
0.351464 0.364898 0.158087
0.370568 0.365956 0.159164
0.389624 0.367011 0.160238
0.408641 0.368064 0.161310
0.427628 0.369115 0.162381
0.446593 0.370166 0.163450
0.465545 0.371215 0.164519
0.484493 0.372264 0.165587
0.503446 0.373314 0.166655
0.522412 0.374364 0.167725
0.541401 0.375416 0.168795
0.560421 0.376469 0.169868
0.579481 0.377524 0.170942
0.598589 0.378582 0.172020
0.617755 0.379644 0.173100
0.636988 0.380709 0.174185
0.656295 0.381778 0.175273
0.675687 0.382852 0.176366
0.695171 0.383931 0.177465
0.714756 0.385015 0.178569
0.734452 0.386106 0.179680
0.754267 0.387203 0.180797
0.774209 0.388307 0.181921
0.159372 0.375876 0.150712
0.179440 0.376987 0.151844
0.199371 0.378091 0.152968
0.219176 0.379188 0.154084
0.238862 0.380278 0.155194
0.258439 0.381362 0.156298
0.277915 0.382440 0.157396
0.297299 0.383514 0.158489
0.316600 0.384583 0.159577
0.335827 0.385647 0.160661
0.354988 0.386708 0.161741
0.374092 0.387766 0.162818
0.393148 0.388821 0.163893
0.412165 0.389875 0.164965
0.431152 0.390926 0.166035
0.450117 0.391976 0.167105
0.469069 0.393026 0.168173
0.488017 0.394075 0.169242
0.506970 0.395124 0.170310
0.525937 0.396175 0.171379
0.544925 0.397226 0.172450
0.563945 0.398279 0.173522
0.583005 0.399335 0.174597
0.602114 0.400393 0.175674
0.621280 0.401454 0.176755
0.640512 0.402519 0.177839
0.659820 0.403589 0.178928
0.679211 0.404662 0.180021
0.698695 0.405741 0.181120
0.718280 0.406826 0.182224
0.737976 0.407916 0.183334
0.757791 0.409014 0.184451
0.777734 0.410118 0.185576
0.162889 0.397639 0.154359
0.182956 0.398750 0.155490
0.202888 0.399854 0.156614
0.222693 0.400951 0.157731
0.242379 0.402041 0.158841
0.261956 0.403125 0.159944
0.281432 0.404204 0.161043
0.300816 0.405277 0.162135
0.320117 0.406346 0.163224
0.339344 0.407410 0.164308
0.358505 0.408472 0.165388
0.377609 0.409529 0.166465
0.396665 0.410585 0.167539
0.415682 0.411638 0.168612
0.434669 0.412689 0.169682
0.453634 0.413739 0.170751
0.472586 0.414789 0.171820
0.491534 0.415838 0.172888
0.510487 0.416888 0.173957
0.529453 0.417938 0.175026
0.548442 0.418989 0.176097
0.567462 0.420043 0.177169
0.586522 0.421098 0.178244
0.605630 0.422156 0.179321
0.624797 0.423218 0.180402
0.644029 0.424283 0.181486
0.663336 0.425352 0.182575
0.682728 0.426425 0.183668
0.702212 0.427504 0.184766
0.721797 0.428589 0.185871
0.741493 0.429680 0.186981
0.761308 0.430777 0.188098
0.781250 0.431881 0.189223
0.166399 0.419365 0.158000
0.186467 0.420476 0.159131
0.206399 0.421580 0.160255
0.226203 0.422677 0.161371
0.245890 0.423767 0.162481
0.265467 0.424851 0.163585
0.284943 0.425930 0.164683
0.304327 0.427003 0.165776
0.323628 0.428072 0.166864
0.342854 0.429136 0.167948
0.362015 0.430197 0.169028
0.381119 0.431255 0.170106
0.400176 0.432311 0.171180
0.419193 0.433364 0.172252
0.438179 0.434415 0.173323
0.457144 0.435465 0.174392
0.476097 0.436515 0.175460
0.495045 0.437564 0.176529
0.513998 0.438614 0.177597
0.532964 0.439664 0.178667
0.551953 0.440715 0.179737
0.570973 0.441769 0.180810
0.590033 0.442824 0.181884
0.609141 0.443882 0.182962
0.628307 0.444943 0.184042
0.647540 0.446008 0.185126
0.666847 0.447078 0.186215
0.686238 0.448151 0.187308
0.705722 0.449230 0.188407
0.725308 0.450315 0.189511
0.745004 0.451406 0.190622
0.764820 0.452504 0.191738
0.784855 0.453660 0.192835
0.169906 0.441064 0.161635
0.189973 0.442175 0.162767
0.209905 0.443279 0.163891
0.229710 0.444376 0.165007
0.249396 0.445466 0.166117
0.268973 0.446550 0.167221
0.288449 0.447629 0.168319
0.307833 0.448702 0.169412
0.327134 0.449771 0.170500
0.346361 0.450835 0.171584
0.365522 0.451896 0.172664
0.384626 0.452954 0.173741
0.403682 0.454010 0.174816
0.422699 0.455063 0.175888
0.441686 0.456114 0.176959
0.460651 0.457164 0.178028
0.479603 0.458214 0.179096
0.498551 0.459263 0.180165
0.517504 0.460313 0.181233
0.536470 0.461363 0.182303
0.555459 0.462414 0.183373
0.574479 0.463468 0.184446
0.593539 0.464523 0.185520
0.612647 0.465581 0.186597
0.631813 0.466642 0.187678
0.651046 0.467707 0.188762
0.670353 0.468777 0.189851
0.689745 0.469850 0.190944
0.709255 0.470944 0.192035
0.728931 0.472080 0.193112
0.748718 0.473222 0.194194
0.768624 0.474371 0.195284
0.788659 0.475528 0.196380
0.173409 0.462747 0.165269
0.193477 0.463858 0.166400
0.213409 0.464961 0.167524
0.233213 0.466058 0.168640
0.252900 0.467148 0.169750
0.272477 0.468232 0.170854
0.291953 0.469311 0.171952
0.311337 0.470384 0.173045
0.330638 0.471453 0.174133
0.349864 0.472518 0.175217
0.369025 0.473579 0.176298
0.388129 0.474637 0.177375
0.407186 0.475692 0.178449
0.426203 0.476745 0.179521
0.445189 0.477796 0.180592
0.464154 0.478847 0.181661
0.483106 0.479896 0.182730
0.502055 0.480945 0.183798
0.521007 0.481995 0.184866
0.539974 0.483045 0.185936
0.558963 0.484097 0.187006
0.577983 0.485150 0.188079
0.597042 0.486205 0.189153
0.616151 0.487263 0.190231
0.635317 0.488325 0.191311
0.654605 0.489421 0.192379
0.674001 0.490541 0.193440
0.693483 0.491665 0.194506
0.713057 0.492795 0.195577
0.732733 0.493931 0.196654
0.752520 0.495073 0.197737
0.772426 0.496222 0.198826
0.792461 0.497379 0.199923
0.176912 0.484422 0.168901
0.196980 0.485534 0.170032
0.216911 0.486637 0.171156
0.236716 0.487734 0.172273
0.256402 0.488824 0.173382
0.275979 0.489908 0.174486
0.295455 0.490987 0.175584
0.314839 0.492060 0.176677
0.334140 0.493129 0.177765
0.353367 0.494194 0.178849
0.372528 0.495255 0.179930
0.391632 0.496313 0.181007
0.410688 0.497368 0.182081
0.429705 0.498421 0.183153
0.448692 0.499472 0.184224
0.467657 0.500523 0.185293
0.486609 0.501572 0.186362
0.505557 0.502621 0.187430
0.524510 0.503671 0.188498
0.543477 0.504721 0.189568
0.562465 0.505773 0.190638
0.581485 0.506826 0.191711
0.600632 0.507931 0.192759
0.619829 0.509039 0.193809
0.639084 0.510150 0.194863
0.658405 0.511266 0.195920
0.677802 0.512385 0.196982
0.697283 0.513510 0.198048
0.716857 0.514640 0.199119
0.736533 0.515775 0.200196
0.756320 0.516918 0.201279
0.776227 0.518067 0.202368
0.796262 0.519223 0.203464
0.180415 0.506102 0.172533
0.200483 0.507214 0.173665
0.220415 0.508317 0.174789
0.240219 0.509414 0.175905
0.259906 0.510504 0.177015
0.279482 0.511588 0.178119
0.298958 0.512667 0.179217
0.318342 0.513740 0.180310
0.337643 0.514809 0.181398
0.356870 0.515874 0.182482
0.376031 0.516935 0.183562
0.395135 0.517992 0.184639
0.414191 0.519048 0.185714
0.433208 0.520101 0.186786
0.452195 0.521152 0.187857
0.471160 0.522202 0.188926
0.490112 0.523252 0.189994
0.509060 0.524301 0.191063
0.528047 0.525370 0.192121
0.547101 0.526470 0.193164
0.566178 0.527571 0.194208
0.585286 0.528674 0.195253
0.604434 0.529779 0.196301
0.623631 0.530887 0.197352
0.642885 0.531999 0.198405
0.662207 0.533114 0.199463
0.681603 0.534234 0.200524
0.701084 0.535358 0.201590
0.720659 0.536488 0.202661
0.740335 0.537624 0.203738
0.760122 0.538766 0.204821
0.780028 0.539915 0.205910
0.800063 0.541072 0.207006
0.183921 0.527796 0.176169
0.203988 0.528908 0.177300
0.223920 0.530011 0.178424
0.243725 0.531108 0.179540
0.263411 0.532198 0.180650
0.282988 0.533282 0.181754
0.302464 0.534361 0.182852
0.321848 0.535434 0.183945
0.341149 0.536503 0.185033
0.360375 0.537568 0.186117
0.379536 0.538629 0.187198
0.398641 0.539686 0.188275
0.417697 0.540742 0.189349
0.436714 0.541795 0.190421
0.455701 0.542846 0.191492
0.474734 0.543935 0.192540
0.493774 0.545034 0.193582
0.512810 0.546133 0.194624
0.531851 0.547232 0.195666
0.550905 0.548332 0.196708
0.569981 0.549433 0.197752
0.589089 0.550536 0.198798
0.608237 0.551642 0.199846
0.627434 0.552750 0.200896
0.646689 0.553861 0.201950
0.666010 0.554977 0.203007
0.685407 0.556096 0.204069
0.704888 0.557221 0.205135
0.724462 0.558351 0.206206
0.744139 0.559486 0.207283
0.763925 0.560629 0.208365
0.783832 0.561778 0.209455
0.803867 0.562934 0.210551
0.187430 0.549515 0.179808
0.207498 0.550626 0.180939
0.227429 0.551730 0.182063
0.247234 0.552826 0.183180
0.266920 0.553916 0.184290
0.286497 0.555001 0.185393
0.305973 0.556079 0.186491
0.325357 0.557152 0.187584
0.344658 0.558221 0.188672
0.363885 0.559286 0.189756
0.383046 0.560347 0.190837
0.402166 0.561414 0.191909
0.421310 0.562519 0.192957
0.440415 0.563622 0.194002
0.459490 0.564723 0.195046
0.478542 0.565823 0.196089
0.497582 0.566922 0.197130
0.516618 0.568020 0.198172
0.535659 0.569120 0.199214
0.554713 0.570219 0.200257
0.573790 0.571321 0.201301
0.592897 0.572424 0.202346
0.612045 0.573529 0.203394
0.631242 0.574637 0.204445
0.650497 0.575749 0.205498
0.669819 0.576864 0.206556
0.689215 0.577983 0.207617
0.708696 0.579108 0.208683
0.728270 0.580238 0.209754
0.747947 0.581374 0.210831
0.767733 0.582516 0.211914
0.787640 0.583665 0.213003
0.807675 0.584821 0.214100
0.190945 0.571268 0.183453
0.211013 0.572379 0.184584
0.230945 0.573483 0.185708
0.250749 0.574579 0.186825
0.270436 0.575670 0.187935
0.290012 0.576754 0.189038
0.309488 0.577832 0.190136
0.328872 0.578906 0.191229
0.348222 0.580002 0.192303
0.367538 0.581117 0.193360
0.386787 0.582228 0.194413
0.405980 0.583336 0.195463
0.425124 0.584441 0.196511
0.444229 0.585544 0.197556
0.463304 0.586645 0.198600
0.482357 0.587745 0.199643
0.501396 0.588844 0.200685
0.520432 0.589943 0.201726
0.539473 0.591042 0.202768
0.558527 0.592142 0.203811
0.577604 0.593243 0.204855
0.596712 0.594346 0.205901
0.615860 0.595451 0.206948
0.635057 0.596559 0.207999
0.654311 0.597671 0.209053
0.673633 0.598786 0.210110
0.693029 0.599906 0.211171
0.712510 0.601030 0.212237
0.732085 0.602160 0.213309
0.751761 0.603296 0.214385
0.771548 0.604438 0.215468
0.791454 0.605587 0.216557
0.811489 0.606744 0.217654
0.194467 0.593066 0.187105
0.214535 0.594177 0.188237
0.234467 0.595281 0.189361
0.254271 0.596377 0.190477
0.273958 0.597468 0.191587
0.293614 0.598597 0.192667
0.313180 0.599726 0.193737
0.332654 0.600850 0.194803
0.352044 0.601969 0.195864
0.371360 0.603084 0.196921
0.390609 0.604196 0.197975
0.409802 0.605304 0.199025
0.428946 0.606409 0.200072
0.448051 0.607511 0.201118
0.467126 0.608612 0.202162
0.486179 0.609712 0.203204
0.505218 0.610811 0.204246
0.524254 0.611910 0.205288
0.543295 0.613009 0.206330
0.562349 0.614109 0.207373
0.581426 0.615210 0.208417
0.600534 0.616313 0.209462
0.619682 0.617419 0.210510
0.638879 0.618527 0.211560
0.658133 0.619638 0.212614
0.677455 0.620754 0.213671
0.696851 0.621873 0.214733
0.716333 0.622998 0.215799
0.735907 0.624128 0.216870
0.755583 0.625263 0.217947
0.775370 0.626406 0.219030
0.795276 0.627555 0.220119
0.815311 0.628711 0.221215
0.197999 0.614919 0.190767
0.218081 0.616039 0.191894
0.238105 0.617194 0.192990
0.258001 0.618343 0.194079
0.277778 0.619485 0.195161
0.297446 0.620620 0.196237
0.317012 0.621749 0.197308
0.336486 0.622873 0.198374
0.355876 0.623993 0.199435
0.375191 0.625108 0.200492
0.394441 0.626219 0.201545
0.413634 0.627327 0.202595
0.432778 0.628432 0.203643
0.451883 0.629535 0.204689
0.470958 0.630636 0.205732
0.490010 0.631736 0.206775
0.509050 0.632835 0.207817
0.528086 0.633933 0.208859
0.547127 0.635033 0.209900
0.566181 0.636132 0.210943
0.585257 0.637234 0.211987
0.604365 0.638337 0.213033
0.623513 0.639442 0.214081
0.642710 0.640550 0.215131
0.661965 0.641662 0.216185
0.681286 0.642777 0.217242
0.700683 0.643896 0.218304
0.720164 0.645021 0.219370
0.739738 0.646151 0.220441
0.759414 0.647287 0.221517
0.779201 0.648429 0.222600
0.799108 0.649578 0.223690
0.819143 0.650734 0.224786
0.201763 0.636964 0.194372
0.221924 0.638128 0.195476
0.241948 0.639284 0.196571
0.261844 0.640432 0.197660
0.281622 0.641574 0.198742
0.301289 0.642709 0.199819
0.320855 0.643839 0.200889
0.340329 0.644963 0.201955
0.359719 0.646082 0.203016
0.379035 0.647197 0.204073
0.398284 0.648308 0.205126
0.417477 0.649416 0.206177
0.436621 0.650521 0.207224
0.455726 0.651624 0.208270
0.474801 0.652725 0.209314
0.493854 0.653825 0.210356
0.512893 0.654924 0.211398
0.531929 0.656023 0.212440
0.550970 0.657122 0.213482
0.570024 0.658222 0.214524
0.589101 0.659323 0.215568
0.608209 0.660426 0.216614
0.627357 0.661531 0.217662
0.646554 0.662639 0.218712
0.665808 0.663751 0.219766
0.685130 0.664866 0.220823
0.704526 0.665986 0.221885
0.724007 0.667110 0.222951
0.743582 0.668240 0.224022
0.763258 0.669376 0.225099
0.783045 0.670518 0.226182
0.802951 0.671667 0.227271
0.822986 0.672824 0.228367
0.205620 0.659130 0.197966
0.225781 0.660293 0.199069
0.245804 0.661449 0.200165
0.265701 0.662598 0.201254
0.285478 0.663739 0.202336
0.305146 0.664875 0.203412
0.324712 0.666004 0.204483
0.344185 0.667128 0.205549
0.363576 0.668248 0.206610
0.382891 0.669363 0.207667
0.402141 0.670474 0.208720
0.421333 0.671582 0.209770
0.440478 0.672687 0.210818
0.459583 0.673790 0.211863
0.478657 0.674891 0.212907
0.497710 0.675990 0.213950
0.516750 0.677089 0.214992
0.535786 0.678188 0.216033
0.554826 0.679287 0.217075
0.573881 0.680387 0.218118
0.592957 0.681488 0.219162
0.612065 0.682591 0.220208
0.631213 0.683697 0.221256
0.650410 0.684805 0.222306
0.669665 0.685916 0.223360
0.688986 0.687032 0.224417
0.708383 0.688151 0.225478
0.727864 0.689276 0.226545
0.747438 0.690406 0.227616
0.767114 0.691542 0.228692
0.786901 0.692684 0.229775
0.806808 0.693833 0.230865
0.826842 0.694989 0.231961
0.209492 0.681382 0.201574
0.229652 0.682546 0.202677
0.249676 0.683702 0.203773
0.269572 0.684850 0.204861
0.289350 0.685992 0.205944
0.309017 0.687127 0.207020
0.328583 0.688256 0.208091
0.348057 0.689381 0.209156
0.367447 0.690500 0.210217
0.386763 0.691615 0.211274
0.406012 0.692726 0.212328
0.425205 0.693834 0.213378
0.444349 0.694939 0.214426
0.463454 0.696042 0.215471
0.482529 0.697143 0.216515
0.501582 0.698243 0.217558
0.520622 0.699342 0.218600
0.539657 0.700441 0.219641
0.558698 0.701540 0.220683
0.577752 0.702640 0.221726
0.596829 0.703741 0.222770
0.615937 0.704844 0.223815
0.635085 0.705949 0.224863
0.654282 0.707057 0.225914
0.673536 0.708169 0.226967
0.692858 0.709284 0.228025
0.712255 0.710404 0.229086
