assets/preview/luts/golden_hour_punch.cube
TITLE "Golden Hour Punch"
LUT_3D_SIZE 33
DOMAIN_MIN 0.0 0.0 0.0
DOMAIN_MAX 1.0 1.0 1.0
0.008796 0.000000 0.011921
0.008796 0.000000 0.011921
0.010133 0.000000 0.011856
0.058457 0.000000 0.009517
0.106930 0.000000 0.007172
0.155576 0.000000 0.004817
0.204395 0.000000 0.002455
0.253372 0.000000 0.000084
0.302490 0.000000 0.000000
0.351724 0.000000 0.000000
0.401047 0.000000 0.000000
0.450430 0.000000 0.000000
0.499846 0.000000 0.000000
0.549262 0.000000 0.000000
0.598647 0.000000 0.000000
0.647970 0.000000 0.000000
0.697198 0.000000 0.000000
0.746299 0.000000 0.000000
0.795240 0.000000 0.000000
0.843988 0.000000 0.000000
0.892511 0.000000 0.000000
0.940775 0.000000 0.000000
0.988747 0.000000 0.000000
1.000000 0.000000 0.000000
1.000000 0.000000 0.000000
1.000000 0.000000 0.000000
1.000000 0.000000 0.000000
1.000000 0.000000 0.000000
1.000000 0.000000 0.000000
1.000000 0.000000 0.000000
1.000000 0.000000 0.000000
1.000000 0.000000 0.000000
1.000000 0.000000 0.000000
0.008796 0.000000 0.011921
0.008796 0.000000 0.011921
0.010133 0.000000 0.011856
0.058457 0.000000 0.009517
0.106930 0.000000 0.007172
0.155576 0.000000 0.004817
0.204395 0.000000 0.002455
0.253372 0.000000 0.000084
0.302490 0.000000 0.000000
0.351724 0.000000 0.000000
0.401047 0.000000 0.000000
0.450430 0.000000 0.000000
0.499846 0.000000 0.000000
0.549262 0.000000 0.000000
0.598647 0.000000 0.000000
0.647970 0.000000 0.000000
0.697198 0.000000 0.000000
0.746299 0.000000 0.000000
0.795240 0.000000 0.000000
0.843988 0.000000 0.000000
0.892511 0.000000 0.000000
0.940775 0.000000 0.000000
0.988747 0.000000 0.000000
1.000000 0.000000 0.000000
1.000000 0.000000 0.000000
1.000000 0.000000 0.000000
1.000000 0.000000 0.000000
1.000000 0.000000 0.000000
1.000000 0.000000 0.000000
1.000000 0.000000 0.000000
1.000000 0.000000 0.000000
1.000000 0.000000 0.000000
1.000000 0.000000 0.000000
0.008796 0.000000 0.011921
0.008796 0.000000 0.011921
0.010133 0.000000 0.011856
0.058457 0.000000 0.009517
0.106930 0.000000 0.007172
0.155576 0.000000 0.004817
0.204395 0.000000 0.002455
0.253372 0.000000 0.000084
0.302490 0.000000 0.000000
0.351724 0.000000 0.000000
0.401047 0.000000 0.000000
0.450430 0.000000 0.000000
0.499846 0.000000 0.000000
0.549262 0.000000 0.000000
0.598647 0.000000 0.000000
0.647970 0.000000 0.000000
0.697198 0.000000 0.000000
0.746299 0.000000 0.000000
0.795240 0.000000 0.000000
0.843988 0.000000 0.000000
0.892511 0.000000 0.000000
0.940775 0.000000 0.000000
0.988747 0.000000 0.000000
1.000000 0.000000 0.000000
1.000000 0.000000 0.000000
1.000000 0.000000 0.000000
1.000000 0.000000 0.000000
1.000000 0.000000 0.000000
1.000000 0.000000 0.000000
1.000000 0.000000 0.000000
1.000000 0.000000 0.000000
1.000000 0.000000 0.000000
1.000000 0.000000 0.000000
0.005730 0.016539 0.008781
0.005730 0.016539 0.008781
0.007068 0.016481 0.008716
0.055384 0.014380 0.006370
0.103851 0.012272 0.004017
0.152490 0.010157 0.001656
0.201301 0.008034 0.000000
0.250272 0.005905 0.000000
0.299382 0.003769 0.000000
0.348608 0.001629 0.000000
0.397924 0.000000 0.000000
0.447301 0.000000 0.000000
0.496709 0.000000 0.000000
0.546118 0.000000 0.000000
0.595496 0.000000 0.000000
0.644812 0.000000 0.000000
0.694033 0.000000 0.000000
0.743126 0.000000 0.000000
0.792060 0.000000 0.000000
0.840802 0.000000 0.000000
0.889317 0.000000 0.000000
0.937574 0.000000 0.000000
0.985539 0.000000 0.000000
1.000000 0.000000 0.000000
1.000000 0.000000 0.000000
1.000000 0.000000 0.000000
1.000000 0.000000 0.000000
1.000000 0.000000 0.000000
1.000000 0.000000 0.000000
1.000000 0.000000 0.000000
1.000000 0.000000 0.000000
1.000000 0.000000 0.000000
1.000000 0.000000 0.000000
0.000000 0.054231 0.001950
0.000000 0.054231 0.001950
0.000380 0.054173 0.001885
0.048697 0.052072 0.000000
0.097163 0.049964 0.000000
0.145802 0.047849 0.000000
0.194613 0.045726 0.000000
0.243584 0.043597 0.000000
0.292694 0.041461 0.000000
0.341921 0.039320 0.000000
0.391236 0.037176 0.000000
0.440613 0.035029 0.000000
0.490021 0.032880 0.000000
0.539430 0.030732 0.000000
0.588808 0.028584 0.000000
0.638124 0.026440 0.000000
0.687345 0.024299 0.000000
0.736439 0.022164 0.000000
0.785373 0.020036 0.000000
0.834114 0.017917 0.000000
0.882630 0.015807 0.000000
0.930886 0.013709 0.000000
0.978851 0.011623 0.000000
1.000000 0.009551 0.000000
1.000000 0.007495 0.000000
1.000000 0.005456 0.000000
1.000000 0.003435 0.000000
1.000000 0.002557 0.000000
1.000000 0.002557 0.000000
1.000000 0.002557 0.000000
1.000000 0.002557 0.000000
1.000000 0.002557 0.000000
1.000000 0.002557 0.000000
0.000000 0.092197 0.000000
0.000000 0.092197 0.000000
0.000000 0.092139 0.000000
0.041960 0.090038 0.000000
0.090426 0.087930 0.000000
0.139065 0.085815 0.000000
0.187877 0.083692 0.000000
0.236847 0.081563 0.000000
0.285958 0.079427 0.000000
0.335184 0.077286 0.000000
0.384500 0.075142 0.000000
0.433877 0.072995 0.000000
0.483285 0.070846 0.000000
0.532694 0.068697 0.000000
0.582072 0.066550 0.000000
0.631387 0.064406 0.000000
0.680608 0.062265 0.000000
0.729702 0.060130 0.000000
0.778636 0.058002 0.000000
0.827377 0.055883 0.000000
0.875893 0.053773 0.000000
0.924150 0.051675 0.000000
0.972115 0.049589 0.000000
1.000000 0.047517 0.000000
1.000000 0.045461 0.000000
1.000000 0.043422 0.000000
1.000000 0.041401 0.000000
1.000000 0.040504 0.000000
1.000000 0.040504 0.000000
1.000000 0.040504 0.000000
1.000000 0.040504 0.000000
1.000000 0.040504 0.000000
1.000000 0.040504 0.000000
0.000000 0.130415 0.000000
0.000000 0.130415 0.000000
0.000000 0.130357 0.000000
0.035179 0.128255 0.000000
0.083645 0.126148 0.000000
0.132284 0.124033 0.000000
0.181095 0.121910 0.000000
0.230066 0.119781 0.000000
0.279177 0.117645 0.000000
0.328403 0.115504 0.000000
0.377719 0.113360 0.000000
0.427096 0.111213 0.000000
0.476504 0.109064 0.000000
0.525912 0.106915 0.000000
0.575291 0.104768 0.000000
0.624606 0.102624 0.000000
0.673827 0.100483 0.000000
0.722921 0.098348 0.000000
0.771855 0.096220 0.000000
0.820596 0.094101 0.000000
0.869112 0.091991 0.000000
0.917369 0.089892 0.000000
0.965334 0.087807 0.000000
1.000000 0.085735 0.000000
1.000000 0.083679 0.000000
1.000000 0.081640 0.000000
1.000000 0.079619 0.000000
1.000000 0.078704 0.000000
1.000000 0.078704 0.000000
1.000000 0.078704 0.000000
1.000000 0.078704 0.000000
1.000000 0.078704 0.000000
1.000000 0.078704 0.000000
0.000000 0.168862 0.000000
0.000000 0.168862 0.000000
0.000000 0.168804 0.000000
0.028357 0.166703 0.000000
0.076823 0.164595 0.000000
0.125462 0.162480 0.000000
0.174273 0.160358 0.000000
0.223244 0.158228 0.000000
0.272355 0.156092 0.000000
0.321581 0.153952 0.000000
0.370897 0.151807 0.000000
0.420274 0.149660 0.000000
0.469682 0.147511 0.000000
0.519090 0.145363 0.000000
0.568469 0.143216 0.000000
0.617784 0.141071 0.000000
0.667005 0.138931 0.000000
0.716099 0.136796 0.000000
0.765033 0.134668 0.000000
0.813774 0.132548 0.000000
0.862290 0.130438 0.000000
0.910547 0.128340 0.000000
0.958512 0.126254 0.000000
1.000000 0.124183 0.000000
1.000000 0.122126 0.000000
1.000000 0.120087 0.000000
1.000000 0.118067 0.000000
1.000000 0.117133 0.000000
1.000000 0.117133 0.000000
1.000000 0.117133 0.000000
1.000000 0.117133 0.000000
1.000000 0.117133 0.000000
1.000000 0.117133 0.000000
0.000000 0.207517 0.000000
0.000000 0.207517 0.000000
0.000000 0.207459 0.000000
0.021498 0.205358 0.000000
0.069964 0.203250 0.000000
0.118604 0.201135 0.000000
0.167415 0.199013 0.000000
0.216385 0.196883 0.000000
0.265496 0.194747 0.000000
0.314722 0.192607 0.000000
0.364038 0.190462 0.000000
0.413415 0.188315 0.000000
0.462823 0.186166 0.000000
0.512232 0.184018 0.000000
0.561610 0.181871 0.000000
0.610926 0.179726 0.000000
0.660147 0.177586 0.000000
0.709240 0.175451 0.000000
0.758174 0.173323 0.000000
0.806916 0.171203 0.000000
0.855431 0.169093 0.000000
0.903688 0.166995 0.000000
0.951653 0.164909 0.000000
0.999293 0.162837 0.000000
1.000000 0.160781 0.000000
1.000000 0.158742 0.000000
1.000000 0.156722 0.000000
1.000000 0.155769 0.000000
1.000000 0.155769 0.000000
1.000000 0.155769 0.000000
1.000000 0.155769 0.000000
1.000000 0.155769 0.000000
1.000000 0.155769 0.000000
0.000000 0.246357 0.000000
0.000000 0.246357 0.000000
0.000000 0.246299 0.000000
0.014607 0.244198 0.000000
0.063073 0.242091 0.000000
0.111712 0.239975 0.000000
0.160523 0.237853 0.000000
0.209494 0.235723 0.000000
0.258604 0.233588 0.000000
0.307831 0.231447 0.000000
0.357147 0.229302 0.000000
0.406523 0.227155 0.000000
0.455931 0.225007 0.000000
0.505340 0.222858 0.000000
0.554718 0.220711 0.000000
0.604034 0.218566 0.000000
0.653255 0.216426 0.000000
0.702349 0.214291 0.000000
0.751283 0.212163 0.000000
0.800024 0.210043 0.000000
0.848540 0.207934 0.000000
0.896797 0.205835 0.000000
0.944762 0.203749 0.000000
0.992401 0.201678 0.000000
1.000000 0.199622 0.000000
1.000000 0.197582 0.000000
1.000000 0.195562 0.000000
1.000000 0.194591 0.000000
1.000000 0.194591 0.000000
1.000000 0.194591 0.000000
1.000000 0.194591 0.000000
1.000000 0.194591 0.000000
1.000000 0.194591 0.000000
0.000000 0.285360 0.000000
0.000000 0.285360 0.000000
0.000000 0.285302 0.000000
0.007686 0.283201 0.000000
0.056152 0.281094 0.000000
0.104791 0.278978 0.000000
0.153603 0.276856 0.000000
0.202573 0.274726 0.000000
0.251684 0.272591 0.000000
0.300910 0.270450 0.000000
0.350226 0.268305 0.000000
0.399603 0.266158 0.000000
0.449011 0.264010 0.000000
0.498420 0.261861 0.000000
0.547798 0.259714 0.000000
0.597113 0.257569 0.000000
0.646334 0.255429 0.000000
0.695428 0.253294 0.000000
0.744362 0.251166 0.000000
0.793104 0.249046 0.000000
0.841619 0.246937 0.000000
0.889876 0.244838 0.000000
0.937841 0.242752 0.000000
0.985481 0.240681 0.000000
1.000000 0.238625 0.000000
1.000000 0.236586 0.000000
1.000000 0.234565 0.000000
1.000000 0.233575 0.000000
1.000000 0.233575 0.000000
1.000000 0.233575 0.000000
1.000000 0.233575 0.000000
1.000000 0.233575 0.000000
1.000000 0.233575 0.000000
0.000000 0.324504 0.000000
0.000000 0.324504 0.000000
0.000000 0.324446 0.000000
0.000741 0.322345 0.000000
0.049207 0.320237 0.000000
0.097846 0.318122 0.000000
0.146657 0.316000 0.000000
0.195628 0.313870 0.000000
0.244738 0.311735 0.000000
0.293965 0.309594 0.000000
0.343281 0.307449 0.000000
0.392657 0.305302 0.000000
0.442066 0.303154 0.000000
0.491474 0.301005 0.000000
0.540852 0.298858 0.000000
0.590168 0.296713 0.000000
0.639389 0.294573 0.000000
0.688483 0.292438 0.000000
0.737417 0.290310 0.000000
0.786158 0.288190 0.000000
0.834674 0.286081 0.000000
0.882931 0.283982 0.000000
0.930896 0.281896 0.000000
0.978535 0.279825 0.000000
1.000000 0.277768 0.000000
1.000000 0.275729 0.000000
1.000000 0.273709 0.000000
1.000000 0.272700 0.000000
1.000000 0.272700 0.000000
1.000000 0.272700 0.000000
1.000000 0.272700 0.000000
1.000000 0.272700 0.000000
1.000000 0.272700 0.000000
0.000000 0.363767 0.000000
0.000000 0.363767 0.000000
0.000000 0.363708 0.000000
0.000000 0.361607 0.000000
0.042240 0.359500 0.000000
0.090880 0.357385 0.000000
0.139691 0.355262 0.000000
0.188661 0.353132 0.000000
0.237772 0.350997 0.000000
0.286998 0.348856 0.000000
0.336314 0.346712 0.000000
0.385691 0.344564 0.000000
0.435099 0.342416 0.000000
0.484508 0.340267 0.000000
0.533886 0.338120 0.000000
0.583202 0.335975 0.000000
0.632423 0.333835 0.000000
0.681516 0.331700 0.000000
0.730450 0.329572 0.000000
0.779192 0.327453 0.000000
0.827707 0.325343 0.000000
0.875964 0.323244 0.000000
0.923929 0.321158 0.000000
0.971569 0.319087 0.000000
1.000000 0.317031 0.000000
1.000000 0.314992 0.000000
1.000000 0.312971 0.000000
1.000000 0.311943 0.000000
1.000000 0.311943 0.000000
1.000000 0.311943 0.000000
1.000000 0.311943 0.000000
1.000000 0.311943 0.000000
1.000000 0.311943 0.000000
0.000000 0.403125 0.000000
0.000000 0.403125 0.000000
0.000000 0.403067 0.000000
0.000000 0.400966 0.000000
0.035257 0.398858 0.000000
0.083896 0.396743 0.000000
0.132707 0.394620 0.000000
0.181678 0.392491 0.000000
0.230788 0.390355 0.000000
0.280015 0.388215 0.000000
0.329331 0.386070 0.000000
0.378707 0.383923 0.000000
0.428115 0.381774 0.000000
0.477524 0.379626 0.000000
0.526902 0.377478 0.000000
0.576218 0.375334 0.000000
0.625439 0.373193 0.000000
0.674533 0.371059 0.000000
0.723467 0.368931 0.000000
0.772208 0.366811 0.000000
0.820724 0.364701 0.000000
0.868981 0.362603 0.000000
0.916946 0.360517 0.000000
0.964585 0.358445 0.000000
1.000000 0.356389 0.000000
1.000000 0.354350 0.000000
1.000000 0.352330 0.000000
1.000000 0.351283 0.000000
1.000000 0.351283 0.000000
1.000000 0.351283 0.000000
1.000000 0.351283 0.000000
1.000000 0.351283 0.000000
1.000000 0.351283 0.000000
0.000000 0.442558 0.000000
0.000000 0.442558 0.000000
0.000000 0.442499 0.000000
0.000000 0.440398 0.000000
0.028260 0.438291 0.000000
0.076899 0.436176 0.000000
0.125711 0.434053 0.000000
0.174681 0.431923 0.000000
0.223792 0.429788 0.000000
0.273018 0.427647 0.000000
0.322334 0.425503 0.000000
0.371711 0.423355 0.000000
0.421119 0.421207 0.000000
0.470528 0.419058 0.000000
0.519906 0.416911 0.000000
0.569221 0.414766 0.000000
0.618442 0.412626 0.000000
0.667536 0.410491 0.000000
0.716470 0.408363 0.000000
0.765211 0.406244 0.000000
0.813727 0.404134 0.000000
0.861984 0.402035 0.000000
0.909949 0.399949 0.000000
0.957589 0.397878 0.000000
1.000000 0.395822 0.000000
1.000000 0.393783 0.000000
1.000000 0.391762 0.000000
1.000000 0.390696 0.000000
1.000000 0.390696 0.000000
1.000000 0.390696 0.000000
1.000000 0.390696 0.000000
1.000000 0.390696 0.000000
1.000000 0.390696 0.000000
0.000000 0.482042 0.000000
0.000000 0.482042 0.000000
0.000000 0.481984 0.000000
0.000000 0.479883 0.000000
0.021254 0.477775 0.000000
0.069893 0.475660 0.000000
0.118705 0.473537 0.000000
0.167675 0.471408 0.000000
0.216786 0.469272 0.000000
0.266012 0.467131 0.000000
0.315328 0.464987 0.000000
0.364705 0.462840 0.000000
0.414113 0.460691 0.000000
0.463522 0.458542 0.000000
0.512900 0.456395 0.000000
0.562215 0.454251 0.000000
0.611436 0.452110 0.000000
0.660530 0.449975 0.000000
0.709464 0.447847 0.000000
0.758206 0.445728 0.000000
0.806721 0.443618 0.000000
0.854978 0.441520 0.000000
0.902943 0.439434 0.000000
0.950583 0.437362 0.000000
0.997864 0.435306 0.000000
1.000000 0.433267 0.000000
1.000000 0.431246 0.000000
1.000000 0.430161 0.000000
1.000000 0.430161 0.000000
1.000000 0.430161 0.000000
1.000000 0.430161 0.000000
1.000000 0.430161 0.000000
1.000000 0.430161 0.000000
0.000000 0.521556 0.000000
0.000000 0.521556 0.000000
0.000000 0.521497 0.000000
0.000000 0.519396 0.000000
0.014243 0.517289 0.000000
0.062882 0.515174 0.000000
0.111694 0.513051 0.000000
0.160664 0.510921 0.000000
0.209775 0.508786 0.000000
0.259001 0.506645 0.000000
0.308317 0.504501 0.000000
0.357694 0.502353 0.000000
0.407102 0.500205 0.000000
0.456511 0.498056 0.000000
0.505889 0.495909 0.000000
0.555204 0.493764 0.000000
0.604425 0.491624 0.000000
0.653519 0.489489 0.000000
0.702453 0.487361 0.000000
0.751195 0.485242 0.000000
0.799710 0.483132 0.000000
0.847967 0.481033 0.000000
0.895932 0.478947 0.000000
0.943572 0.476876 0.000000
0.990853 0.474820 0.000000
1.000000 0.472781 0.000000
1.000000 0.470774 0.000000
1.000000 0.469728 0.000000
1.000000 0.469728 0.000000
1.000000 0.469728 0.000000
1.000000 0.469728 0.000000
1.000000 0.469728 0.000000
1.000000 0.469728 0.000000
0.000000 0.561076 0.000000
0.000000 0.561076 0.000000
0.000000 0.561018 0.000000
0.000000 0.558917 0.000000
0.007231 0.556810 0.000000
0.055870 0.554695 0.000000
0.104681 0.552572 0.000000
0.153652 0.550442 0.000000
0.202762 0.548307 0.000000
0.251989 0.546166 0.000000
0.301305 0.544022 0.000000
0.350681 0.541874 0.000000
0.400089 0.539726 0.000000
0.449498 0.537577 0.000000
0.498876 0.535430 0.000000
0.548192 0.533285 0.000000
0.597413 0.531145 0.000000
0.646507 0.529010 0.000000
0.695441 0.526882 0.000000
0.744182 0.524762 0.000000
0.792698 0.522653 0.000000
0.840955 0.520554 0.000000
0.888920 0.518468 0.000000
0.937346 0.516413 0.000000
0.985420 0.514373 0.000000
1.000000 0.512350 0.000000
1.000000 0.510346 0.000000
1.000000 0.509393 0.000000
1.000000 0.509393 0.000000
1.000000 0.509393 0.000000
1.000000 0.509393 0.000000
1.000000 0.509393 0.000000
1.000000 0.509393 0.000000
0.000000 0.600583 0.000000
0.000000 0.600583 0.000000
0.000000 0.600524 0.000000
0.000000 0.598423 0.000000
0.000221 0.596316 0.000000
0.048860 0.594201 0.000000
0.097672 0.592078 0.000000
0.146642 0.589948 0.000000
0.195753 0.587813 0.000000
0.244979 0.585672 0.000000
0.294295 0.583528 0.000000
0.343672 0.581380 0.000000
0.393080 0.579232 0.000000
0.442489 0.577083 0.000000
0.491867 0.574936 0.000000
0.541182 0.572791 0.000000
0.590403 0.570651 0.000000
0.639497 0.568516 0.000000
0.688431 0.566388 0.000000
0.737206 0.564269 0.000000
0.786535 0.562176 0.000000
0.835601 0.560094 0.000000
0.884370 0.558025 0.000000
0.932808 0.555970 0.000000
0.980883 0.553930 0.000000
1.000000 0.551907 0.000000
1.000000 0.549903 0.000000
1.000000 0.549043 0.000000
1.000000 0.549043 0.000000
1.000000 0.549043 0.000000
1.000000 0.549043 0.000000
1.000000 0.549043 0.000000
1.000000 0.549043 0.000000
0.000000 0.640051 0.000000
0.000000 0.640051 0.000000
0.000000 0.639993 0.000000
0.000000 0.637892 0.000000
0.000000 0.635784 0.000000
0.041857 0.633669 0.000000
0.090668 0.631547 0.000000
0.139639 0.629417 0.000000
0.188750 0.627282 0.000000
0.237976 0.625141 0.000000
0.287292 0.622996 0.000000
0.336669 0.620849 0.000000
0.386077 0.618701 0.000000
0.435485 0.616552 0.000000
0.484864 0.614405 0.000000
0.534179 0.612260 0.000000
0.583443 0.610121 0.000000
0.633360 0.608003 0.000000
0.683114 0.605892 0.000000
0.732673 0.603789 0.000000
0.782002 0.601696 0.000000
0.831068 0.599614 0.000000
0.879837 0.597545 0.000000
0.928275 0.595489 0.000000
0.976350 0.593450 0.000000
1.000000 0.591427 0.000000
1.000000 0.589422 0.000000
1.000000 0.588656 0.000000
1.000000 0.588656 0.000000
1.000000 0.588656 0.000000
1.000000 0.588656 0.000000
1.000000 0.588656 0.000000
1.000000 0.588656 0.000000
0.000000 0.679461 0.000000
0.000000 0.679461 0.000000
0.000000 0.679402 0.000000
0.000000 0.677301 0.000000
0.000000 0.675194 0.000000
0.034865 0.673079 0.000000
0.083676 0.670956 0.000000
0.132647 0.668826 0.000000
0.181757 0.666691 0.000000
0.230983 0.664550 0.000000
0.280299 0.662406 0.000000
0.329676 0.660258 0.000000
0.379084 0.658110 0.000000
0.428522 0.655962 0.000000
0.478728 0.653832 0.000000
0.528870 0.651704 0.000000
0.578917 0.649581 0.000000
0.628834 0.647463 0.000000
0.678588 0.645352 0.000000
0.728147 0.643249 0.000000
0.777476 0.641156 0.000000
0.826542 0.639074 0.000000
0.875311 0.637005 0.000000
0.923749 0.634949 0.000000
0.971824 0.632910 0.000000
1.000000 0.630887 0.000000
1.000000 0.628882 0.000000
1.000000 0.628209 0.000000
1.000000 0.628209 0.000000
1.000000 0.628209 0.000000
1.000000 0.628209 0.000000
1.000000 0.628209 0.000000
1.000000 0.628209 0.000000
0.000000 0.718788 0.000000
0.000000 0.718788 0.000000
0.000000 0.718730 0.000000
0.000000 0.716629 0.000000
0.000000 0.714521 0.000000
0.027887 0.712406 0.000000
0.076698 0.710284 0.000000
0.125668 0.708154 0.000000
0.174779 0.706019 0.000000
0.224005 0.703878 0.000000
0.273327 0.701733 0.000000
0.323531 0.699603 0.000000
0.373768 0.697472 0.000000
0.424005 0.695340 0.000000
0.474211 0.693210 0.000000
0.524354 0.691082 0.000000
0.574400 0.688959 0.000000
0.624317 0.686841 0.000000
0.674071 0.684730 0.000000
0.723630 0.682627 0.000000
0.772959 0.680534 0.000000
0.822025 0.678452 0.000000
0.870794 0.676383 0.000000
0.919233 0.674328 0.000000
0.967307 0.672288 0.000000
1.000000 0.670265 0.000000
1.000000 0.668260 0.000000
1.000000 0.667680 0.000000
1.000000 0.667680 0.000000
1.000000 0.667680 0.000000
1.000000 0.667680 0.000000
1.000000 0.667680 0.000000
1.000000 0.667680 0.000000
0.000000 0.758012 0.000000
0.000000 0.758012 0.000000
0.000000 0.757954 0.000000
0.000000 0.755853 0.000000
0.000000 0.753745 0.000000
0.020927 0.751630 0.000000
0.069738 0.749507 0.000000
0.118709 0.747378 0.000000
0.168627 0.745259 0.000000
0.218679 0.743135 0.000000
0.268822 0.741008 0.000000
0.319027 0.738877 0.000000
0.369263 0.736746 0.000000
0.419500 0.734614 0.000000
0.469706 0.732484 0.000000
0.519849 0.730357 0.000000
0.569895 0.728233 0.000000
0.619812 0.726115 0.000000
0.669566 0.724004 0.000000
0.719125 0.721901 0.000000
0.768454 0.719808 0.000000
0.817520 0.717726 0.000000
0.866289 0.715657 0.000000
0.914728 0.713602 0.000000
0.962802 0.711562 0.000000
1.000000 0.709539 0.000000
1.000000 0.707535 0.000000
1.000000 0.707046 0.000000
1.000000 0.707046 0.000000
1.000000 0.707046 0.000000
1.000000 0.707046 0.000000
1.000000 0.707046 0.000000
1.000000 0.707046 0.000000
0.000000 0.797109 0.000000
0.000000 0.797109 0.000000
0.000000 0.797051 0.000000
0.000000 0.794950 0.000000
0.000000 0.792843 0.000000
0.014782 0.790744 0.000000
0.064411 0.788638 0.000000
0.114203 0.786525 0.000000
0.164137 0.784407 0.000000
0.214189 0.782283 0.000000
0.264332 0.780155 0.000000
0.314536 0.778025 0.000000
0.364773 0.775894 0.000000
0.415010 0.773762 0.000000
0.465216 0.771632 0.000000
0.515358 0.769504 0.000000
0.565405 0.767381 0.000000
0.615322 0.765263 0.000000
0.665076 0.763152 0.000000
0.714635 0.761049 0.000000
0.763964 0.758956 0.000000
0.813030 0.756874 0.000000
0.861799 0.754805 0.000000
0.910237 0.752750 0.000000
0.958312 0.750710 0.000000
1.000000 0.748687 0.000000
1.000000 0.746682 0.000000
1.000000 0.746286 0.000000
1.000000 0.746286 0.000000
1.000000 0.746286 0.000000
1.000000 0.746286 0.000000
1.000000 0.746286 0.000000
1.000000 0.746286 0.000000
0.000000 0.836074 0.000000
0.000000 0.836074 0.000000
0.000000 0.836017 0.000000
0.000000 0.833932 0.000000
0.000000 0.831841 0.000000
0.010308 0.829743 0.000000
0.059938 0.827637 0.000000
0.109730 0.825525 0.000000
0.159664 0.823406 0.000000
0.209716 0.821282 0.000000
0.259858 0.819155 0.000000
0.310063 0.817024 0.000000
0.360299 0.814893 0.000000
0.410537 0.812761 0.000000
0.460743 0.810631 0.000000
0.510885 0.808504 0.000000
0.560931 0.806380 0.000000
0.610848 0.804262 0.000000
0.660603 0.802151 0.000000
0.710161 0.800048 0.000000
0.759490 0.797955 0.000000
0.808556 0.795873 0.000000
0.857325 0.793804 0.000000
0.905764 0.791749 0.000000
0.953838 0.789709 0.000000
1.000000 0.787686 0.000000
1.000000 0.785682 0.000000
1.000000 0.785377 0.000000
1.000000 0.785377 0.000000
1.000000 0.785377 0.000000
1.000000 0.785377 0.000000
1.000000 0.785377 0.000000
1.000000 0.785377 0.000000
0.000000 0.874903 0.000000
0.000000 0.874903 0.000000
0.000000 0.874845 0.000000
0.000000 0.872761 0.000000
0.000000 0.870670 0.000000
0.005855 0.868571 0.000000
0.055484 0.866466 0.000000
0.105276 0.864353 0.000000
0.155210 0.862234 0.000000
0.205262 0.860111 0.000000
0.255405 0.857983 0.000000
0.305609 0.855853 0.000000
0.355846 0.853721 0.000000
0.406083 0.851590 0.000000
0.456289 0.849459 0.000000
0.506431 0.847332 0.000000
0.556478 0.845208 0.000000
0.606395 0.843091 0.000000
0.656149 0.840979 0.000000
0.705708 0.838877 0.000000
0.755037 0.836784 0.000000
0.804103 0.834702 0.000000
0.852872 0.832633 0.000000
0.901310 0.830577 0.000000
0.949385 0.828538 0.000000
0.997061 0.826515 0.000000
1.000000 0.824510 0.000000
1.000000 0.824297 0.000000
1.000000 0.824297 0.000000
1.000000 0.824297 0.000000
1.000000 0.824297 0.000000
1.000000 0.824297 0.000000
1.000000 0.824297 0.000000
0.000000 0.913538 0.000000
0.000000 0.913538 0.000000
0.000000 0.913480 0.000000
0.000000 0.911396 0.000000
0.000000 0.909305 0.000000
0.001423 0.907207 0.000000
0.051053 0.905101 0.000000
0.100845 0.902988 0.000000
0.150779 0.900869 0.000000
0.200830 0.898746 0.000000
0.250973 0.896618 0.000000
0.301178 0.894488 0.000000
0.351414 0.892356 0.000000
0.401651 0.890225 0.000000
0.451857 0.888095 0.000000
0.502000 0.885967 0.000000
0.552046 0.883844 0.000000
0.601963 0.881726 0.000000
0.651718 0.879615 0.000000
0.701276 0.877512 0.000000
0.750605 0.875419 0.000000
0.799671 0.873337 0.000000
0.848440 0.871268 0.000000
0.896879 0.869212 0.000000
0.944953 0.867173 0.000000
0.992629 0.865150 0.000000
1.000000 0.863145 0.000000
