assets/preview/luts/golden_hour_punch.cube
TITLE "Golden Hour Punch"
LUT_3D_SIZE 9
DOMAIN_MIN 0.0 0.0 0.0
DOMAIN_MAX 1.0 1.0 1.0
0.008796 0.000000 0.011921
0.106930 0.000000 0.007172
0.302490 0.000000 0.000000
0.499846 0.000000 0.000000
0.697198 0.000000 0.000000
0.892511 0.000000 0.000000
1.000000 0.000000 0.000000
1.000000 0.000000 0.000000
1.000000 0.000000 0.000000
0.000000 0.054231 0.001950
0.097163 0.049964 0.000000
0.292694 0.041461 0.000000
0.490021 0.032880 0.000000
0.687345 0.024299 0.000000
0.882630 0.015807 0.000000
1.000000 0.007495 0.000000
1.000000 0.002557 0.000000
1.000000 0.002557 0.000000
0.000000 0.207517 0.000000
0.069964 0.203250 0.000000
0.265496 0.194747 0.000000
0.462823 0.186166 0.000000
0.660147 0.177586 0.000000
0.855431 0.169093 0.000000
1.000000 0.160781 0.000000
1.000000 0.155769 0.000000
1.000000 0.155769 0.000000
0.000000 0.363767 0.000000
0.042240 0.359500 0.000000
0.237772 0.350997 0.000000
0.435099 0.342416 0.000000
0.632423 0.333835 0.000000
0.827707 0.325343 0.000000
1.000000 0.317031 0.000000
1.000000 0.311943 0.000000
1.000000 0.311943 0.000000
0.000000 0.521556 0.000000
0.014243 0.517289 0.000000
0.209775 0.508786 0.000000
0.407102 0.500205 0.000000
0.604425 0.491624 0.000000
0.799710 0.483132 0.000000
0.990853 0.474820 0.000000
1.000000 0.469728 0.000000
1.000000 0.469728 0.000000
0.000000 0.679461 0.000000
0.000000 0.675194 0.000000
0.181757 0.666691 0.000000
0.379084 0.658110 0.000000
0.578917 0.649581 0.000000
0.777476 0.641156 0.000000
0.971824 0.632910 0.000000
1.000000 0.628209 0.000000
1.000000 0.628209 0.000000
0.000000 0.836074 0.000000
0.000000 0.831841 0.000000
0.159664 0.823406 0.000000
0.360299 0.814893 0.000000
0.560931 0.806380 0.000000
0.759490 0.797955 0.000000
0.953838 0.789709 0.000000
1.000000 0.785377 0.000000
1.000000 0.785377 0.000000
0.000000 0.990140 0.000000
0.000000 0.985907 0.000000
0.141992 0.977471 0.000000
0.342628 0.968958 0.000000
0.543260 0.960446 0.000000
0.741819 0.952021 0.000000
0.936167 0.943775 0.000000
1.000000 0.939805 0.000000
1.000000 0.939805 0.000000
0.000000 1.000000 0.000000
0.000000 1.000000 0.000000
0.132978 1.000000 0.000000
0.333683 1.000000 0.000000
0.534385 1.000000 0.000000
0.733013 1.000000 0.000000
0.927429 1.000000 0.000000
1.000000 1.000000 0.000000
1.000000 1.000000 0.000000
0.007783 0.000000 0.076803
0.105918 0.000000 0.072054
0.301477 0.000000 0.062590
0.498833 0.000000 0.053038
0.696185 0.000000 0.043487
0.891498 0.000000 0.034035
1.000000 0.000000 0.024783
1.000000 0.000000 0.019287
1.000000 0.000000 0.019287
0.000000 0.053302 0.066830
0.096147 0.049035 0.062066
0.291678 0.040532 0.052573
0.489005 0.031951 0.042994
0.686329 0.023370 0.033414
0.881614 0.014878 0.023933
1.000000 0.006566 0.014654
1.000000 0.001625 0.009113
1.000000 0.001625 0.009113
0.000000 0.206588 0.039052
0.068949 0.202321 0.034289
0.264480 0.193818 0.024796
0.461807 0.185237 0.015216
0.659131 0.176656 0.005637
0.854415 0.168164 0.000000
1.000000 0.159852 0.000000
1.000000 0.154837 0.000000
1.000000 0.154837 0.000000
0.000000 0.362837 0.010738
0.041225 0.358570 0.005974
0.236756 0.350068 0.000000
0.434083 0.341487 0.000000
0.631407 0.332906 0.000000
0.826691 0.324414 0.000000
1.000000 0.316101 0.000000
1.000000 0.311011 0.000000
1.000000 0.311011 0.000000
0.000000 0.520626 0.000000
0.013227 0.516359 0.000000
0.208759 0.507856 0.000000
0.406086 0.499275 0.000000
0.603410 0.490695 0.000000
0.798694 0.482202 0.000000
0.989838 0.473890 0.000000
1.000000 0.468820 0.000000
1.000000 0.468820 0.000000
0.000000 0.678531 0.000000
0.000000 0.674264 0.000000
0.180741 0.665762 0.000000
0.378068 0.657181 0.000000
0.578259 0.648659 0.000000
0.776818 0.640234 0.000000
0.971166 0.631988 0.000000
1.000000 0.627300 0.000000
1.000000 0.627300 0.000000
0.000000 0.835152 0.000000
0.000000 0.830919 0.000000
0.159006 0.822484 0.000000
0.359642 0.813971 0.000000
0.560274 0.805458 0.000000
0.758833 0.797033 0.000000
0.953181 0.788787 0.000000
1.000000 0.784469 0.000000
1.000000 0.784469 0.000000
0.000000 0.989218 0.000000
0.000000 0.984985 0.000000
0.141335 0.976549 0.000000
0.341970 0.968036 0.000000
0.542602 0.959524 0.000000
0.741161 0.951099 0.000000
0.935509 0.942853 0.000000
1.000000 0.938897 0.000000
1.000000 0.938897 0.000000
0.000000 1.000000 0.000000
0.000000 1.000000 0.000000
0.132328 1.000000 0.000000
0.333033 1.000000 0.000000
0.533735 1.000000 0.000000
0.732363 1.000000 0.000000
0.926779 1.000000 0.000000
1.000000 1.000000 0.000000
1.000000 1.000000 0.000000
0.005405 0.000000 0.229175
0.103539 0.000000 0.224425
0.299099 0.000000 0.214961
0.496455 0.000000 0.205410
0.693807 0.000000 0.195859
0.889120 0.000000 0.186406
1.000000 0.000000 0.177155
1.000000 0.000000 0.171652
1.000000 0.000000 0.171652
0.000000 0.051119 0.219194
0.093761 0.046852 0.214430
0.289293 0.038349 0.204938
0.486620 0.029768 0.195358
0.683943 0.021188 0.185778
0.879228 0.012695 0.176298
1.000000 0.004383 0.167018
1.000000 0.000000 0.161470
1.000000 0.000000 0.161470
0.000000 0.204406 0.191416
0.066563 0.200139 0.186653
0.262095 0.191636 0.177160
0.459422 0.183055 0.167580
0.656745 0.174474 0.158001
0.852030 0.165982 0.148520
1.000000 0.157670 0.139241
1.000000 0.152648 0.133619
1.000000 0.152648 0.133619
0.000000 0.360655 0.163102
0.038839 0.356388 0.158338
0.234371 0.347885 0.148846
0.431698 0.339304 0.139266
0.629021 0.330723 0.129686
0.824306 0.322231 0.120206
1.000000 0.313919 0.110926
1.000000 0.308822 0.105229
1.000000 0.308822 0.105229
0.000000 0.518444 0.134508
0.010842 0.514177 0.129745
0.206373 0.505674 0.120252
0.403700 0.497093 0.110673
0.601024 0.488512 0.101093
0.796309 0.480020 0.091612
0.987757 0.471714 0.082499
1.000000 0.466686 0.077911
1.000000 0.466686 0.077911
0.000000 0.676349 0.105894
0.000000 0.672082 0.101130
0.178356 0.663579 0.091638
0.376083 0.655006 0.082276
0.576715 0.646494 0.074495
0.775274 0.638069 0.066795
0.969622 0.629823 0.059259
1.000000 0.625167 0.055043
1.000000 0.625167 0.055043
0.000000 0.832987 0.078587
0.000000 0.828754 0.074718
0.157462 0.820319 0.067009
0.358098 0.811806 0.059228
0.558730 0.803293 0.051448
0.757289 0.794868 0.043748
0.951637 0.786622 0.036211
1.000000 0.782335 0.032364
1.000000 0.782335 0.032364
0.000000 0.987053 0.055941
0.000000 0.982820 0.052072
0.139790 0.974384 0.044363
0.340426 0.965871 0.036582
0.541058 0.957359 0.028802
0.739617 0.948934 0.021102
0.933965 0.940688 0.013565
1.000000 0.936763 0.010081
1.000000 0.936763 0.010081
0.000000 1.000000 0.044189
0.000000 1.000000 0.040355
0.130801 1.000000 0.032714
0.331507 1.000000 0.025004
0.532208 1.000000 0.017293
0.730837 1.000000 0.009662
0.925252 1.000000 0.002193
1.000000 1.000000 0.000000
1.000000 1.000000 0.000000
0.002911 0.000000 0.388971
0.101045 0.000000 0.384222
0.296605 0.000000 0.374758
0.493960 0.000000 0.365206
0.691313 0.000000 0.355655
0.886626 0.000000 0.346203
1.000000 0.000000 0.336951
1.000000 0.000000 0.331442
1.000000 0.000000 0.331442
0.000000 0.048830 0.378983
0.091259 0.044564 0.374219
0.286791 0.036061 0.364727
0.484118 0.027480 0.355147
0.681442 0.018899 0.345567
0.876726 0.010407 0.336087
1.000000 0.002095 0.326807
1.000000 0.000000 0.321253
1.000000 0.000000 0.321253
0.000000 0.202117 0.351205
0.064061 0.197850 0.346442
0.259593 0.189347 0.336949
0.456920 0.180766 0.327369
0.654243 0.172185 0.317790
0.849528 0.163693 0.308309
1.000000 0.155381 0.299030
1.000000 0.150353 0.293401
1.000000 0.150353 0.293401
0.000000 0.358366 0.322891
0.036337 0.354099 0.318127
0.231869 0.345596 0.308635
0.429196 0.337015 0.299055
0.626519 0.328435 0.289475
0.821804 0.319942 0.279995
1.000000 0.311630 0.270715
1.000000 0.306527 0.265012
1.000000 0.306527 0.265012
0.000000 0.516155 0.294297
0.008340 0.511888 0.289534
0.203872 0.503385 0.280041
0.401199 0.494804 0.270462
0.598522 0.486224 0.260882
0.793807 0.477731 0.251401
0.986138 0.469444 0.242768
1.000000 0.464449 0.238213
1.000000 0.464449 0.238213
0.000000 0.674060 0.265683
0.000000 0.669793 0.260919
0.175854 0.661290 0.251427
0.374464 0.652736 0.242545
0.575096 0.644223 0.234764
0.773655 0.635798 0.227064
0.968003 0.627552 0.219528
1.000000 0.622929 0.215345
1.000000 0.622929 0.215345
0.000000 0.830717 0.238856
0.000000 0.826484 0.234987
0.155843 0.818048 0.227277
0.356478 0.809535 0.219497
0.557110 0.801023 0.211717
0.755669 0.792598 0.204017
0.950017 0.784352 0.196480
1.000000 0.780098 0.192666
1.000000 0.780098 0.192666
0.000000 0.984782 0.216210
0.000000 0.980549 0.212341
0.138171 0.972114 0.204632
0.338807 0.963601 0.196851
0.539439 0.955088 0.189071
0.737998 0.946663 0.181371
0.932346 0.938417 0.173834
1.000000 0.934526 0.170383
1.000000 0.934526 0.170383
0.000000 1.000000 0.204477
0.000000 1.000000 0.200642
0.129200 1.000000 0.193002
0.329906 1.000000 0.185291
0.530608 1.000000 0.177581
0.729236 1.000000 0.169950
0.923652 1.000000 0.162481
1.000000 1.000000 0.159266
1.000000 1.000000 0.159266
0.000339 0.000000 0.553756
0.098473 0.000000 0.549006
0.294033 0.000000 0.539542
0.491388 0.000000 0.529991
0.688740 0.000000 0.520440
0.884053 0.000000 0.510988
1.000000 0.000000 0.501736
1.000000 0.000000 0.496219
1.000000 0.000000 0.496219
0.000000 0.046470 0.543759
0.088680 0.042203 0.538996
0.284211 0.033701 0.529503
0.481538 0.025120 0.519923
0.678862 0.016539 0.510344
0.874146 0.008047 0.500863
1.000000 0.000000 0.491584
1.000000 0.000000 0.486022
1.000000 0.000000 0.486022
0.000000 0.199757 0.515982
0.061481 0.195490 0.511218
0.257013 0.186987 0.501726
0.454340 0.178406 0.492146
0.651663 0.169825 0.482566
0.846948 0.161333 0.473086
1.000000 0.153021 0.463806
1.000000 0.147986 0.458171
1.000000 0.147986 0.458171
0.000000 0.356006 0.487667
0.033757 0.351739 0.482904
0.229289 0.343236 0.473411
0.426616 0.334655 0.463832
0.623939 0.326074 0.454252
0.819224 0.317582 0.444771
1.000000 0.309270 0.435492
1.000000 0.304160 0.429781
1.000000 0.304160 0.429781
0.000000 0.513795 0.459074
0.005760 0.509528 0.454311
0.201292 0.501025 0.444818
0.398619 0.492444 0.435238
0.595942 0.483863 0.425659
0.791227 0.475371 0.416178
0.984468 0.467102 0.408039
1.000000 0.462142 0.403519
1.000000 0.462142 0.403519
0.000000 0.671700 0.430460
0.000000 0.667433 0.425696
0.173274 0.658930 0.416204
0.372794 0.650394 0.407816
0.573426 0.641882 0.400036
0.771985 0.633457 0.392336
0.966333 0.625211 0.384799
1.000000 0.620622 0.380651
1.000000 0.620622 0.380651
0.000000 0.828375 0.404128
0.000000 0.824142 0.400259
0.154173 0.815707 0.392549
0.354808 0.807194 0.384768
0.555440 0.798681 0.376988
0.753999 0.790256 0.369288
0.948347 0.782010 0.361751
1.000000 0.777791 0.357972
1.000000 0.777791 0.357972
0.000000 0.982441 0.381482
0.000000 0.978208 0.377613
0.136501 0.969772 0.369903
0.337137 0.961259 0.362123
0.537769 0.952747 0.354342
0.736328 0.944322 0.346642
0.930676 0.936076 0.339106
1.000000 0.932219 0.335689
1.000000 0.932219 0.335689
0.000000 1.000000 0.369767
0.000000 1.000000 0.365933
0.127550 1.000000 0.358293
0.328255 1.000000 0.350582
0.528957 1.000000 0.342872
0.727585 1.000000 0.335241
0.922001 1.000000 0.327772
1.000000 1.000000 0.324591
1.000000 1.000000 0.324591
0.000000 0.000000 0.721639
0.095853 0.000000 0.716890
0.291412 0.000000 0.707426
0.488768 0.000000 0.697875
0.686120 0.000000 0.688324
0.881433 0.000000 0.678871
1.000000 0.000000 0.669619
1.000000 0.000000 0.664096
1.000000 0.000000 0.664096
0.000000 0.044066 0.711635
0.086051 0.039799 0.706871
0.281583 0.031296 0.697379
0.478910 0.022715 0.687799
0.676233 0.014134 0.678219
0.871518 0.005642 0.668739
1.000000 0.000000 0.659459
1.000000 0.000000 0.653891
1.000000 0.000000 0.653891
0.000000 0.197352 0.683857
0.058853 0.193085 0.679094
0.254384 0.184582 0.669601
0.451711 0.176001 0.660022
0.649035 0.167421 0.650442
0.844320 0.158928 0.640961
1.000000 0.150616 0.631682
1.000000 0.145574 0.626039
1.000000 0.145574 0.626039
0.000000 0.353601 0.655543
0.031129 0.349335 0.650780
0.226660 0.340832 0.641287
0.423987 0.332251 0.631707
0.621311 0.323670 0.622128
0.816596 0.315178 0.612647
1.000000 0.306866 0.603367
1.000000 0.301748 0.597650
1.000000 0.301748 0.597650
0.000000 0.511390 0.626950
0.003132 0.507124 0.622186
0.198663 0.498621 0.612694
0.395990 0.490040 0.603114
0.593314 0.481459 0.593534
0.788599 0.472967 0.584054
0.982767 0.464717 0.576419
1.000000 0.459791 0.571934
1.000000 0.459791 0.571934
0.000000 0.669296 0.598335
0.000000 0.665029 0.593572
0.170645 0.656526 0.584079
0.371092 0.648009 0.576196
0.571724 0.639496 0.568416
0.770283 0.631071 0.560716
0.964631 0.622825 0.553179
1.000000 0.618272 0.549066
1.000000 0.618272 0.549066
0.000000 0.825990 0.572507
0.000000 0.821757 0.568638
0.152471 0.813321 0.560929
0.353107 0.804808 0.553148
0.553739 0.796296 0.545368
0.752298 0.787871 0.537668
0.946646 0.779625 0.530131
1.000000 0.775440 0.526387
1.000000 0.775440 0.526387
0.000000 0.980055 0.549861
0.000000 0.975822 0.545993
0.134800 0.967387 0.538283
0.335435 0.958874 0.530502
0.536067 0.950361 0.522722
0.734626 0.941936 0.515022
0.928974 0.933690 0.507485
1.000000 0.929868 0.504103
1.000000 0.929868 0.504103
0.000000 1.000000 0.538167
0.000000 1.000000 0.534333
0.125868 1.000000 0.526692
0.326573 1.000000 0.518981
0.527275 1.000000 0.511271
0.725903 1.000000 0.503640
0.920319 1.000000 0.496171
1.000000 1.000000 0.493025
1.000000 1.000000 0.493025
0.000000 0.000000 0.890911
0.093210 0.000000 0.886162
0.288770 0.000000 0.876697
0.486126 0.000000 0.867146
0.683478 0.000000 0.857595
0.878791 0.000000 0.848143
1.000000 0.000000 0.838891
1.000000 0.000000 0.833360
1.000000 0.000000 0.833360
0.000000 0.041641 0.880898
0.083401 0.037374 0.876135
0.278932 0.028872 0.866642
0.476260 0.020291 0.857063
0.673583 0.011710 0.847483
0.868868 0.003218 0.838002
1.000000 0.000000 0.828723
1.000000 0.000000 0.823147
1.000000 0.000000 0.823147
0.000000 0.194928 0.853121
0.056203 0.190661 0.848357
0.251734 0.182158 0.838865
0.449061 0.173577 0.829285
0.646385 0.164996 0.819706
0.841669 0.156504 0.810225
1.000000 0.148192 0.800945
1.000000 0.143142 0.795296
1.000000 0.143142 0.795296
0.000000 0.351177 0.824807
0.028479 0.346910 0.820043
0.224010 0.338407 0.810550
0.421337 0.329826 0.800971
0.618661 0.321245 0.791391
0.813946 0.312753 0.781911
1.000000 0.304441 0.772631
1.000000 0.299316 0.766906
1.000000 0.299316 0.766906
0.000000 0.508966 0.796213
0.000482 0.504699 0.791450
0.196013 0.496196 0.781957
0.393340 0.487615 0.772377
0.590664 0.479034 0.762798
0.786703 0.470558 0.753728
0.981051 0.462312 0.746191
1.000000 0.457421 0.741741
1.000000 0.457421 0.741741
0.000000 0.666871 0.767599
0.000000 0.662604 0.762835
0.168741 0.654117 0.753748
0.369377 0.645604 0.745968
0.570009 0.637091 0.738188
0.768568 0.628666 0.730488
0.962916 0.620420 0.722951
1.000000 0.615902 0.718873
1.000000 0.615902 0.718873
0.000000 0.823585 0.742279
0.000000 0.819352 0.738410
0.150756 0.810916 0.730701
0.351392 0.802403 0.722920
0.552024 0.793890 0.715140
0.750583 0.785466 0.707440
0.944931 0.777219 0.699903
1.000000 0.773070 0.696194
1.000000 0.773070 0.696194
0.000000 0.977650 0.719633
0.000000 0.973417 0.715764
0.133084 0.964982 0.708055
0.333720 0.956469 0.700274
0.534352 0.947956 0.692494
0.732911 0.939531 0.684794
0.927259 0.931285 0.677257
1.000000 0.927498 0.673911
1.000000 0.927498 0.673911
0.000000 1.000000 0.707958
0.000000 1.000000 0.704124
0.124172 1.000000 0.696484
0.324878 1.000000 0.688773
0.525580 1.000000 0.681062
0.724208 1.000000 0.673432
0.918623 1.000000 0.665963
1.000000 1.000000 0.662852
1.000000 1.000000 0.662852
0.000000 0.000000 1.000000
0.090572 0.000000 1.000000
0.286132 0.000000 1.000000
0.483488 0.000000 1.000000
0.680840 0.000000 1.000000
0.876153 0.000000 1.000000
1.000000 0.000000 1.000000
1.000000 0.000000 1.000000
1.000000 0.000000 1.000000
0.000000 0.039221 1.000000
0.080755 0.034954 1.000000
0.276286 0.026451 1.000000
0.473613 0.017870 1.000000
0.670937 0.009289 1.000000
0.866222 0.000797 1.000000
1.000000 0.000000 0.997727
1.000000 0.000000 0.992144
1.000000 0.000000 0.992144
0.000000 0.192507 1.000000
0.053557 0.188240 1.000000
0.249088 0.179737 1.000000
0.446415 0.171156 0.998289
0.643739 0.162575 0.988710
0.839023 0.154083 0.979229
1.000000 0.145771 0.969950
1.000000 0.140714 0.964293
1.000000 0.140714 0.964293
0.000000 0.348756 0.993811
0.025833 0.344489 0.989047
0.221364 0.335987 0.979555
0.418691 0.327406 0.969975
0.616015 0.318825 0.960395
0.811299 0.310333 0.950915
1.000000 0.302021 0.941635
1.000000 0.296888 0.935903
1.000000 0.296888 0.935903
0.000000 0.506545 0.965217
0.000000 0.502278 0.960454
0.193367 0.493776 0.950961
0.390694 0.485195 0.941382
0.588017 0.476614 0.931802
0.784990 0.468156 0.923240
0.979339 0.459910 0.915703
1.000000 0.455055 0.911288
1.000000 0.455055 0.911288
0.000000 0.664450 0.936603
0.000000 0.660184 0.931840
0.167029 0.651715 0.923260
0.367664 0.643202 0.915480
0.568296 0.634689 0.907699
0.766855 0.626265 0.899999
0.961203 0.618018 0.892463
1.000000 0.613535 0.888420
1.000000 0.613535 0.888420
0.000000 0.821183 0.911791
0.000000 0.816950 0.907922
0.149043 0.808515 0.900213
0.349679 0.800002 0.892432
0.550311 0.791489 0.884652
0.748870 0.783064 0.876952
0.943218 0.774818 0.869415
1.000000 0.770704 0.865741
1.000000 0.770704 0.865741
0.000000 0.975249 0.889145
0.000000 0.971016 0.885276
0.131372 0.962580 0.877567
0.332007 0.954067 0.869786
0.532639 0.945554 0.862006
0.731198 0.937130 0.854306
0.925546 0.928883 0.846769
1.000000 0.925132 0.843458
1.000000 0.925132 0.843458
0.000000 1.000000 0.877490
0.000000 1.000000 0.873656
0.122479 1.000000 0.866015
0.323185 1.000000 0.858305
0.523886 1.000000 0.850594
0.722515 1.000000 0.842963
0.916930 1.000000 0.835494
1.000000 1.000000 0.832418
1.000000 1.000000 0.832418
0.000000 0.000000 1.000000
0.087964 0.000000 1.000000
0.283524 0.000000 1.000000
0.480879 0.000000 1.000000
0.678231 0.000000 1.000000
0.873544 0.000000 1.000000
1.000000 0.000000 1.000000
1.000000 0.000000 1.000000
1.000000 0.000000 1.000000
0.000000 0.036827 1.000000
0.078138 0.032560 1.000000
0.273670 0.024057 1.000000
0.470997 0.015476 1.000000
0.668320 0.006895 1.000000
0.863605 0.000000 1.000000
1.000000 0.000000 1.000000
1.000000 0.000000 1.000000
1.000000 0.000000 1.000000
0.000000 0.190113 1.000000
0.050940 0.185846 1.000000
0.246471 0.177344 1.000000
0.443799 0.168763 1.000000
0.641122 0.160182 1.000000
0.836407 0.151690 1.000000
1.000000 0.143378 1.000000
1.000000 0.138314 1.000000
1.000000 0.138314 1.000000
0.000000 0.346363 1.000000
0.023216 0.342096 1.000000
0.218747 0.333593 1.000000
0.416075 0.325012 1.000000
0.613398 0.316431 1.000000
0.808683 0.307939 1.000000
0.999826 0.299627 1.000000
1.000000 0.294488 1.000000
1.000000 0.294488 1.000000
0.000000 0.504152 1.000000
0.000000 0.499885 1.000000
0.190750 0.491382 1.000000
0.388077 0.482801 1.000000
0.585401 0.474220 1.000000
0.783297 0.465782 1.000000
0.977645 0.457535 1.000000
1.000000 0.452715 1.000000
1.000000 0.452715 1.000000
0.000000 0.662057 1.000000
0.000000 0.657790 1.000000
0.165335 0.649341 1.000000
0.365970 0.640828 1.000000
0.566602 0.632315 1.000000
0.765161 0.623890 1.000000
0.959509 0.615644 1.000000
1.000000 0.611195 1.000000
1.000000 0.611195 1.000000
0.000000 0.818809 1.000000
0.000000 0.814575 1.000000
0.147350 0.806140 1.000000
0.347985 0.797627 1.000000
0.548617 0.789114 1.000000
0.747176 0.780689 1.000000
0.941524 0.772443 1.000000
1.000000 0.768364 1.000000
1.000000 0.768364 1.000000
0.000000 0.972874 1.000000
0.000000 0.968641 1.000000
0.129678 0.960205 1.000000
0.330314 0.951692 1.000000
0.530945 0.943180 1.000000
0.729505 0.934755 1.000000
0.923853 0.926509 1.000000
1.000000 0.922792 1.000000
1.000000 0.922792 1.000000
0.000000 1.000000 1.000000
0.000000 1.000000 1.000000
0.120805 1.000000 1.000000
0.321511 1.000000 1.000000
0.522212 1.000000 1.000000
0.720840 1.000000 1.000000
0.915256 1.000000 1.000000
1.000000 1.000000 1.000000
1.000000 1.000000 1.000000
