assets/preview/luts/golden_hour_punch.cube
TITLE "Golden Hour Punch"
LUT_3D_SIZE 5
DOMAIN_MIN 0.0 0.0 0.0
DOMAIN_MAX 1.0 1.0 1.0
0.008796 0.000000 0.011921
0.302490 0.000000 0.000000
0.697198 0.000000 0.000000
1.000000 0.000000 0.000000
1.000000 0.000000 0.000000
0.000000 0.207517 0.000000
0.265496 0.194747 0.000000
0.660147 0.177586 0.000000
1.000000 0.160781 0.000000
1.000000 0.155769 0.000000
0.000000 0.521556 0.000000
0.209775 0.508786 0.000000
0.604425 0.491624 0.000000
0.990853 0.474820 0.000000
1.000000 0.469728 0.000000
0.000000 0.836074 0.000000
0.159664 0.823406 0.000000
0.560931 0.806380 0.000000
0.953838 0.789709 0.000000
1.000000 0.785377 0.000000
0.000000 1.000000 0.000000
0.132978 1.000000 0.000000
0.534385 1.000000 0.000000
0.927429 1.000000 0.000000
1.000000 1.000000 0.000000
0.005405 0.000000 0.229175
0.299099 0.000000 0.214961
0.693807 0.000000 0.195859
1.000000 0.000000 0.177155
1.000000 0.000000 0.171652
0.000000 0.204406 0.191416
0.262095 0.191636 0.177160
0.656745 0.174474 0.158001
1.000000 0.157670 0.139241
1.000000 0.152648 0.133619
0.000000 0.518444 0.134508
0.206373 0.505674 0.120252
0.601024 0.488512 0.101093
0.987757 0.471714 0.082499
1.000000 0.466686 0.077911
0.000000 0.832987 0.078587
0.157462 0.820319 0.067009
0.558730 0.803293 0.051448
0.951637 0.786622 0.036211
1.000000 0.782335 0.032364
0.000000 1.000000 0.044189
0.130801 1.000000 0.032714
0.532208 1.000000 0.017293
0.925252 1.000000 0.002193
1.000000 1.000000 0.000000
0.000339 0.000000 0.553756
0.294033 0.000000 0.539542
0.688740 0.000000 0.520440
1.000000 0.000000 0.501736
1.000000 0.000000 0.496219
0.000000 0.199757 0.515982
0.257013 0.186987 0.501726
0.651663 0.169825 0.482566
1.000000 0.153021 0.463806
1.000000 0.147986 0.458171
0.000000 0.513795 0.459074
0.201292 0.501025 0.444818
0.595942 0.483863 0.425659
0.984468 0.467102 0.408039
1.000000 0.462142 0.403519
0.000000 0.828375 0.404128
0.154173 0.815707 0.392549
0.555440 0.798681 0.376988
0.948347 0.782010 0.361751
1.000000 0.777791 0.357972
0.000000 1.000000 0.369767
0.127550 1.000000 0.358293
0.528957 1.000000 0.342872
0.922001 1.000000 0.327772
1.000000 1.000000 0.324591
0.000000 0.000000 0.890911
0.288770 0.000000 0.876697
0.683478 0.000000 0.857595
1.000000 0.000000 0.838891
1.000000 0.000000 0.833360
0.000000 0.194928 0.853121
0.251734 0.182158 0.838865
0.646385 0.164996 0.819706
1.000000 0.148192 0.800945
1.000000 0.143142 0.795296
0.000000 0.508966 0.796213
0.196013 0.496196 0.781957
0.590664 0.479034 0.762798
0.981051 0.462312 0.746191
1.000000 0.457421 0.741741
0.000000 0.823585 0.742279
0.150756 0.810916 0.730701
0.552024 0.793890 0.715140
0.944931 0.777219 0.699903
1.000000 0.773070 0.696194
0.000000 1.000000 0.707958
0.124172 1.000000 0.696484
0.525580 1.000000 0.681062
0.918623 1.000000 0.665963
1.000000 1.000000 0.662852
0.000000 0.000000 1.000000
0.283524 0.000000 1.000000
0.678231 0.000000 1.000000
1.000000 0.000000 1.000000
1.000000 0.000000 1.000000
0.000000 0.190113 1.000000
0.246471 0.177344 1.000000
0.641122 0.160182 1.000000
1.000000 0.143378 1.000000
1.000000 0.138314 1.000000
0.000000 0.504152 1.000000
0.190750 0.491382 1.000000
0.585401 0.474220 1.000000
0.977645 0.457535 1.000000
1.000000 0.452715 1.000000
0.000000 0.818809 1.000000
0.147350 0.806140 1.000000
0.548617 0.789114 1.000000
0.941524 0.772443 1.000000
1.000000 0.768364 1.000000
0.000000 1.000000 1.000000
0.120805 1.000000 1.000000
0.522212 1.000000 1.000000
0.915256 1.000000 1.000000
1.000000 1.000000 1.000000
