assets/preview/luts/high_contrast.cube
TITLE "High Contrast"
LUT_3D_SIZE 5
DOMAIN_MIN 0.0 0.0 0.0
DOMAIN_MAX 1.0 1.0 1.0
0.000001 0.000001 0.000001
0.181315 0.000000 0.000000
0.570068 0.000000 0.000000
0.958821 0.000000 0.000000
1.000000 0.000000 0.000000
0.000000 0.167448 0.000000
0.164087 0.162277 0.000000
0.552841 0.151189 0.000000
0.941594 0.140101 0.000000
1.000000 0.135558 0.000000
0.000000 0.526469 0.000000
0.127150 0.521298 0.000000
0.515903 0.510210 0.000000
0.904656 0.499122 0.000000
1.000000 0.494579 0.000000
0.000000 0.885490 0.000000
0.090212 0.880319 0.000000
0.478965 0.869231 0.000000
0.867718 0.858144 0.000000
1.000000 0.853600 0.000000
0.000000 1.000000 0.000000
0.074035 1.000000 0.000000
0.462788 1.000000 0.000000
0.851542 1.000000 0.000000
1.000000 1.000000 0.000000
0.000000 0.000000 0.188853
0.179520 0.000000 0.183682
0.568273 0.000000 0.172594
0.957026 0.000000 0.161506
1.000000 0.000000 0.156963
0.000000 0.165653 0.171625
0.162292 0.160481 0.166454
0.551045 0.149394 0.155366
0.939798 0.138306 0.144278
1.000000 0.133763 0.139735
0.000000 0.524674 0.134687
0.125354 0.519503 0.129516
0.514107 0.508415 0.118428
0.902860 0.497327 0.107340
1.000000 0.492784 0.102797
0.000000 0.883695 0.097750
0.088416 0.878524 0.092578
0.477169 0.867436 0.081490
0.865923 0.856348 0.070403
1.000000 0.851805 0.065860
0.000000 1.000000 0.081573
0.072240 1.000000 0.076402
0.460993 1.000000 0.065314
0.849746 1.000000 0.054226
1.000000 1.000000 0.049683
0.000000 0.000000 0.569585
0.175900 0.000000 0.564414
0.564653 0.000000 0.553326
0.953406 0.000000 0.542238
1.000000 0.000000 0.537695
0.000000 0.162033 0.552357
0.158672 0.156862 0.547186
0.547426 0.145774 0.536098
0.936179 0.134686 0.525010
1.000000 0.130143 0.520467
0.000000 0.521054 0.515419
0.121735 0.515883 0.510248
0.510488 0.504795 0.499160
0.899241 0.493707 0.488072
1.000000 0.489164 0.483529
0.000000 0.880075 0.478481
0.084797 0.874904 0.473310
0.473550 0.863816 0.462222
0.862303 0.852729 0.451135
1.000000 0.848185 0.446592
0.000000 1.000000 0.462305
0.068620 1.000000 0.457134
0.457373 1.000000 0.446046
0.846127 1.000000 0.434958
1.000000 1.000000 0.430415
0.000000 0.000000 0.950317
0.172281 0.000000 0.945146
0.561034 0.000000 0.934058
0.949787 0.000000 0.922970
1.000000 0.000000 0.918427
0.000000 0.158414 0.933089
0.155053 0.153242 0.927918
0.543806 0.142154 0.916830
0.932559 0.131067 0.905742
1.000000 0.126524 0.901199
0.000000 0.517435 0.896151
0.118115 0.512263 0.890980
0.506868 0.501176 0.879892
0.895621 0.490088 0.868804
1.000000 0.485545 0.864261
0.000000 0.876456 0.859213
0.081177 0.871285 0.854042
0.469930 0.860197 0.842954
0.858683 0.849109 0.831867
1.000000 0.844566 0.827323
0.000000 1.000000 0.843037
0.065001 1.000000 0.837866
0.453754 1.000000 0.826778
0.842507 1.000000 0.815690
1.000000 1.000000 0.811147
0.000000 0.000000 1.000000
0.170485 0.000000 1.000000
0.559238 0.000000 1.000000
0.947991 0.000000 1.000000
1.000000 0.000000 1.000000
0.000000 0.156618 1.000000
0.153257 0.151447 1.000000
0.542011 0.140359 1.000000
0.930764 0.129271 1.000000
1.000000 0.124728 1.000000
0.000000 0.515639 1.000000
0.116320 0.510468 1.000000
0.505073 0.499380 1.000000
0.893826 0.488292 1.000000
1.000000 0.483749 1.000000
0.000000 0.874660 1.000000
0.079382 0.869489 1.000000
0.468135 0.858401 1.000000
0.856888 0.847314 1.000000
1.000000 0.842770 1.000000
0.000000 1.000000 1.000000
0.063205 1.000000 1.000000
0.451958 1.000000 1.000000
0.840712 1.000000 1.000000
1.000000 1.000000 1.000000
