assets/preview/luts/high_contrast.cube
TITLE "High Contrast"
LUT_3D_SIZE 9
DOMAIN_MIN 0.0 0.0 0.0
DOMAIN_MAX 1.0 1.0 1.0
0.000001 0.000001 0.000001
0.000001 0.000001 0.000001
0.181315 0.000000 0.000000
0.374260 0.000000 0.000000
0.570068 0.000000 0.000000
0.765876 0.000000 0.000000
0.958821 0.000000 0.000000
1.000000 0.000000 0.000000
1.000000 0.000000 0.000000
0.000001 0.000001 0.000001
0.000001 0.000001 0.000001
0.181315 0.000000 0.000000
0.374260 0.000000 0.000000
0.570068 0.000000 0.000000
0.765876 0.000000 0.000000
0.958821 0.000000 0.000000
1.000000 0.000000 0.000000
1.000000 0.000000 0.000000
0.000000 0.167448 0.000000
0.000000 0.167448 0.000000
0.164087 0.162277 0.000000
0.357033 0.156774 0.000000
0.552841 0.151189 0.000000
0.748648 0.145604 0.000000
0.941594 0.140101 0.000000
1.000000 0.135558 0.000000
1.000000 0.135558 0.000000
0.000000 0.345637 0.000000
0.000000 0.345637 0.000000
0.145754 0.340466 0.000000
0.338700 0.334963 0.000000
0.534508 0.329378 0.000000
0.730315 0.323793 0.000000
0.923261 0.318290 0.000000
1.000000 0.313747 0.000000
1.000000 0.313747 0.000000
0.000000 0.526469 0.000000
0.000000 0.526469 0.000000
0.127150 0.521298 0.000000
0.320095 0.515795 0.000000
0.515903 0.510210 0.000000
0.711711 0.504625 0.000000
0.904656 0.499122 0.000000
1.000000 0.494579 0.000000
1.000000 0.494579 0.000000
0.000000 0.707302 0.000000
0.000000 0.707302 0.000000
0.108545 0.702130 0.000000
0.301490 0.696627 0.000000
0.497298 0.691043 0.000000
0.693106 0.685458 0.000000
0.886051 0.679955 0.000000
1.000000 0.675412 0.000000
1.000000 0.675412 0.000000
0.000000 0.885490 0.000000
0.000000 0.885490 0.000000
0.090212 0.880319 0.000000
0.283157 0.874816 0.000000
0.478965 0.869231 0.000000
0.674773 0.863647 0.000000
0.867718 0.858144 0.000000
1.000000 0.853600 0.000000
1.000000 0.853600 0.000000
0.000000 1.000000 0.000000
0.000000 1.000000 0.000000
0.074035 1.000000 0.000000
0.266981 1.000000 0.000000
0.462788 1.000000 0.000000
0.658596 1.000000 0.000000
0.851542 1.000000 0.000000
1.000000 1.000000 0.000000
1.000000 1.000000 0.000000
0.000000 1.000000 0.000000
0.000000 1.000000 0.000000
0.074035 1.000000 0.000000
0.266981 1.000000 0.000000
0.462788 1.000000 0.000000
0.658596 1.000000 0.000000
0.851542 1.000000 0.000000
1.000000 1.000000 0.000000
1.000000 1.000000 0.000000
0.000000 0.000000 0.005495
0.000000 0.000000 0.005495
0.181263 0.000000 0.000324
0.374208 0.000000 0.000000
0.570016 0.000000 0.000000
0.765824 0.000000 0.000000
0.958769 0.000000 0.000000
1.000000 0.000000 0.000000
1.000000 0.000000 0.000000
0.000000 0.000000 0.005495
0.000000 0.000000 0.005495
0.181263 0.000000 0.000324
0.374208 0.000000 0.000000
0.570016 0.000000 0.000000
0.765824 0.000000 0.000000
0.958769 0.000000 0.000000
1.000000 0.000000 0.000000
1.000000 0.000000 0.000000
0.000000 0.167396 0.000000
0.000000 0.167396 0.000000
0.164035 0.162225 0.000000
0.356980 0.156721 0.000000
0.552788 0.151137 0.000000
0.748596 0.145552 0.000000
0.941541 0.140049 0.000000
1.000000 0.135506 0.000000
1.000000 0.135506 0.000000
0.000000 0.345585 0.000000
0.000000 0.345585 0.000000
0.145702 0.340413 0.000000
0.338648 0.334910 0.000000
0.534455 0.329326 0.000000
0.730263 0.323741 0.000000
0.923209 0.318238 0.000000
1.000000 0.313695 0.000000
1.000000 0.313695 0.000000
0.000000 0.526417 0.000000
0.000000 0.526417 0.000000
0.127097 0.521246 0.000000
0.320043 0.515743 0.000000
0.515850 0.510158 0.000000
0.711658 0.504573 0.000000
0.904604 0.499070 0.000000
1.000000 0.494527 0.000000
1.000000 0.494527 0.000000
0.000000 0.707249 0.000000
0.000000 0.707249 0.000000
0.108492 0.702078 0.000000
0.301438 0.696575 0.000000
0.497246 0.690990 0.000000
0.693053 0.685406 0.000000
0.885999 0.679903 0.000000
1.000000 0.675359 0.000000
1.000000 0.675359 0.000000
0.000000 0.885438 0.000000
0.000000 0.885438 0.000000
0.090159 0.880267 0.000000
0.283105 0.874764 0.000000
0.478913 0.869179 0.000000
0.674720 0.863594 0.000000
0.867666 0.858091 0.000000
1.000000 0.853548 0.000000
1.000000 0.853548 0.000000
0.000000 1.000000 0.000000
0.000000 1.000000 0.000000
0.073983 1.000000 0.000000
0.266928 1.000000 0.000000
0.462736 1.000000 0.000000
0.658544 1.000000 0.000000
0.851489 1.000000 0.000000
1.000000 1.000000 0.000000
1.000000 1.000000 0.000000
0.000000 1.000000 0.000000
0.000000 1.000000 0.000000
0.073983 1.000000 0.000000
0.266928 1.000000 0.000000
0.462736 1.000000 0.000000
0.658544 1.000000 0.000000
0.851489 1.000000 0.000000
1.000000 1.000000 0.000000
1.000000 1.000000 0.000000
0.000000 0.000000 0.188853
0.000000 0.000000 0.188853
0.179520 0.000000 0.183682
0.372465 0.000000 0.178179
0.568273 0.000000 0.172594
0.764081 0.000000 0.167009
0.957026 0.000000 0.161506
1.000000 0.000000 0.156963
1.000000 0.000000 0.156963
0.000000 0.000000 0.188853
0.000000 0.000000 0.188853
0.179520 0.000000 0.183682
0.372465 0.000000 0.178179
0.568273 0.000000 0.172594
0.764081 0.000000 0.167009
0.957026 0.000000 0.161506
1.000000 0.000000 0.156963
1.000000 0.000000 0.156963
0.000000 0.165653 0.171625
0.000000 0.165653 0.171625
0.162292 0.160481 0.166454
0.355237 0.154978 0.160951
0.551045 0.149394 0.155366
0.746853 0.143809 0.149781
0.939798 0.138306 0.144278
1.000000 0.133763 0.139735
1.000000 0.133763 0.139735
0.000000 0.343842 0.153292
0.000000 0.343842 0.153292
0.143959 0.338670 0.148121
0.336904 0.333167 0.142618
0.532712 0.327582 0.137033
0.728520 0.321998 0.131448
0.921465 0.316495 0.125945
1.000000 0.311952 0.121402
1.000000 0.311952 0.121402
0.000000 0.524674 0.134687
0.000000 0.524674 0.134687
0.125354 0.519503 0.129516
0.318299 0.514000 0.124013
0.514107 0.508415 0.118428
0.709915 0.502830 0.112844
0.902860 0.497327 0.107340
1.000000 0.492784 0.102797
1.000000 0.492784 0.102797
0.000000 0.705506 0.116082
0.000000 0.705506 0.116082
0.106749 0.700335 0.110911
0.299695 0.694832 0.105408
0.495502 0.689247 0.099823
0.691310 0.683662 0.094239
0.884256 0.678159 0.088736
1.000000 0.673616 0.084192
1.000000 0.673616 0.084192
0.000000 0.883695 0.097750
0.000000 0.883695 0.097750
0.088416 0.878524 0.092578
0.281362 0.873021 0.087075
0.477169 0.867436 0.081490
0.672977 0.861851 0.075906
0.865923 0.856348 0.070403
1.000000 0.851805 0.065860
1.000000 0.851805 0.065860
0.000000 1.000000 0.081573
0.000000 1.000000 0.081573
0.072240 1.000000 0.076402
0.265185 1.000000 0.070899
0.460993 1.000000 0.065314
0.656801 1.000000 0.059729
0.849746 1.000000 0.054226
1.000000 1.000000 0.049683
1.000000 1.000000 0.049683
0.000000 1.000000 0.081573
0.000000 1.000000 0.081573
0.072240 1.000000 0.076402
0.265185 1.000000 0.070899
0.460993 1.000000 0.065314
0.656801 1.000000 0.059729
0.849746 1.000000 0.054226
1.000000 1.000000 0.049683
1.000000 1.000000 0.049683
0.000000 0.000000 0.377817
0.000000 0.000000 0.377817
0.177723 0.000000 0.372646
0.370669 0.000000 0.367143
0.566476 0.000000 0.361558
0.762284 0.000000 0.355973
0.955230 0.000000 0.350470
1.000000 0.000000 0.345927
1.000000 0.000000 0.345927
0.000000 0.000000 0.377817
0.000000 0.000000 0.377817
0.177723 0.000000 0.372646
0.370669 0.000000 0.367143
0.566476 0.000000 0.361558
0.762284 0.000000 0.355973
0.955230 0.000000 0.350470
1.000000 0.000000 0.345927
1.000000 0.000000 0.345927
0.000000 0.163856 0.360589
0.000000 0.163856 0.360589
0.160495 0.158685 0.355418
0.353441 0.153182 0.349915
0.549249 0.147597 0.344330
0.745056 0.142012 0.338746
0.938002 0.136509 0.333243
1.000000 0.131966 0.328699
1.000000 0.131966 0.328699
0.000000 0.342045 0.342256
0.000000 0.342045 0.342256
0.142163 0.336874 0.337085
0.335108 0.331371 0.331582
0.530916 0.325786 0.325997
0.726724 0.320201 0.320413
0.919669 0.314698 0.314910
1.000000 0.310155 0.310367
1.000000 0.310155 0.310367
0.000000 0.522877 0.323652
0.000000 0.522877 0.323652
0.123558 0.517706 0.318480
0.316503 0.512203 0.312977
0.512311 0.506618 0.307393
0.708119 0.501034 0.301808
0.901064 0.495531 0.296305
1.000000 0.490987 0.291762
1.000000 0.490987 0.291762
0.000000 0.703710 0.305047
0.000000 0.703710 0.305047
0.104953 0.698538 0.299875
0.297898 0.693035 0.294372
0.493706 0.687451 0.288788
0.689514 0.681866 0.283203
0.882459 0.676363 0.277700
1.000000 0.671820 0.273157
1.000000 0.671820 0.273157
0.000000 0.881899 0.286714
0.000000 0.881899 0.286714
0.086620 0.876727 0.281542
0.279565 0.871224 0.276039
0.475373 0.865640 0.270455
0.671181 0.860055 0.264870
0.864126 0.854552 0.259367
1.000000 0.850009 0.254824
1.000000 0.850009 0.254824
0.000000 1.000000 0.270537
0.000000 1.000000 0.270537
0.070443 1.000000 0.265366
0.263389 1.000000 0.259863
0.459197 1.000000 0.254278
0.655004 1.000000 0.248693
0.847950 1.000000 0.243190
1.000000 1.000000 0.238647
1.000000 1.000000 0.238647
0.000000 1.000000 0.270537
0.000000 1.000000 0.270537
0.070443 1.000000 0.265366
0.263389 1.000000 0.259863
0.459197 1.000000 0.254278
0.655004 1.000000 0.248693
0.847950 1.000000 0.243190
1.000000 1.000000 0.238647
1.000000 1.000000 0.238647
0.000000 0.000000 0.569585
0.000000 0.000000 0.569585
0.175900 0.000000 0.564414
0.368845 0.000000 0.558910
0.564653 0.000000 0.553326
0.760461 0.000000 0.547741
0.953406 0.000000 0.542238
1.000000 0.000000 0.537695
1.000000 0.000000 0.537695
0.000000 0.000000 0.569585
0.000000 0.000000 0.569585
0.175900 0.000000 0.564414
0.368845 0.000000 0.558910
0.564653 0.000000 0.553326
0.760461 0.000000 0.547741
0.953406 0.000000 0.542238
1.000000 0.000000 0.537695
1.000000 0.000000 0.537695
0.000000 0.162033 0.552357
0.000000 0.162033 0.552357
0.158672 0.156862 0.547186
0.351618 0.151359 0.541683
0.547426 0.145774 0.536098
0.743233 0.140189 0.530513
0.936179 0.134686 0.525010
1.000000 0.130143 0.520467
1.000000 0.130143 0.520467
0.000000 0.340222 0.534024
0.000000 0.340222 0.534024
0.140339 0.335051 0.528853
0.333285 0.329548 0.523350
0.529093 0.323963 0.517765
0.724900 0.318378 0.512180
0.917846 0.312875 0.506677
1.000000 0.308332 0.502134
1.000000 0.308332 0.502134
0.000000 0.521054 0.515419
0.000000 0.521054 0.515419
0.121735 0.515883 0.510248
0.314680 0.510380 0.504745
0.510488 0.504795 0.499160
0.706296 0.499211 0.493576
0.899241 0.493707 0.488072
1.000000 0.489164 0.483529
1.000000 0.489164 0.483529
0.000000 0.701887 0.496814
0.000000 0.701887 0.496814
0.103130 0.696715 0.491643
0.296075 0.691212 0.486140
0.491883 0.685628 0.480555
0.687691 0.680043 0.474971
0.880636 0.674540 0.469468
1.000000 0.669997 0.464924
1.000000 0.669997 0.464924
0.000000 0.880075 0.478481
0.000000 0.880075 0.478481
0.084797 0.874904 0.473310
0.277742 0.869401 0.467807
0.473550 0.863816 0.462222
0.669358 0.858232 0.456638
0.862303 0.852729 0.451135
1.000000 0.848185 0.446592
1.000000 0.848185 0.446592
0.000000 1.000000 0.462305
0.000000 1.000000 0.462305
0.068620 1.000000 0.457134
0.261566 1.000000 0.451631
0.457373 1.000000 0.446046
0.653181 1.000000 0.440461
0.846127 1.000000 0.434958
1.000000 1.000000 0.430415
1.000000 1.000000 0.430415
0.000000 1.000000 0.462305
0.000000 1.000000 0.462305
0.068620 1.000000 0.457134
0.261566 1.000000 0.451631
0.457373 1.000000 0.446046
0.653181 1.000000 0.440461
0.846127 1.000000 0.434958
1.000000 1.000000 0.430415
1.000000 1.000000 0.430415
0.000000 0.000000 0.761353
0.000000 0.000000 0.761353
0.174077 0.000000 0.756181
0.367022 0.000000 0.750678
0.562830 0.000000 0.745093
0.758638 0.000000 0.739509
0.951583 0.000000 0.734006
1.000000 0.000000 0.729463
1.000000 0.000000 0.729463
0.000000 0.000000 0.761353
0.000000 0.000000 0.761353
0.174077 0.000000 0.756181
0.367022 0.000000 0.750678
0.562830 0.000000 0.745093
0.758638 0.000000 0.739509
0.951583 0.000000 0.734006
1.000000 0.000000 0.729463
1.000000 0.000000 0.729463
0.000000 0.160210 0.744125
0.000000 0.160210 0.744125
0.156849 0.155039 0.738953
0.349795 0.149536 0.733450
0.545602 0.143951 0.727866
0.741410 0.138366 0.722281
0.934356 0.132863 0.716778
1.000000 0.128320 0.712235
1.000000 0.128320 0.712235
0.000000 0.338399 0.725792
0.000000 0.338399 0.725792
0.138516 0.333227 0.720621
0.331462 0.327724 0.715118
0.527269 0.322140 0.709533
0.723077 0.316555 0.703948
0.916023 0.311052 0.698445
1.000000 0.306509 0.693902
1.000000 0.306509 0.693902
0.000000 0.519231 0.707187
0.000000 0.519231 0.707187
0.119911 0.514060 0.702016
0.312857 0.508557 0.696513
0.508665 0.502972 0.690928
0.704472 0.497387 0.685343
0.897418 0.491884 0.679840
1.000000 0.487341 0.675297
1.000000 0.487341 0.675297
0.000000 0.700064 0.688582
0.000000 0.700064 0.688582
0.101307 0.694892 0.683411
0.294252 0.689389 0.677908
0.490060 0.683804 0.672323
0.685868 0.678220 0.666738
0.878813 0.672717 0.661235
1.000000 0.668174 0.656692
1.000000 0.668174 0.656692
0.000000 0.878252 0.670249
0.000000 0.878252 0.670249
0.082974 0.873081 0.665078
0.275919 0.867578 0.659575
0.471727 0.861993 0.653990
0.667535 0.856409 0.648405
0.860480 0.850905 0.642902
1.000000 0.846362 0.638359
1.000000 0.846362 0.638359
0.000000 1.000000 0.654073
0.000000 1.000000 0.654073
0.066797 1.000000 0.648901
0.259742 1.000000 0.643398
0.455550 1.000000 0.637814
0.651358 1.000000 0.632229
0.844303 1.000000 0.626726
1.000000 1.000000 0.622183
1.000000 1.000000 0.622183
0.000000 1.000000 0.654073
0.000000 1.000000 0.654073
0.066797 1.000000 0.648901
0.259742 1.000000 0.643398
0.455550 1.000000 0.637814
0.651358 1.000000 0.632229
0.844303 1.000000 0.626726
1.000000 1.000000 0.622183
1.000000 1.000000 0.622183
0.000000 0.000000 0.950317
0.000000 0.000000 0.950317
0.172281 0.000000 0.945146
0.365226 0.000000 0.939642
0.561034 0.000000 0.934058
0.756842 0.000000 0.928473
0.949787 0.000000 0.922970
1.000000 0.000000 0.918427
1.000000 0.000000 0.918427
0.000000 0.000000 0.950317
0.000000 0.000000 0.950317
0.172281 0.000000 0.945146
0.365226 0.000000 0.939642
0.561034 0.000000 0.934058
0.756842 0.000000 0.928473
0.949787 0.000000 0.922970
1.000000 0.000000 0.918427
1.000000 0.000000 0.918427
0.000000 0.158414 0.933089
0.000000 0.158414 0.933089
0.155053 0.153242 0.927918
0.347998 0.147739 0.922415
0.543806 0.142154 0.916830
0.739614 0.136570 0.911245
0.932559 0.131067 0.905742
1.000000 0.126524 0.901199
1.000000 0.126524 0.901199
0.000000 0.336602 0.914756
0.000000 0.336602 0.914756
0.136720 0.331431 0.909585
0.329665 0.325928 0.904082
0.525473 0.320343 0.898497
0.721281 0.314759 0.892912
0.914226 0.309255 0.887409
1.000000 0.304712 0.882866
1.000000 0.304712 0.882866
0.000000 0.517435 0.896151
0.000000 0.517435 0.896151
0.118115 0.512263 0.890980
0.311060 0.506760 0.885477
0.506868 0.501176 0.879892
0.702676 0.495591 0.874307
0.895621 0.490088 0.868804
1.000000 0.485545 0.864261
1.000000 0.485545 0.864261
0.000000 0.698267 0.877546
0.000000 0.698267 0.877546
0.099510 0.693096 0.872375
0.292455 0.687593 0.866872
0.488263 0.682008 0.861287
0.684071 0.676423 0.855703
0.877016 0.670920 0.850200
1.000000 0.666377 0.845656
1.000000 0.666377 0.845656
0.000000 0.876456 0.859213
0.000000 0.876456 0.859213
0.081177 0.871285 0.854042
0.274122 0.865781 0.848539
0.469930 0.860197 0.842954
0.665738 0.854612 0.837370
0.858683 0.849109 0.831867
1.000000 0.844566 0.827323
1.000000 0.844566 0.827323
0.000000 1.000000 0.843037
0.000000 1.000000 0.843037
0.065001 1.000000 0.837866
0.257946 1.000000 0.832363
0.453754 1.000000 0.826778
0.649562 1.000000 0.821193
0.842507 1.000000 0.815690
1.000000 1.000000 0.811147
1.000000 1.000000 0.811147
0.000000 1.000000 0.843037
0.000000 1.000000 0.843037
0.065001 1.000000 0.837866
0.257946 1.000000 0.832363
0.453754 1.000000 0.826778
0.649562 1.000000 0.821193
0.842507 1.000000 0.815690
1.000000 1.000000 0.811147
1.000000 1.000000 0.811147
0.000000 0.000000 1.000000
0.000000 0.000000 1.000000
0.170537 0.000000 1.000000
0.363483 0.000000 1.000000
0.559291 0.000000 1.000000
0.755098 0.000000 1.000000
0.948044 0.000000 1.000000
1.000000 0.000000 1.000000
1.000000 0.000000 1.000000
0.000000 0.000000 1.000000
0.000000 0.000000 1.000000
0.170537 0.000000 1.000000
0.363483 0.000000 1.000000
0.559291 0.000000 1.000000
0.755098 0.000000 1.000000
0.948044 0.000000 1.000000
1.000000 0.000000 1.000000
1.000000 0.000000 1.000000
0.000000 0.156670 1.000000
0.000000 0.156670 1.000000
0.153310 0.151499 1.000000
0.346255 0.145996 1.000000
0.542063 0.140411 1.000000
0.737871 0.134827 1.000000
0.930816 0.129324 1.000000
1.000000 0.124780 1.000000
1.000000 0.124780 1.000000
0.000000 0.334859 1.000000
0.000000 0.334859 1.000000
0.134977 0.329688 1.000000
0.327922 0.324185 1.000000
0.523730 0.318600 1.000000
0.719538 0.313015 1.000000
0.912483 0.307512 1.000000
1.000000 0.302969 1.000000
1.000000 0.302969 1.000000
0.000000 0.515692 1.000000
0.000000 0.515692 1.000000
0.116372 0.510520 1.000000
0.309317 0.505017 1.000000
0.505125 0.499432 1.000000
0.700933 0.493848 1.000000
0.893878 0.488345 1.000000
1.000000 0.483802 1.000000
1.000000 0.483802 1.000000
0.000000 0.696524 1.000000
0.000000 0.696524 1.000000
0.097767 0.691353 1.000000
0.290712 0.685850 1.000000
0.486520 0.680265 1.000000
0.682328 0.674680 1.000000
0.875273 0.669177 1.000000
1.000000 0.664634 1.000000
1.000000 0.664634 1.000000
0.000000 0.874713 1.000000
0.000000 0.874713 1.000000
0.079434 0.869541 1.000000
0.272379 0.864038 1.000000
0.468187 0.858454 1.000000
0.663995 0.852869 1.000000
0.856940 0.847366 1.000000
1.000000 0.842823 1.000000
1.000000 0.842823 1.000000
0.000000 1.000000 1.000000
0.000000 1.000000 1.000000
0.063257 1.000000 1.000000
0.256203 1.000000 1.000000
0.452011 1.000000 1.000000
0.647818 1.000000 1.000000
0.840764 1.000000 0.999048
1.000000 1.000000 0.994504
1.000000 1.000000 0.994504
0.000000 1.000000 1.000000
0.000000 1.000000 1.000000
0.063257 1.000000 1.000000
0.256203 1.000000 1.000000
0.452011 1.000000 1.000000
0.647818 1.000000 1.000000
0.840764 1.000000 0.999048
1.000000 1.000000 0.994504
1.000000 1.000000 0.994504
0.000000 0.000000 1.000000
0.000000 0.000000 1.000000
0.170485 0.000000 1.000000
0.363430 0.000000 1.000000
0.559238 0.000000 1.000000
0.755046 0.000000 1.000000
0.947991 0.000000 1.000000
1.000000 0.000000 1.000000
1.000000 0.000000 1.000000
0.000000 0.000000 1.000000
0.000000 0.000000 1.000000
0.170485 0.000000 1.000000
0.363430 0.000000 1.000000
0.559238 0.000000 1.000000
0.755046 0.000000 1.000000
0.947991 0.000000 1.000000
1.000000 0.000000 1.000000
1.000000 0.000000 1.000000
0.000000 0.156618 1.000000
0.000000 0.156618 1.000000
0.153257 0.151447 1.000000
0.346203 0.145944 1.000000
0.542011 0.140359 1.000000
0.737818 0.134774 1.000000
0.930764 0.129271 1.000000
1.000000 0.124728 1.000000
1.000000 0.124728 1.000000
0.000000 0.334807 1.000000
0.000000 0.334807 1.000000
0.134924 0.329636 1.000000
0.327870 0.324133 1.000000
0.523678 0.318548 1.000000
0.719485 0.312963 1.000000
0.912431 0.307460 1.000000
1.000000 0.302917 1.000000
1.000000 0.302917 1.000000
0.000000 0.515639 1.000000
0.000000 0.515639 1.000000
0.116320 0.510468 1.000000
0.309265 0.504965 1.000000
0.505073 0.499380 1.000000
0.700881 0.493796 1.000000
0.893826 0.488292 1.000000
1.000000 0.483749 1.000000
1.000000 0.483749 1.000000
0.000000 0.696472 1.000000
0.000000 0.696472 1.000000
0.097715 0.691300 1.000000
0.290660 0.685797 1.000000
0.486468 0.680213 1.000000
0.682276 0.674628 1.000000
0.875221 0.669125 1.000000
1.000000 0.664582 1.000000
1.000000 0.664582 1.000000
0.000000 0.874660 1.000000
0.000000 0.874660 1.000000
0.079382 0.869489 1.000000
0.272327 0.863986 1.000000
0.468135 0.858401 1.000000
0.663943 0.852817 1.000000
0.856888 0.847314 1.000000
1.000000 0.842770 1.000000
1.000000 0.842770 1.000000
0.000000 1.000000 1.000000
0.000000 1.000000 1.000000
0.063205 1.000000 1.000000
0.256151 1.000000 1.000000
0.451958 1.000000 1.000000
0.647766 1.000000 1.000000
0.840712 1.000000 1.000000
1.000000 1.000000 1.000000
1.000000 1.000000 1.000000
0.000000 1.000000 1.000000
0.000000 1.000000 1.000000
0.063205 1.000000 1.000000
0.256151 1.000000 1.000000
0.451958 1.000000 1.000000
0.647766 1.000000 1.000000
0.840712 1.000000 1.000000
1.000000 1.000000 1.000000
1.000000 1.000000 1.000000
