assets/preview/luts/high_contrast.cube
TITLE "High Contrast"
LUT_3D_SIZE 33
DOMAIN_MIN 0.0 0.0 0.0
DOMAIN_MAX 1.0 1.0 1.0
0.000001 0.000001 0.000001
0.000001 0.000001 0.000001
0.000001 0.000001 0.000001
0.000001 0.000001 0.000001
0.000001 0.000001 0.000001
0.040207 0.000000 0.000000
0.086810 0.000000 0.000000
0.133861 0.000000 0.000000
0.181315 0.000000 0.000000
0.229127 0.000000 0.000000
0.277251 0.000000 0.000000
0.325644 0.000000 0.000000
0.374260 0.000000 0.000000
0.423056 0.000000 0.000000
0.471985 0.000000 0.000000
0.521004 0.000000 0.000000
0.570068 0.000000 0.000000
0.619132 0.000000 0.000000
0.668151 0.000000 0.000000
0.717081 0.000000 0.000000
0.765876 0.000000 0.000000
0.814493 0.000000 0.000000
0.862885 0.000000 0.000000
0.911010 0.000000 0.000000
0.958821 0.000000 0.000000
1.000000 0.000000 0.000000
1.000000 0.000000 0.000000
1.000000 0.000000 0.000000
1.000000 0.000000 0.000000
1.000000 0.000000 0.000000
1.000000 0.000000 0.000000
1.000000 0.000000 0.000000
1.000000 0.000000 0.000000
0.000001 0.000001 0.000001
0.000001 0.000001 0.000001
0.000001 0.000001 0.000001
0.000001 0.000001 0.000001
0.000001 0.000001 0.000001
0.040207 0.000000 0.000000
0.086810 0.000000 0.000000
0.133861 0.000000 0.000000
0.181315 0.000000 0.000000
0.229127 0.000000 0.000000
0.277251 0.000000 0.000000
0.325644 0.000000 0.000000
0.374260 0.000000 0.000000
0.423056 0.000000 0.000000
0.471985 0.000000 0.000000
0.521004 0.000000 0.000000
0.570068 0.000000 0.000000
0.619132 0.000000 0.000000
0.668151 0.000000 0.000000
0.717081 0.000000 0.000000
0.765876 0.000000 0.000000
0.814493 0.000000 0.000000
0.862885 0.000000 0.000000
0.911010 0.000000 0.000000
0.958821 0.000000 0.000000
1.000000 0.000000 0.000000
1.000000 0.000000 0.000000
1.000000 0.000000 0.000000
1.000000 0.000000 0.000000
1.000000 0.000000 0.000000
1.000000 0.000000 0.000000
1.000000 0.000000 0.000000
1.000000 0.000000 0.000000
0.000001 0.000001 0.000001
0.000001 0.000001 0.000001
0.000001 0.000001 0.000001
0.000001 0.000001 0.000001
0.000001 0.000001 0.000001
0.040207 0.000000 0.000000
0.086810 0.000000 0.000000
0.133861 0.000000 0.000000
0.181315 0.000000 0.000000
0.229127 0.000000 0.000000
0.277251 0.000000 0.000000
0.325644 0.000000 0.000000
0.374260 0.000000 0.000000
0.423056 0.000000 0.000000
0.471985 0.000000 0.000000
0.521004 0.000000 0.000000
0.570068 0.000000 0.000000
0.619132 0.000000 0.000000
0.668151 0.000000 0.000000
0.717081 0.000000 0.000000
0.765876 0.000000 0.000000
0.814493 0.000000 0.000000
0.862885 0.000000 0.000000
0.911010 0.000000 0.000000
0.958821 0.000000 0.000000
1.000000 0.000000 0.000000
1.000000 0.000000 0.000000
1.000000 0.000000 0.000000
1.000000 0.000000 0.000000
1.000000 0.000000 0.000000
1.000000 0.000000 0.000000
1.000000 0.000000 0.000000
1.000000 0.000000 0.000000
0.000001 0.000001 0.000001
0.000001 0.000001 0.000001
0.000001 0.000001 0.000001
0.000001 0.000001 0.000001
0.000001 0.000001 0.000001
0.040207 0.000000 0.000000
0.086810 0.000000 0.000000
0.133861 0.000000 0.000000
0.181315 0.000000 0.000000
0.229127 0.000000 0.000000
0.277251 0.000000 0.000000
0.325644 0.000000 0.000000
0.374260 0.000000 0.000000
0.423056 0.000000 0.000000
0.471985 0.000000 0.000000
0.521004 0.000000 0.000000
0.570068 0.000000 0.000000
0.619132 0.000000 0.000000
0.668151 0.000000 0.000000
0.717081 0.000000 0.000000
0.765876 0.000000 0.000000
0.814493 0.000000 0.000000
0.862885 0.000000 0.000000
0.911010 0.000000 0.000000
0.958821 0.000000 0.000000
1.000000 0.000000 0.000000
1.000000 0.000000 0.000000
1.000000 0.000000 0.000000
1.000000 0.000000 0.000000
1.000000 0.000000 0.000000
1.000000 0.000000 0.000000
1.000000 0.000000 0.000000
1.000000 0.000000 0.000000
0.000001 0.000001 0.000001
0.000001 0.000001 0.000001
0.000001 0.000001 0.000001
0.000001 0.000001 0.000001
0.000001 0.000001 0.000001
0.040207 0.000000 0.000000
0.086810 0.000000 0.000000
0.133861 0.000000 0.000000
0.181315 0.000000 0.000000
0.229127 0.000000 0.000000
0.277251 0.000000 0.000000
0.325644 0.000000 0.000000
0.374260 0.000000 0.000000
0.423056 0.000000 0.000000
0.471985 0.000000 0.000000
0.521004 0.000000 0.000000
0.570068 0.000000 0.000000
0.619132 0.000000 0.000000
0.668151 0.000000 0.000000
0.717081 0.000000 0.000000
0.765876 0.000000 0.000000
0.814493 0.000000 0.000000
0.862885 0.000000 0.000000
0.911010 0.000000 0.000000
0.958821 0.000000 0.000000
1.000000 0.000000 0.000000
1.000000 0.000000 0.000000
1.000000 0.000000 0.000000
1.000000 0.000000 0.000000
1.000000 0.000000 0.000000
1.000000 0.000000 0.000000
1.000000 0.000000 0.000000
1.000000 0.000000 0.000000
0.000000 0.037132 0.000000
0.000000 0.037132 0.000000
0.000000 0.037132 0.000000
0.000000 0.037132 0.000000
0.000000 0.037132 0.000000
0.036386 0.035985 0.000000
0.082990 0.034656 0.000000
0.130041 0.033314 0.000000
0.177495 0.031960 0.000000
0.225306 0.030597 0.000000
0.273431 0.029224 0.000000
0.321824 0.027844 0.000000
0.370440 0.026457 0.000000
0.419236 0.025066 0.000000
0.468165 0.023670 0.000000
0.517184 0.022272 0.000000
0.566248 0.020873 0.000000
0.615312 0.019473 0.000000
0.664331 0.018075 0.000000
0.713261 0.016680 0.000000
0.762056 0.015288 0.000000
0.810672 0.013901 0.000000
0.859065 0.012521 0.000000
0.907190 0.011148 0.000000
0.955001 0.009785 0.000000
1.000000 0.008431 0.000000
1.000000 0.007089 0.000000
1.000000 0.005760 0.000000
1.000000 0.005242 0.000000
1.000000 0.005242 0.000000
1.000000 0.005242 0.000000
1.000000 0.005242 0.000000
1.000000 0.005242 0.000000
0.000000 0.080171 0.000000
0.000000 0.080171 0.000000
0.000000 0.080171 0.000000
0.000000 0.080171 0.000000
0.000000 0.080171 0.000000
0.031958 0.079024 0.000000
0.078562 0.077695 0.000000
0.125613 0.076353 0.000000
0.173067 0.075000 0.000000
0.220878 0.073636 0.000000
0.269003 0.072264 0.000000
0.317396 0.070883 0.000000
0.366012 0.069497 0.000000
0.414808 0.068105 0.000000
0.463737 0.066710 0.000000
0.512756 0.065311 0.000000
0.561820 0.063912 0.000000
0.610884 0.062513 0.000000
0.659903 0.061115 0.000000
0.708832 0.059719 0.000000
0.757628 0.058327 0.000000
0.806244 0.056941 0.000000
0.854637 0.055561 0.000000
0.902762 0.054188 0.000000
0.950573 0.052824 0.000000
0.998027 0.051471 0.000000
1.000000 0.050129 0.000000
1.000000 0.048800 0.000000
1.000000 0.048281 0.000000
1.000000 0.048281 0.000000
1.000000 0.048281 0.000000
1.000000 0.048281 0.000000
1.000000 0.048281 0.000000
0.000000 0.123624 0.000000
0.000000 0.123624 0.000000
0.000000 0.123624 0.000000
0.000000 0.123624 0.000000
0.000000 0.123624 0.000000
0.027488 0.122477 0.000000
0.074091 0.121148 0.000000
0.121143 0.119806 0.000000
0.168596 0.118452 0.000000
0.216408 0.117089 0.000000
0.264532 0.115716 0.000000
0.312925 0.114336 0.000000
0.361542 0.112949 0.000000
0.410337 0.111558 0.000000
0.459267 0.110162 0.000000
0.508286 0.108764 0.000000
0.557349 0.107365 0.000000
0.606413 0.105965 0.000000
0.655432 0.104567 0.000000
0.704362 0.103172 0.000000
0.753157 0.101780 0.000000
0.801774 0.100393 0.000000
0.850167 0.099013 0.000000
0.898291 0.097641 0.000000
0.946103 0.096277 0.000000
0.993556 0.094923 0.000000
1.000000 0.093582 0.000000
1.000000 0.092252 0.000000
1.000000 0.091734 0.000000
1.000000 0.091734 0.000000
1.000000 0.091734 0.000000
1.000000 0.091734 0.000000
1.000000 0.091734 0.000000
0.000000 0.167448 0.000000
0.000000 0.167448 0.000000
0.000000 0.167448 0.000000
0.000000 0.167448 0.000000
0.000000 0.167448 0.000000
0.022979 0.166301 0.000000
0.069583 0.164972 0.000000
0.116634 0.163630 0.000000
0.164087 0.162277 0.000000
0.211899 0.160913 0.000000
0.260023 0.159541 0.000000
0.308416 0.158160 0.000000
0.357033 0.156774 0.000000
0.405828 0.155382 0.000000
0.454758 0.153986 0.000000
0.503777 0.152588 0.000000
0.552841 0.151189 0.000000
0.601904 0.149790 0.000000
0.650923 0.148392 0.000000
0.699853 0.146996 0.000000
0.748648 0.145604 0.000000
0.797265 0.144218 0.000000
0.845658 0.142837 0.000000
0.893782 0.141465 0.000000
0.941594 0.140101 0.000000
0.989047 0.138748 0.000000
1.000000 0.137406 0.000000
1.000000 0.136077 0.000000
1.000000 0.135558 0.000000
1.000000 0.135558 0.000000
1.000000 0.135558 0.000000
1.000000 0.135558 0.000000
1.000000 0.135558 0.000000
0.000000 0.211603 0.000000
0.000000 0.211603 0.000000
0.000000 0.211603 0.000000
0.000000 0.211603 0.000000
0.000000 0.211603 0.000000
0.018436 0.210456 0.000000
0.065040 0.209127 0.000000
0.112091 0.207785 0.000000
0.159544 0.206432 0.000000
0.207356 0.205068 0.000000
0.255480 0.203695 0.000000
0.303873 0.202315 0.000000
0.352490 0.200929 0.000000
0.401285 0.199537 0.000000
0.450215 0.198141 0.000000
0.499234 0.196743 0.000000
0.548298 0.195344 0.000000
0.597361 0.193944 0.000000
0.646380 0.192546 0.000000
0.695310 0.191151 0.000000
0.744105 0.189759 0.000000
0.792722 0.188373 0.000000
0.841115 0.186992 0.000000
0.889239 0.185620 0.000000
0.937051 0.184256 0.000000
0.984504 0.182903 0.000000
1.000000 0.181561 0.000000
1.000000 0.180231 0.000000
1.000000 0.179713 0.000000
1.000000 0.179713 0.000000
1.000000 0.179713 0.000000
1.000000 0.179713 0.000000
1.000000 0.179713 0.000000
0.000000 0.256047 0.000000
0.000000 0.256047 0.000000
0.000000 0.256047 0.000000
0.000000 0.256047 0.000000
0.000000 0.256047 0.000000
0.013863 0.254900 0.000000
0.060467 0.253571 0.000000
0.107518 0.252229 0.000000
0.154972 0.250876 0.000000
0.202783 0.249512 0.000000
0.250908 0.248139 0.000000
0.299301 0.246759 0.000000
0.347917 0.245372 0.000000
0.396713 0.243981 0.000000
0.445642 0.242585 0.000000
0.494661 0.241187 0.000000
0.543725 0.239788 0.000000
0.592789 0.238388 0.000000
0.641808 0.236990 0.000000
0.690737 0.235595 0.000000
0.739533 0.234203 0.000000
0.788149 0.232816 0.000000
0.836542 0.231436 0.000000
0.884667 0.230064 0.000000
0.932478 0.228700 0.000000
0.979932 0.227347 0.000000
1.000000 0.226005 0.000000
1.000000 0.224675 0.000000
1.000000 0.224157 0.000000
1.000000 0.224157 0.000000
1.000000 0.224157 0.000000
1.000000 0.224157 0.000000
1.000000 0.224157 0.000000
0.000000 0.300739 0.000000
0.000000 0.300739 0.000000
0.000000 0.300739 0.000000
0.000000 0.300739 0.000000
0.000000 0.300739 0.000000
0.009265 0.299592 0.000000
0.055869 0.298263 0.000000
0.102920 0.296921 0.000000
0.150374 0.295567 0.000000
0.198185 0.294204 0.000000
0.246310 0.292831 0.000000
0.294703 0.291451 0.000000
0.343319 0.290064 0.000000
0.392115 0.288673 0.000000
0.441044 0.287277 0.000000
0.490063 0.285879 0.000000
0.539127 0.284480 0.000000
0.588191 0.283080 0.000000
0.637210 0.281682 0.000000
0.686139 0.280287 0.000000
0.734935 0.278895 0.000000
0.783551 0.277508 0.000000
0.831944 0.276128 0.000000
0.880069 0.274755 0.000000
0.927880 0.273392 0.000000
0.975334 0.272038 0.000000
1.000000 0.270696 0.000000
1.000000 0.269367 0.000000
1.000000 0.268849 0.000000
1.000000 0.268849 0.000000
1.000000 0.268849 0.000000
1.000000 0.268849 0.000000
1.000000 0.268849 0.000000
0.000000 0.345637 0.000000
0.000000 0.345637 0.000000
0.000000 0.345637 0.000000
0.000000 0.345637 0.000000
0.000000 0.345637 0.000000
0.004646 0.344490 0.000000
0.051250 0.343161 0.000000
0.098301 0.341819 0.000000
0.145754 0.340466 0.000000
0.193566 0.339102 0.000000
0.241690 0.337729 0.000000
0.290083 0.336349 0.000000
0.338700 0.334963 0.000000
0.387495 0.333571 0.000000
0.436425 0.332175 0.000000
0.485444 0.330777 0.000000
0.534508 0.329378 0.000000
0.583571 0.327978 0.000000
0.632590 0.326580 0.000000
0.681520 0.325185 0.000000
0.730315 0.323793 0.000000
0.778932 0.322407 0.000000
0.827325 0.321026 0.000000
0.875449 0.319654 0.000000
0.923261 0.318290 0.000000
0.970714 0.316937 0.000000
1.000000 0.315595 0.000000
1.000000 0.314265 0.000000
1.000000 0.313747 0.000000
1.000000 0.313747 0.000000
1.000000 0.313747 0.000000
1.000000 0.313747 0.000000
1.000000 0.313747 0.000000
0.000000 0.390700 0.000000
0.000000 0.390700 0.000000
0.000000 0.390700 0.000000
0.000000 0.390700 0.000000
0.000000 0.390700 0.000000
0.000010 0.389554 0.000000
0.046613 0.388225 0.000000
0.093664 0.386883 0.000000
0.141118 0.385529 0.000000
0.188930 0.384165 0.000000
0.237054 0.382793 0.000000
0.285447 0.381413 0.000000
0.334063 0.380026 0.000000
0.382859 0.378634 0.000000
0.431788 0.377239 0.000000
0.480807 0.375841 0.000000
0.529871 0.374441 0.000000
0.578935 0.373042 0.000000
0.627954 0.371644 0.000000
0.676884 0.370248 0.000000
0.725679 0.368857 0.000000
0.774296 0.367470 0.000000
0.822688 0.366090 0.000000
0.870813 0.364717 0.000000
0.918624 0.363354 0.000000
0.966078 0.362000 0.000000
1.000000 0.360658 0.000000
1.000000 0.359329 0.000000
1.000000 0.358810 0.000000
1.000000 0.358810 0.000000
1.000000 0.358810 0.000000
1.000000 0.358810 0.000000
1.000000 0.358810 0.000000
0.000000 0.435888 0.000000
0.000000 0.435888 0.000000
0.000000 0.435888 0.000000
0.000000 0.435888 0.000000
0.000000 0.435888 0.000000
0.000000 0.434741 0.000000
0.041964 0.433412 0.000000
0.089015 0.432070 0.000000
0.136469 0.430717 0.000000
0.184280 0.429353 0.000000
0.232405 0.427980 0.000000
0.280798 0.426600 0.000000
0.329414 0.425213 0.000000
0.378210 0.423822 0.000000
0.427139 0.422426 0.000000
0.476158 0.421028 0.000000
0.525222 0.419629 0.000000
0.574286 0.418229 0.000000
0.623305 0.416831 0.000000
0.672235 0.415436 0.000000
0.721030 0.414044 0.000000
0.769646 0.412657 0.000000
0.818039 0.411277 0.000000
0.866164 0.409905 0.000000
0.913975 0.408541 0.000000
0.961429 0.407188 0.000000
1.000000 0.405846 0.000000
1.000000 0.404516 0.000000
1.000000 0.403998 0.000000
1.000000 0.403998 0.000000
1.000000 0.403998 0.000000
1.000000 0.403998 0.000000
1.000000 0.403998 0.000000
0.000000 0.481158 0.000000
0.000000 0.481158 0.000000
0.000000 0.481158 0.000000
0.000000 0.481158 0.000000
0.000000 0.481158 0.000000
0.000000 0.480011 0.000000
0.037307 0.478682 0.000000
0.084358 0.477340 0.000000
0.131811 0.475987 0.000000
0.179623 0.474623 0.000000
0.227747 0.473250 0.000000
0.276140 0.471870 0.000000
0.324757 0.470484 0.000000
0.373552 0.469092 0.000000
0.422482 0.467696 0.000000
0.471501 0.466298 0.000000
0.520565 0.464899 0.000000
0.569628 0.463499 0.000000
0.618647 0.462101 0.000000
0.667577 0.460706 0.000000
0.716372 0.459314 0.000000
0.764989 0.457928 0.000000
0.813382 0.456547 0.000000
0.861506 0.455175 0.000000
0.909318 0.453811 0.000000
0.956771 0.452458 0.000000
1.000000 0.451116 0.000000
1.000000 0.449786 0.000000
1.000000 0.449268 0.000000
1.000000 0.449268 0.000000
1.000000 0.449268 0.000000
1.000000 0.449268 0.000000
1.000000 0.449268 0.000000
0.000000 0.526469 0.000000
0.000000 0.526469 0.000000
0.000000 0.526469 0.000000
0.000000 0.526469 0.000000
0.000000 0.526469 0.000000
0.000000 0.525323 0.000000
0.032645 0.523993 0.000000
0.079696 0.522651 0.000000
0.127150 0.521298 0.000000
0.174961 0.519934 0.000000
0.223085 0.518562 0.000000
0.271478 0.517182 0.000000
0.320095 0.515795 0.000000
0.368890 0.514403 0.000000
0.417820 0.513008 0.000000
0.466839 0.511610 0.000000
0.515903 0.510210 0.000000
0.564966 0.508811 0.000000
0.613986 0.507413 0.000000
0.662915 0.506017 0.000000
0.711711 0.504625 0.000000
0.760327 0.503239 0.000000
0.808720 0.501859 0.000000
0.856844 0.500486 0.000000
0.904656 0.499122 0.000000
0.952109 0.497769 0.000000
0.999161 0.496427 0.000000
1.000000 0.495098 0.000000
1.000000 0.494579 0.000000
1.000000 0.494579 0.000000
1.000000 0.494579 0.000000
1.000000 0.494579 0.000000
1.000000 0.494579 0.000000
0.000000 0.571781 0.000000
0.000000 0.571781 0.000000
0.000000 0.571781 0.000000
0.000000 0.571781 0.000000
0.000000 0.571781 0.000000
0.000000 0.570634 0.000000
0.027983 0.569305 0.000000
0.075034 0.567963 0.000000
0.122488 0.566609 0.000000
0.170299 0.565246 0.000000
0.218424 0.563873 0.000000
0.266817 0.562493 0.000000
0.315433 0.561106 0.000000
0.364228 0.559715 0.000000
0.413158 0.558319 0.000000
0.462177 0.556921 0.000000
0.511241 0.555522 0.000000
0.560305 0.554122 0.000000
0.609324 0.552724 0.000000
0.658253 0.551329 0.000000
0.707049 0.549937 0.000000
0.755665 0.548550 0.000000
0.804058 0.547170 0.000000
0.852183 0.545797 0.000000
0.899994 0.544434 0.000000
0.947448 0.543080 0.000000
0.994499 0.541738 0.000000
1.000000 0.540409 0.000000
1.000000 0.539891 0.000000
1.000000 0.539891 0.000000
1.000000 0.539891 0.000000
1.000000 0.539891 0.000000
1.000000 0.539891 0.000000
0.000000 0.617051 0.000000
0.000000 0.617051 0.000000
0.000000 0.617051 0.000000
0.000000 0.617051 0.000000
0.000000 0.617051 0.000000
0.000000 0.615904 0.000000
0.023325 0.614575 0.000000
0.070376 0.613233 0.000000
0.117830 0.611879 0.000000
0.165642 0.610516 0.000000
0.213766 0.609143 0.000000
0.262159 0.607763 0.000000
0.310775 0.606376 0.000000
0.359571 0.604985 0.000000
0.408500 0.603589 0.000000
0.457519 0.602191 0.000000
0.506583 0.600792 0.000000
0.555647 0.599392 0.000000
0.604666 0.597994 0.000000
0.653596 0.596599 0.000000
0.702391 0.595207 0.000000
0.751008 0.593820 0.000000
0.799400 0.592440 0.000000
0.847525 0.591067 0.000000
0.895336 0.589704 0.000000
0.942790 0.588350 0.000000
0.989841 0.587008 0.000000
1.000000 0.585679 0.000000
1.000000 0.585161 0.000000
1.000000 0.585161 0.000000
1.000000 0.585161 0.000000
1.000000 0.585161 0.000000
1.000000 0.585161 0.000000
0.000000 0.662238 0.000000
0.000000 0.662238 0.000000
0.000000 0.662238 0.000000
0.000000 0.662238 0.000000
0.000000 0.662238 0.000000
0.000000 0.661091 0.000000
0.018676 0.659762 0.000000
0.065727 0.658420 0.000000
0.113181 0.657067 0.000000
0.160992 0.655703 0.000000
0.209117 0.654331 0.000000
0.257510 0.652950 0.000000
0.306126 0.651564 0.000000
0.354922 0.650172 0.000000
0.403851 0.648777 0.000000
0.452870 0.647378 0.000000
0.501934 0.645979 0.000000
0.550998 0.644580 0.000000
0.600017 0.643182 0.000000
0.648947 0.641786 0.000000
0.697742 0.640394 0.000000
0.746358 0.639008 0.000000
0.794751 0.637628 0.000000
0.842876 0.636255 0.000000
0.890687 0.634891 0.000000
0.938141 0.633538 0.000000
0.985192 0.632196 0.000000
1.000000 0.630867 0.000000
1.000000 0.630348 0.000000
1.000000 0.630348 0.000000
1.000000 0.630348 0.000000
1.000000 0.630348 0.000000
1.000000 0.630348 0.000000
0.000000 0.707302 0.000000
0.000000 0.707302 0.000000
0.000000 0.707302 0.000000
0.000000 0.707302 0.000000
0.000000 0.707302 0.000000
0.000000 0.706155 0.000000
0.014040 0.704826 0.000000
0.061091 0.703484 0.000000
0.108545 0.702130 0.000000
0.156356 0.700767 0.000000
0.204481 0.699394 0.000000
0.252873 0.698014 0.000000
0.301490 0.696627 0.000000
0.350285 0.695236 0.000000
0.399215 0.693840 0.000000
0.448234 0.692442 0.000000
0.497298 0.691043 0.000000
0.546362 0.689643 0.000000
0.595381 0.688245 0.000000
0.644310 0.686850 0.000000
0.693106 0.685458 0.000000
0.741722 0.684071 0.000000
0.790115 0.682691 0.000000
0.838240 0.681318 0.000000
0.886051 0.679955 0.000000
0.933505 0.678601 0.000000
0.980556 0.677259 0.000000
1.000000 0.675930 0.000000
1.000000 0.675412 0.000000
1.000000 0.675412 0.000000
1.000000 0.675412 0.000000
1.000000 0.675412 0.000000
1.000000 0.675412 0.000000
0.000000 0.752200 0.000000
0.000000 0.752200 0.000000
0.000000 0.752200 0.000000
0.000000 0.752200 0.000000
0.000000 0.752200 0.000000
0.000000 0.751053 0.000000
0.009421 0.749724 0.000000
0.056472 0.748382 0.000000
0.103925 0.747029 0.000000
0.151737 0.745665 0.000000
0.199861 0.744292 0.000000
0.248254 0.742912 0.000000
0.296871 0.741526 0.000000
0.345666 0.740134 0.000000
0.394596 0.738738 0.000000
0.443615 0.737340 0.000000
0.492678 0.735941 0.000000
0.541742 0.734542 0.000000
0.590761 0.733143 0.000000
0.639691 0.731748 0.000000
0.688486 0.730356 0.000000
0.737103 0.728970 0.000000
0.785496 0.727589 0.000000
0.833620 0.726217 0.000000
0.881432 0.724853 0.000000
0.928885 0.723500 0.000000
0.975936 0.722158 0.000000
1.000000 0.720828 0.000000
1.000000 0.720310 0.000000
1.000000 0.720310 0.000000
1.000000 0.720310 0.000000
1.000000 0.720310 0.000000
1.000000 0.720310 0.000000
0.000000 0.796892 0.000000
0.000000 0.796892 0.000000
0.000000 0.796892 0.000000
0.000000 0.796892 0.000000
0.000000 0.796892 0.000000
0.000000 0.795745 0.000000
0.004822 0.794416 0.000000
0.051874 0.793074 0.000000
0.099327 0.791720 0.000000
0.147139 0.790357 0.000000
0.195263 0.788984 0.000000
0.243656 0.787604 0.000000
0.292273 0.786217 0.000000
0.341068 0.784826 0.000000
0.389998 0.783430 0.000000
0.439017 0.782032 0.000000
0.488080 0.780633 0.000000
0.537144 0.779233 0.000000
0.586163 0.777835 0.000000
0.635093 0.776440 0.000000
0.683888 0.775048 0.000000
0.732505 0.773661 0.000000
0.780898 0.772281 0.000000
0.829022 0.770909 0.000000
0.876834 0.769545 0.000000
0.924287 0.768191 0.000000
0.971338 0.766849 0.000000
1.000000 0.765520 0.000000
1.000000 0.765002 0.000000
1.000000 0.765002 0.000000
1.000000 0.765002 0.000000
1.000000 0.765002 0.000000
1.000000 0.765002 0.000000
0.000000 0.841336 0.000000
0.000000 0.841336 0.000000
0.000000 0.841336 0.000000
0.000000 0.841336 0.000000
0.000000 0.841336 0.000000
0.000000 0.840189 0.000000
0.000250 0.838860 0.000000
0.047301 0.837518 0.000000
0.094755 0.836164 0.000000
0.142566 0.834801 0.000000
0.190691 0.833428 0.000000
0.239083 0.832048 0.000000
0.287700 0.830661 0.000000
0.336495 0.829270 0.000000
0.385425 0.827874 0.000000
0.434444 0.826476 0.000000
0.483508 0.825077 0.000000
0.532572 0.823677 0.000000
0.581591 0.822279 0.000000
0.630520 0.820884 0.000000
0.679316 0.819492 0.000000
0.727932 0.818105 0.000000
0.776325 0.816725 0.000000
0.824449 0.815352 0.000000
0.872261 0.813989 0.000000
0.919715 0.812635 0.000000
0.966766 0.811293 0.000000
1.000000 0.809964 0.000000
1.000000 0.809446 0.000000
1.000000 0.809446 0.000000
1.000000 0.809446 0.000000
1.000000 0.809446 0.000000
1.000000 0.809446 0.000000
0.000000 0.885490 0.000000
0.000000 0.885490 0.000000
0.000000 0.885490 0.000000
0.000000 0.885490 0.000000
0.000000 0.885490 0.000000
0.000000 0.884344 0.000000
0.000000 0.883015 0.000000
0.042758 0.881673 0.000000
0.090212 0.880319 0.000000
0.138023 0.878955 0.000000
0.186148 0.877583 0.000000
0.234541 0.876203 0.000000
0.283157 0.874816 0.000000
0.331952 0.873424 0.000000
0.380882 0.872029 0.000000
0.429901 0.870631 0.000000
0.478965 0.869231 0.000000
0.528029 0.867832 0.000000
0.577048 0.866434 0.000000
0.625977 0.865038 0.000000
0.674773 0.863647 0.000000
0.723389 0.862260 0.000000
0.771782 0.860880 0.000000
0.819907 0.859507 0.000000
0.867718 0.858144 0.000000
0.915172 0.856790 0.000000
0.962223 0.855448 0.000000
1.000000 0.854119 0.000000
1.000000 0.853600 0.000000
1.000000 0.853600 0.000000
1.000000 0.853600 0.000000
1.000000 0.853600 0.000000
1.000000 0.853600 0.000000
0.000000 0.929315 0.000000
0.000000 0.929315 0.000000
0.000000 0.929315 0.000000
0.000000 0.929315 0.000000
0.000000 0.929315 0.000000
0.000000 0.928168 0.000000
0.000000 0.926839 0.000000
0.038249 0.925497 0.000000
0.085703 0.924143 0.000000
0.133514 0.922780 0.000000
0.181639 0.921407 0.000000
0.230032 0.920027 0.000000
0.278648 0.918640 0.000000
0.327444 0.917249 0.000000
0.376373 0.915853 0.000000
0.425392 0.914455 0.000000
0.474456 0.913056 0.000000
0.523520 0.911656 0.000000
0.572539 0.910258 0.000000
0.621468 0.908863 0.000000
0.670264 0.907471 0.000000
0.718880 0.906084 0.000000
0.767273 0.904704 0.000000
0.815398 0.903332 0.000000
0.863209 0.901968 0.000000
0.910663 0.900615 0.000000
0.957714 0.899273 0.000000
1.000000 0.897943 0.000000
1.000000 0.897425 0.000000
1.000000 0.897425 0.000000
1.000000 0.897425 0.000000
1.000000 0.897425 0.000000
1.000000 0.897425 0.000000
0.000000 0.972767 0.000000
0.000000 0.972767 0.000000
0.000000 0.972767 0.000000
0.000000 0.972767 0.000000
0.000000 0.972767 0.000000
0.000000 0.971621 0.000000
0.000000 0.970291 0.000000
0.033779 0.968950 0.000000
0.081232 0.967596 0.000000
0.129044 0.966232 0.000000
0.177168 0.964860 0.000000
0.225561 0.963480 0.000000
0.274178 0.962093 0.000000
0.322973 0.960701 0.000000
0.371903 0.959306 0.000000
0.420922 0.957908 0.000000
0.469985 0.956508 0.000000
0.519049 0.955109 0.000000
0.568068 0.953711 0.000000
0.616998 0.952315 0.000000
0.665793 0.950924 0.000000
0.714410 0.949537 0.000000
0.762803 0.948157 0.000000
0.810927 0.946784 0.000000
0.858739 0.945421 0.000000
0.906192 0.944067 0.000000
0.953243 0.942725 0.000000
