assets/preview/luts/misty_film_teal.cube
TITLE "Misty Film Teal"
LUT_3D_SIZE 5
DOMAIN_MIN 0.0 0.0 0.0
DOMAIN_MAX 1.0 1.0 1.0
0.090023 0.099210 0.097697
0.261311 0.105007 0.103494
0.428392 0.110661 0.109148
0.594993 0.116299 0.114786
0.764842 0.122047 0.120534
0.112953 0.292545 0.118155
0.284241 0.298341 0.123951
0.451322 0.303996 0.129606
0.617923 0.309634 0.135244
0.787773 0.315382 0.140992
0.135443 0.482160 0.138218
0.306730 0.487957 0.144015
0.473811 0.493611 0.149669
0.640324 0.499332 0.155352
0.809365 0.505834 0.161507
0.157422 0.672218 0.158534
0.327894 0.678775 0.164741
0.494179 0.685172 0.170795
0.659986 0.691550 0.176833
0.829027 0.698052 0.182988
0.177463 0.868146 0.180429
0.347935 0.874703 0.186636
0.514220 0.881099 0.192691
0.680028 0.887477 0.198728
0.849068 0.893980 0.204883
0.092278 0.101222 0.268074
0.263566 0.107018 0.273871
0.430646 0.112673 0.279525
0.597248 0.118311 0.285163
0.767097 0.124059 0.290911
0.115208 0.294556 0.288531
0.286496 0.300353 0.294328
0.453577 0.306007 0.299982
0.620178 0.311645 0.305621
0.790027 0.317393 0.311368
0.137697 0.484172 0.308595
0.308985 0.489968 0.314392
0.476066 0.495623 0.320046
0.642296 0.501607 0.325871
0.811336 0.508109 0.332026
0.159393 0.674493 0.329053
0.329865 0.681051 0.335260
0.496150 0.687447 0.341315
0.661958 0.693825 0.347352
0.830998 0.700327 0.353507
0.179435 0.870421 0.350948
0.349907 0.876978 0.357155
0.516192 0.883375 0.363210
0.681999 0.889753 0.369247
0.851040 0.896255 0.375402
0.094477 0.103184 0.434273
0.265765 0.108980 0.440070
0.432846 0.114635 0.445724
0.599447 0.120273 0.451362
0.769296 0.126021 0.457110
0.117407 0.296518 0.454730
0.288695 0.302315 0.460527
0.455776 0.307969 0.466181
0.622377 0.313607 0.471820
0.792226 0.319355 0.477567
0.139896 0.486134 0.474794
0.311184 0.491930 0.480591
0.478265 0.497585 0.486245
0.644219 0.503826 0.492209
0.813259 0.510329 0.498364
0.161316 0.676713 0.495391
0.331788 0.683270 0.501598
0.498073 0.689666 0.507653
0.663881 0.696044 0.513690
0.832921 0.702547 0.519845
0.181358 0.872640 0.517286
0.351830 0.879198 0.523493
0.518115 0.885594 0.529548
0.683922 0.891972 0.535585
0.852963 0.898474 0.541740
0.096672 0.105142 0.600171
0.267960 0.110939 0.605967
0.435041 0.116593 0.611622
0.601642 0.122231 0.617260
0.771491 0.127979 0.623008
0.119602 0.298476 0.620628
0.290890 0.304273 0.626425
0.457971 0.309927 0.632079
0.624572 0.315565 0.637717
0.794421 0.321313 0.643465
0.142091 0.488092 0.640692
0.313379 0.493889 0.646488
0.480330 0.499664 0.652208
0.646138 0.506042 0.658245
0.815178 0.512544 0.664400
0.163235 0.678928 0.661427
0.333708 0.685486 0.667634
0.499993 0.691882 0.673689
0.665800 0.698260 0.679726
0.834841 0.704762 0.685881
0.183277 0.874856 0.683322
0.353749 0.881413 0.689529
0.520034 0.887810 0.695584
0.685842 0.894188 0.701621
0.854882 0.900690 0.707776
0.098914 0.107143 0.769643
0.270202 0.112939 0.775439
0.437283 0.118594 0.781094
0.603884 0.124232 0.786732
0.773734 0.129980 0.792480
0.121845 0.300477 0.790100
0.293132 0.306274 0.795897
0.460213 0.311928 0.801551
0.626814 0.317566 0.807189
0.796664 0.323314 0.812937
0.144334 0.490093 0.810164
0.315621 0.495889 0.815960
0.482291 0.501927 0.821821
0.648099 0.508305 0.827859
0.817139 0.514807 0.834014
0.165196 0.681191 0.831041
0.335668 0.687749 0.837248
0.501953 0.694145 0.843302
0.667761 0.700523 0.849340
0.836801 0.707025 0.855494
0.185238 0.877119 0.852936
0.355710 0.883676 0.859143
0.521995 0.890073 0.865198
0.687803 0.896451 0.871235
0.856843 0.902953 0.877390
