assets/preview/luts/misty_film_teal.cube
TITLE "Misty Film Teal"
LUT_3D_SIZE 33
DOMAIN_MIN 0.0 0.0 0.0
DOMAIN_MAX 1.0 1.0 1.0
0.090023 0.099210 0.097697
0.111792 0.099947 0.098434
0.133444 0.100680 0.099167
0.154986 0.101409 0.099896
0.176426 0.102134 0.100621
0.197771 0.102857 0.101344
0.219029 0.103576 0.102063
0.240207 0.104293 0.102780
0.261311 0.105007 0.103494
0.282350 0.105719 0.104206
0.303330 0.106429 0.104916
0.324259 0.107137 0.105624
0.345145 0.107844 0.106331
0.365993 0.108550 0.107037
0.386812 0.109254 0.107741
0.407610 0.109958 0.108445
0.428392 0.110661 0.109148
0.449167 0.111364 0.109851
0.469942 0.112067 0.110554
0.490723 0.112771 0.111258
0.511520 0.113474 0.111961
0.532337 0.114179 0.112666
0.553184 0.114884 0.113371
0.574067 0.115591 0.114078
0.594993 0.116299 0.114786
0.615970 0.117009 0.115496
0.637005 0.117721 0.116208
0.658106 0.118435 0.116922
0.679279 0.119152 0.117639
0.700532 0.119871 0.118358
0.721872 0.120593 0.119080
0.743306 0.121319 0.119806
0.764842 0.122047 0.120534
0.092929 0.123707 0.100289
0.114697 0.124443 0.101026
0.136349 0.125176 0.101759
0.157891 0.125905 0.102488
0.179331 0.126631 0.103213
0.200677 0.127353 0.103936
0.221935 0.128072 0.104655
0.243112 0.128789 0.105372
0.264217 0.129503 0.106086
0.285255 0.130215 0.106798
0.306236 0.130925 0.107508
0.327165 0.131634 0.108216
0.348050 0.132340 0.108923
0.368898 0.133046 0.109629
0.389718 0.133750 0.110333
0.410515 0.134454 0.111037
0.431297 0.135158 0.111740
0.452072 0.135861 0.112443
0.472847 0.136564 0.113146
0.493629 0.137267 0.113850
0.514425 0.137971 0.114554
0.535243 0.138675 0.115258
0.556089 0.139381 0.115964
0.576972 0.140087 0.116670
0.597899 0.140796 0.117378
0.618876 0.141506 0.118088
0.639911 0.142217 0.118800
0.661011 0.142931 0.119514
0.682184 0.143648 0.120231
0.703437 0.144367 0.120950
0.724777 0.145089 0.121672
0.746212 0.145815 0.122398
0.767748 0.146544 0.123126
0.095821 0.148094 0.102870
0.117590 0.148831 0.103607
0.139241 0.149564 0.104339
0.160784 0.150293 0.105068
0.182224 0.151018 0.105794
0.203569 0.151741 0.106516
0.224827 0.152460 0.107236
0.246005 0.153177 0.107952
0.267109 0.153891 0.108667
0.288148 0.154603 0.109379
0.309128 0.155313 0.110089
0.330057 0.156021 0.110797
0.350942 0.156728 0.111504
0.371791 0.157434 0.112209
0.392610 0.158138 0.112914
0.413407 0.158842 0.113618
0.434190 0.159545 0.114321
0.454965 0.160248 0.115024
0.475739 0.160951 0.115727
0.496521 0.161655 0.116430
0.517317 0.162358 0.117134
0.538135 0.163063 0.117839
0.558982 0.163768 0.118544
0.579865 0.164475 0.119251
0.600791 0.165183 0.119959
0.621768 0.165893 0.120669
0.642803 0.166605 0.121381
0.663904 0.167319 0.122095
0.685077 0.168036 0.122811
0.706330 0.168755 0.123531
0.727670 0.169477 0.124253
0.749104 0.170202 0.124978
0.770640 0.170931 0.125707
0.098702 0.172381 0.105440
0.120470 0.173117 0.106176
0.142122 0.173850 0.106909
0.163664 0.174579 0.107638
0.185104 0.175305 0.108364
0.206450 0.176027 0.109086
0.227707 0.176746 0.109805
0.248885 0.177463 0.110522
0.269989 0.178177 0.111236
0.291028 0.178889 0.111948
0.312008 0.179599 0.112658
0.332938 0.180308 0.113367
0.353823 0.181014 0.114073
0.374671 0.181720 0.114779
0.395491 0.182425 0.115484
0.416288 0.183128 0.116187
0.437070 0.183832 0.116891
0.457845 0.184535 0.117594
0.478620 0.185238 0.118297
0.499402 0.185941 0.119000
0.520198 0.186645 0.119704
0.541016 0.187349 0.120408
0.561862 0.188055 0.121114
0.582745 0.188762 0.121821
0.603672 0.189470 0.122529
0.624649 0.190180 0.123239
0.645684 0.190891 0.123951
0.666784 0.191606 0.124665
0.687957 0.192322 0.125381
0.709210 0.193041 0.126100
0.730550 0.193764 0.126823
0.751985 0.194489 0.127548
0.773521 0.195218 0.128277
0.101571 0.196573 0.108000
0.123339 0.197310 0.108736
0.144991 0.198042 0.109469
0.166533 0.198771 0.110198
0.187974 0.199497 0.110924
0.209319 0.200219 0.111646
0.230577 0.200939 0.112365
0.251754 0.201655 0.113082
0.272859 0.202370 0.113796
0.293897 0.203082 0.114508
0.314878 0.203792 0.115218
0.335807 0.204500 0.115927
0.356692 0.205207 0.116633
0.377541 0.205912 0.117339
0.398360 0.206617 0.118043
0.419157 0.207321 0.118747
0.439940 0.208024 0.119451
0.460714 0.208727 0.120154
0.481489 0.209430 0.120857
0.502271 0.210133 0.121560
0.523067 0.210837 0.122264
0.543885 0.211542 0.122968
0.564732 0.212247 0.123674
0.585614 0.212954 0.124380
0.606541 0.213662 0.125089
0.627518 0.214372 0.125799
0.648553 0.215084 0.126510
0.669653 0.215798 0.127224
0.690826 0.216514 0.127941
0.712079 0.217234 0.128660
0.733419 0.217956 0.129382
0.754854 0.218681 0.130108
0.776390 0.219410 0.130837
0.104430 0.220678 0.110550
0.126198 0.221415 0.111287
0.147850 0.222148 0.112020
0.169392 0.222877 0.112749
0.190833 0.223602 0.113474
0.212178 0.224325 0.114197
0.233436 0.225044 0.114916
0.254613 0.225761 0.115633
0.275718 0.226475 0.116347
0.296756 0.227187 0.117059
0.317737 0.227897 0.117769
0.338666 0.228605 0.118477
0.359551 0.229312 0.119184
0.380400 0.230018 0.119890
0.401219 0.230722 0.120594
0.422016 0.231426 0.121298
0.442799 0.232129 0.122001
0.463573 0.232832 0.122704
0.484348 0.233535 0.123407
0.505130 0.234239 0.124111
0.525926 0.234942 0.124814
0.546744 0.235647 0.125519
0.567591 0.236352 0.126224
0.588473 0.237059 0.126931
0.609400 0.237767 0.127639
0.630377 0.238477 0.128349
0.651412 0.239189 0.129061
0.672512 0.239903 0.129775
0.693685 0.240620 0.130492
0.714938 0.241339 0.131211
0.736278 0.242061 0.131933
0.757713 0.242786 0.132658
0.779249 0.243515 0.133387
0.107279 0.244704 0.113092
0.129048 0.245441 0.113829
0.150700 0.246173 0.114562
0.172242 0.246902 0.115291
0.193682 0.247628 0.116016
0.215027 0.248350 0.116739
0.236285 0.249070 0.117458
0.257463 0.249786 0.118175
0.278567 0.250501 0.118889
0.299606 0.251213 0.119601
0.320586 0.251923 0.120311
0.341515 0.252631 0.121019
0.362401 0.253338 0.121726
0.383249 0.254043 0.122432
0.404068 0.254748 0.123136
0.424866 0.255452 0.123840
0.445648 0.256155 0.124543
0.466423 0.256858 0.125246
0.487198 0.257561 0.125950
0.507980 0.258264 0.126653
0.528776 0.258968 0.127357
0.549593 0.259673 0.128061
0.570440 0.260378 0.128767
0.591323 0.261085 0.129473
0.612249 0.261793 0.130181
0.633226 0.262503 0.130891
0.654262 0.263215 0.131603
0.675362 0.263929 0.132317
0.696535 0.264645 0.133034
0.717788 0.265365 0.133753
0.739128 0.266087 0.134475
0.760562 0.266812 0.135201
0.782098 0.267541 0.135929
0.110120 0.268657 0.115627
0.131889 0.269394 0.116364
0.153541 0.270126 0.117096
0.175083 0.270855 0.117825
0.196523 0.271581 0.118551
0.217868 0.272303 0.119273
0.239126 0.273023 0.119993
0.260304 0.273739 0.120709
0.281408 0.274454 0.121424
0.302447 0.275166 0.122136
0.323427 0.275876 0.122846
0.344356 0.276584 0.123554
0.365241 0.277291 0.124261
0.386090 0.277996 0.124966
0.406909 0.278701 0.125671
0.427707 0.279405 0.126375
0.448489 0.280108 0.127078
0.469264 0.280811 0.127781
0.490039 0.281514 0.128484
0.510820 0.282217 0.129187
0.531617 0.282921 0.129891
0.552434 0.283626 0.130596
0.573281 0.284331 0.131301
0.594164 0.285038 0.132008
0.615090 0.285746 0.132716
0.636067 0.286456 0.133426
0.657102 0.287168 0.134138
0.678203 0.287882 0.134852
0.699376 0.288598 0.135568
0.720629 0.289318 0.136288
0.741969 0.290040 0.137010
0.763403 0.290765 0.137735
0.784939 0.291494 0.138464
0.112953 0.292545 0.118155
0.134722 0.293281 0.118891
0.156374 0.294014 0.119624
0.177916 0.294743 0.120353
0.199356 0.295469 0.121079
0.220702 0.296191 0.121801
0.241959 0.296911 0.122520
0.263137 0.297627 0.123237
0.284241 0.298341 0.123951
0.305280 0.299053 0.124663
0.326260 0.299763 0.125373
0.347189 0.300472 0.126082
0.368075 0.301178 0.126788
0.388923 0.301884 0.127494
0.409742 0.302589 0.128198
0.430540 0.303292 0.128902
0.451322 0.303996 0.129606
0.472097 0.304699 0.130309
0.492872 0.305402 0.131012
0.513654 0.306105 0.131715
0.534450 0.306809 0.132419
0.555268 0.307513 0.133123
0.576114 0.308219 0.133829
0.596997 0.308926 0.134535
0.617923 0.309634 0.135244
0.638900 0.310344 0.135954
0.659936 0.311056 0.136665
0.681036 0.311770 0.137380
0.702209 0.312486 0.138096
0.723462 0.313205 0.138815
0.744802 0.313928 0.139537
0.766236 0.314653 0.140263
0.787773 0.315382 0.140992
0.115780 0.316374 0.120676
0.137548 0.317111 0.121413
0.159200 0.317844 0.122146
0.180742 0.318573 0.122875
0.202183 0.319298 0.123600
0.223528 0.320021 0.124322
0.244786 0.320740 0.125042
0.265963 0.321457 0.125759
0.287068 0.322171 0.126473
0.308106 0.322883 0.127185
0.329087 0.323593 0.127895
0.350016 0.324301 0.128603
0.370901 0.325008 0.129310
0.391750 0.325714 0.130015
0.412569 0.326418 0.130720
0.433366 0.327122 0.131424
0.454148 0.327825 0.132127
0.474923 0.328528 0.132830
0.495698 0.329231 0.133533
0.516480 0.329935 0.134236
0.537276 0.330639 0.134940
0.558094 0.331343 0.135645
0.578940 0.332049 0.136350
0.599823 0.332755 0.137057
0.620750 0.333463 0.137765
0.641727 0.334173 0.138475
0.662762 0.334885 0.139187
0.683862 0.335599 0.139901
0.705035 0.336316 0.140618
0.726288 0.337035 0.141337
0.747628 0.337757 0.142059
0.769063 0.338483 0.142784
0.790599 0.339211 0.143513
0.118600 0.340153 0.123192
0.140368 0.340890 0.123929
0.162020 0.341623 0.124662
0.183563 0.342352 0.125391
0.205003 0.343077 0.126116
0.226348 0.343800 0.126839
0.247606 0.344519 0.127558
0.268783 0.345236 0.128275
0.289888 0.345950 0.128989
0.310927 0.346662 0.129701
0.331907 0.347372 0.130411
0.352836 0.348080 0.131119
0.373721 0.348787 0.131826
0.394570 0.349492 0.132532
0.415389 0.350197 0.133236
0.436186 0.350901 0.133940
0.456969 0.351604 0.134643
0.477744 0.352307 0.135346
0.498518 0.353010 0.136049
0.519300 0.353714 0.136753
0.540096 0.354417 0.137456
0.560914 0.355122 0.138161
0.581761 0.355827 0.138866
0.602644 0.356534 0.139573
0.623570 0.357242 0.140281
0.644547 0.357952 0.140991
0.665582 0.358664 0.141703
0.686683 0.359378 0.142417
0.707856 0.360095 0.143134
0.729108 0.360814 0.143853
0.750448 0.361536 0.144575
0.771883 0.362261 0.145300
0.793419 0.362990 0.146029
0.121415 0.363888 0.125704
0.143184 0.364625 0.126440
0.164835 0.365358 0.127173
0.186378 0.366087 0.127902
0.207818 0.366812 0.128628
0.229163 0.367535 0.129350
0.250421 0.368254 0.130069
0.271598 0.368971 0.130786
0.292703 0.369685 0.131500
0.313742 0.370397 0.132212
0.334722 0.371107 0.132922
0.355651 0.371815 0.133631
0.376536 0.372522 0.134337
0.397385 0.373228 0.135043
0.418204 0.373932 0.135748
0.439001 0.374636 0.136451
0.459784 0.375339 0.137155
0.480559 0.376042 0.137858
0.501333 0.376745 0.138561
0.522115 0.377449 0.139264
0.542911 0.378152 0.139968
0.563729 0.378857 0.140672
0.584576 0.379562 0.141378
0.605459 0.380269 0.142085
0.626385 0.380977 0.142793
0.647362 0.381687 0.143503
0.668397 0.382399 0.144214
0.689498 0.383113 0.144929
0.710671 0.383830 0.145645
0.731924 0.384549 0.146364
0.753264 0.385271 0.147087
0.774698 0.385996 0.147812
0.796234 0.386725 0.148541
0.124226 0.387587 0.128211
0.145994 0.388324 0.128948
0.167646 0.389056 0.129681
0.189188 0.389785 0.130410
0.210629 0.390511 0.131135
0.231974 0.391233 0.131858
0.253232 0.391953 0.132577
0.274409 0.392669 0.133294
0.295514 0.393383 0.134008
0.316552 0.394095 0.134720
0.337533 0.394805 0.135430
0.358462 0.395514 0.136138
0.379347 0.396221 0.136845
0.400196 0.396926 0.137551
0.421015 0.397631 0.138255
0.441812 0.398334 0.138959
0.462594 0.399038 0.139662
0.483369 0.399741 0.140365
0.504144 0.400444 0.141068
0.524926 0.401147 0.141772
0.545722 0.401851 0.142475
0.566540 0.402555 0.143180
0.587387 0.403261 0.143885
0.608269 0.403968 0.144592
0.629196 0.404676 0.145300
0.650173 0.405386 0.146010
0.671208 0.406098 0.146722
0.692308 0.406812 0.147436
0.713481 0.407528 0.148153
0.734734 0.408247 0.148872
0.756074 0.408970 0.149594
0.777509 0.409695 0.150320
0.799045 0.410424 0.151048
0.127033 0.411256 0.130716
0.148801 0.411993 0.131453
0.170453 0.412726 0.132185
0.191996 0.413455 0.132914
0.213436 0.414180 0.133640
0.234781 0.414902 0.134362
0.256039 0.415622 0.135082
0.277216 0.416339 0.135798
0.298321 0.417053 0.136513
0.319360 0.417765 0.137224
0.340340 0.418475 0.137935
0.361269 0.419183 0.138643
0.382154 0.419890 0.139350
0.403003 0.420595 0.140055
0.423822 0.421300 0.140760
0.444619 0.422004 0.141463
0.465402 0.422707 0.142167
0.486177 0.423410 0.142870
0.506951 0.424113 0.143573
0.527733 0.424816 0.144276
0.548529 0.425520 0.144980
0.569347 0.426225 0.145684
0.590194 0.426930 0.146390
0.611077 0.427637 0.147097
0.632003 0.428345 0.147805
0.652980 0.429055 0.148515
0.674015 0.429767 0.149227
0.695116 0.430481 0.149941
0.716289 0.431198 0.150657
0.737541 0.431917 0.151376
0.758882 0.432639 0.152099
0.780316 0.433364 0.152824
0.801852 0.434093 0.153553
0.129838 0.434903 0.133218
0.151606 0.435640 0.133955
0.173258 0.436373 0.134687
0.194800 0.437102 0.135416
0.216240 0.437827 0.136142
0.237586 0.438550 0.136864
0.258844 0.439269 0.137584
0.280021 0.439986 0.138300
0.301126 0.440700 0.139015
0.322164 0.441412 0.139727
0.343145 0.442122 0.140437
0.364074 0.442830 0.141145
0.384959 0.443537 0.141852
0.405807 0.444243 0.142557
0.426627 0.444947 0.143262
0.447424 0.445651 0.143966
0.468206 0.446354 0.144669
0.488981 0.447057 0.145372
0.509756 0.447760 0.146075
0.530538 0.448464 0.146778
0.551334 0.449167 0.147482
0.572152 0.449872 0.148187
0.592998 0.450577 0.148892
0.613881 0.451284 0.149599
0.634808 0.451992 0.150307
0.655785 0.452702 0.151017
0.676820 0.453414 0.151729
0.697920 0.454128 0.152443
0.719093 0.454845 0.153159
0.740346 0.455564 0.153879
0.761686 0.456286 0.154601
0.783030 0.457096 0.155372
0.804463 0.457921 0.156152
0.132641 0.458536 0.135719
0.154409 0.459272 0.136455
0.176061 0.460005 0.137188
0.197603 0.460734 0.137917
0.219043 0.461460 0.138643
0.240389 0.462182 0.139365
0.261646 0.462901 0.140084
0.282824 0.463618 0.140801
0.303928 0.464332 0.141515
0.324967 0.465044 0.142227
0.345947 0.465754 0.142937
0.366877 0.466463 0.143646
0.387762 0.467169 0.144352
0.408610 0.467875 0.145058
0.429430 0.468579 0.145762
0.450227 0.469283 0.146466
0.471009 0.469987 0.147170
0.491784 0.470690 0.147873
0.512559 0.471393 0.148576
0.533341 0.472096 0.149279
0.554137 0.472800 0.149983
0.574955 0.473504 0.150687
0.595801 0.474210 0.151393
0.616684 0.474917 0.152099
0.637610 0.475625 0.152808
0.658588 0.476335 0.153518
0.679623 0.477046 0.154229
0.700686 0.477795 0.154962
0.721758 0.478606 0.155729
0.742910 0.479419 0.156499
0.764148 0.480236 0.157273
0.785481 0.481057 0.158050
0.806914 0.481881 0.158830
0.135443 0.482160 0.138218
0.157211 0.482897 0.138955
0.178863 0.483630 0.139688
0.200405 0.484359 0.140417
0.221845 0.485084 0.141142
0.243191 0.485807 0.141865
0.264448 0.486526 0.142584
0.285626 0.487243 0.143301
0.306730 0.487957 0.144015
0.327769 0.488669 0.144727
0.348749 0.489379 0.145437
0.369678 0.490087 0.146145
0.390564 0.490794 0.146852
0.411412 0.491500 0.147558
0.432232 0.492204 0.148262
0.453029 0.492908 0.148966
0.473811 0.493611 0.149669
0.494586 0.494314 0.150372
0.515361 0.495017 0.151075
0.536143 0.495721 0.151779
0.556939 0.496424 0.152483
0.577757 0.497129 0.153187
0.598603 0.497834 0.153893
0.619486 0.498541 0.154599
0.640324 0.499332 0.155352
0.661201 0.500135 0.156112
0.682136 0.500940 0.156874
0.703136 0.501748 0.157639
0.724209 0.502558 0.158406
0.745360 0.503372 0.159176
0.766599 0.504189 0.159950
0.787931 0.505009 0.160726
0.809365 0.505834 0.161507
0.138244 0.505784 0.140718
0.160013 0.506521 0.141455
0.181665 0.507254 0.142188
0.203207 0.507983 0.142917
0.224647 0.508709 0.143642
0.245993 0.509431 0.144365
0.267250 0.510150 0.145084
0.288428 0.510867 0.145801
0.309532 0.511581 0.146515
0.330571 0.512293 0.147227
0.351551 0.513003 0.147937
0.372480 0.513711 0.148645
0.393366 0.514418 0.149352
0.414214 0.515124 0.150057
0.435033 0.515828 0.150762
0.455831 0.516532 0.151466
0.476613 0.517235 0.152169
0.497388 0.517939 0.152872
0.518163 0.518642 0.153575
0.538945 0.519345 0.154279
0.559698 0.520088 0.155004
0.580417 0.520885 0.155758
0.601164 0.521683 0.156513
0.621948 0.522483 0.157270
0.642774 0.523284 0.158029
0.663652 0.524087 0.158789
0.684587 0.524892 0.159551
0.705586 0.525700 0.160316
0.726659 0.526510 0.161083
0.747810 0.527324 0.161853
0.769049 0.528141 0.162626
0.790381 0.528962 0.163403
0.811815 0.529786 0.164183
0.141047 0.529415 0.143219
0.162816 0.530152 0.143955
0.184467 0.530885 0.144688
0.206010 0.531614 0.145417
0.227450 0.532339 0.146143
0.248795 0.533062 0.146865
0.270053 0.533781 0.147584
0.291231 0.534498 0.148301
0.312335 0.535212 0.149015
0.333374 0.535924 0.149727
0.354354 0.536634 0.150437
0.375283 0.537342 0.151146
0.396168 0.538049 0.151852
0.417017 0.538755 0.152558
0.437836 0.539459 0.153262
0.458633 0.540163 0.153966
0.479416 0.540866 0.154670
0.500093 0.541660 0.155422
0.520769 0.542456 0.156174
0.541452 0.543251 0.156928
0.562149 0.544047 0.157681
0.582868 0.544844 0.158436
0.603615 0.545642 0.159191
0.624399 0.546442 0.159948
0.645225 0.547243 0.160706
0.666102 0.548046 0.161466
0.687037 0.548851 0.162228
0.708037 0.549659 0.162993
0.729109 0.550470 0.163760
0.750261 0.551283 0.164530
0.771499 0.552100 0.165304
0.792832 0.552921 0.166081
0.814265 0.553745 0.166861
0.143852 0.553060 0.145721
0.165620 0.553797 0.146457
0.187272 0.554530 0.147190
0.208814 0.555259 0.147919
0.230254 0.555984 0.148645
0.251600 0.556707 0.149367
0.272857 0.557426 0.150086
0.294035 0.558143 0.150803
0.315139 0.558857 0.151517
0.336178 0.559569 0.152229
0.357158 0.560279 0.152939
0.378087 0.560987 0.153647
0.398973 0.561694 0.154354
0.419768 0.562449 0.155087
0.440488 0.563246 0.155841
0.461186 0.564042 0.156595
0.481870 0.564838 0.157348
0.502546 0.565633 0.158101
0.523221 0.566429 0.158853
0.543904 0.567224 0.159607
0.564601 0.568020 0.160360
0.585320 0.568817 0.161115
0.606067 0.569615 0.161870
0.626851 0.570415 0.162627
0.647677 0.571216 0.163385
0.668555 0.572019 0.164145
0.689490 0.572824 0.164907
0.710489 0.573632 0.165672
0.731562 0.574443 0.166439
0.752713 0.575256 0.167210
0.773952 0.576073 0.167983
0.795284 0.576894 0.168760
0.816718 0.577718 0.169540
0.146658 0.576726 0.148225
0.168427 0.577463 0.148961
0.190079 0.578196 0.149694
0.211621 0.578925 0.150423
0.233061 0.579650 0.151149
0.254407 0.580373 0.151871
0.275664 0.581092 0.152591
0.296842 0.581809 0.153307
0.317946 0.582523 0.154021
0.338978 0.583242 0.154737
0.359858 0.584045 0.155497
0.380687 0.584846 0.156256
0.401473 0.585646 0.157013
0.422222 0.586444 0.157768
0.442943 0.587241 0.158523
0.463641 0.588037 0.159276
0.484324 0.588833 0.160029
0.505000 0.589628 0.160782
0.525676 0.590423 0.161535
0.546359 0.591219 0.162288
0.567056 0.592015 0.163042
0.587774 0.592812 0.163796
0.608522 0.593610 0.164551
0.629305 0.594410 0.165308
0.650132 0.595211 0.166067
0.671009 0.596014 0.166827
0.691944 0.596819 0.167589
0.712944 0.597627 0.168354
0.734016 0.598437 0.169121
0.755168 0.599251 0.169891
0.776406 0.600068 0.170664
0.797738 0.600889 0.171441
0.819172 0.601713 0.172221
0.149469 0.600421 0.150732
0.171237 0.601157 0.151469
0.192889 0.601890 0.152201
0.214431 0.602619 0.152930
0.235871 0.603345 0.153656
0.257217 0.604067 0.154378
0.278416 0.604841 0.155127
0.299493 0.605652 0.155895
0.320496 0.606460 0.156659
0.341435 0.607265 0.157422
0.362315 0.608068 0.158182
0.383145 0.608870 0.158940
0.403930 0.609669 0.159697
0.424680 0.610467 0.160453
0.445400 0.611264 0.161207
0.466098 0.612060 0.161961
0.486781 0.612856 0.162714
0.507457 0.613651 0.163467
0.528133 0.614447 0.164220
0.548816 0.615242 0.164973
0.569513 0.616038 0.165726
0.590232 0.616835 0.166481
0.610979 0.617634 0.167236
0.631763 0.618433 0.167993
0.652589 0.619234 0.168751
0.673466 0.620037 0.169511
0.694401 0.620842 0.170274
0.715401 0.621650 0.171038
0.736473 0.622461 0.171805
0.757625 0.623274 0.172576
0.778863 0.624091 0.173349
0.800196 0.624912 0.174126
0.821629 0.625736 0.174906
0.152283 0.624151 0.153243
0.174052 0.624887 0.153980
0.195699 0.625624 0.154714
0.217139 0.626449 0.155495
0.238477 0.627270 0.156272
0.259720 0.628087 0.157046
0.280877 0.628901 0.157816
0.301954 0.629711 0.158583
0.322958 0.630519 0.159348
0.343896 0.631325 0.160110
0.364776 0.632128 0.160871
0.385606 0.632929 0.161629
0.406392 0.633729 0.162386
0.427141 0.634527 0.163141
0.447861 0.635324 0.163896
0.468559 0.636120 0.164650
0.489243 0.636916 0.165403
0.509919 0.637711 0.166155
0.530594 0.638506 0.166908
0.551277 0.639302 0.167661
0.571974 0.640098 0.168415
0.592693 0.640895 0.169169
0.613440 0.641693 0.169925
0.634224 0.642492 0.170682
0.655050 0.643294 0.171440
0.675927 0.644097 0.172200
0.696862 0.644902 0.172962
0.717862 0.645710 0.173727
0.738934 0.646520 0.174494
0.760086 0.647334 0.175264
0.781325 0.648151 0.176038
0.802657 0.648971 0.176814
0.824091 0.649796 0.177595
0.154951 0.648065 0.155835
0.176616 0.648898 0.156623
0.198164 0.649727 0.157408
0.219604 0.650552 0.158189
0.240942 0.651372 0.158966
0.262186 0.652189 0.159739
0.283342 0.653003 0.160509
0.304419 0.653814 0.161277
0.325423 0.654622 0.162042
0.346362 0.655427 0.162804
0.367242 0.656231 0.163564
0.388071 0.657032 0.164323
0.408857 0.657831 0.165080
0.429606 0.658629 0.165835
0.450326 0.659427 0.166589
0.471025 0.660223 0.167343
0.491708 0.661018 0.168096
0.512384 0.661814 0.168849
0.533060 0.662609 0.169602
0.553743 0.663405 0.170355
0.574440 0.664201 0.171109
0.595158 0.664998 0.171863
0.615906 0.665796 0.172618
0.636689 0.666595 0.173375
0.657516 0.667396 0.174133
0.678393 0.668199 0.174894
0.699328 0.669005 0.175656
0.720328 0.669812 0.176420
0.741400 0.670623 0.177188
0.762552 0.671437 0.177958
0.783790 0.672254 0.178731
0.805122 0.673074 0.179508
0.826556 0.673899 0.180288
0.157422 0.672218 0.158534
0.179086 0.673051 0.159323
0.200635 0.673880 0.160107
0.222075 0.674705 0.160888
0.243413 0.675526 0.161665
0.264657 0.676343 0.162438
0.285813 0.677157 0.163209
0.306890 0.677967 0.163976
0.327894 0.678775 0.164741
0.348832 0.679581 0.165503
0.369713 0.680384 0.166263
0.390542 0.681185 0.167022
0.411328 0.681985 0.167779
0.432077 0.682783 0.168534
0.452797 0.683580 0.169289
0.473495 0.684376 0.170042
0.494179 0.685172 0.170795
0.514855 0.685967 0.171548
0.535530 0.686762 0.172301
0.556213 0.687558 0.173054
0.576910 0.688354 0.173808
0.597629 0.689151 0.174562
0.618376 0.689949 0.175318
0.639160 0.690749 0.176074
0.659986 0.691550 0.176833
0.680864 0.692353 0.177593
0.701799 0.693158 0.178355
0.722799 0.693966 0.179120
0.743871 0.694776 0.179887
0.765022 0.695590 0.180657
0.786261 0.696407 0.181430
0.807593 0.697228 0.182207
0.829027 0.698052 0.182988
0.159898 0.696429 0.161239
0.181563 0.697263 0.162028
0.203112 0.698092 0.162813
0.224551 0.698916 0.163594
0.245890 0.699737 0.164370
0.267133 0.700554 0.165144
0.288290 0.701368 0.165914
0.309366 0.702179 0.166682
0.330370 0.702987 0.167446
0.351309 0.703792 0.168209
0.372189 0.704595 0.168969
0.393019 0.705397 0.169728
0.413804 0.706196 0.170484
0.434554 0.706994 0.171240
0.455274 0.707791 0.171994
0.475972 0.708588 0.172748
0.496655 0.709383 0.173501
0.517331 0.710178 0.174254
0.538007 0.710974 0.175007
0.558690 0.711769 0.175760
0.579387 0.712566 0.176513
0.600106 0.713362 0.177268
0.620853 0.714161 0.178023
0.641636 0.714960 0.178780
0.662463 0.715761 0.179538
0.683340 0.716564 0.180298
0.704275 0.717369 0.181061
0.725275 0.718177 0.181825
0.746347 0.718988 0.182593
0.767499 0.719801 0.183363
0.788737 0.720618 0.184136
0.810070 0.721439 0.184913
0.831503 0.722263 0.185693
0.162382 0.720706 0.163952
0.184046 0.721539 0.164741
0.205595 0.722368 0.165526
0.227035 0.723193 0.166306
0.248373 0.724014 0.167083
0.269616 0.724831 0.167857
0.290773 0.725645 0.168627
0.311850 0.726456 0.169395
0.332854 0.727263 0.170159
0.353792 0.728069 0.170922
0.374672 0.728872 0.171682
0.395502 0.729673 0.172441
0.416288 0.730473 0.173197
0.437037 0.731271 0.173953
0.457757 0.732068 0.174707
0.478455 0.732864 0.175461
0.499139 0.733660 0.176214
0.519815 0.734455 0.176967
0.540490 0.735250 0.177720
0.561173 0.736046 0.178473
0.581870 0.736842 0.179226
0.602589 0.737639 0.179981
0.623336 0.738437 0.180736
0.644120 0.739237 0.181493
0.664946 0.740038 0.182251
0.685824 0.740841 0.183011
0.706758 0.741646 0.183774
