assets/preview/luts/misty_film_teal.cube
TITLE "Misty Film Teal"
LUT_3D_SIZE 9
DOMAIN_MIN 0.0 0.0 0.0
DOMAIN_MAX 1.0 1.0 1.0
0.090023 0.099210 0.097697
0.176426 0.102134 0.100621
0.261311 0.105007 0.103494
0.345145 0.107844 0.106331
0.428392 0.110661 0.109148
0.511520 0.113474 0.111961
0.594993 0.116299 0.114786
0.679279 0.119152 0.117639
0.764842 0.122047 0.120534
0.101571 0.196573 0.108000
0.187974 0.199497 0.110924
0.272859 0.202370 0.113796
0.356692 0.205207 0.116633
0.439940 0.208024 0.119451
0.523067 0.210837 0.122264
0.606541 0.213662 0.125089
0.690826 0.216514 0.127941
0.776390 0.219410 0.130837
0.112953 0.292545 0.118155
0.199356 0.295469 0.121079
0.284241 0.298341 0.123951
0.368075 0.301178 0.126788
0.451322 0.303996 0.129606
0.534450 0.306809 0.132419
0.617923 0.309634 0.135244
0.702209 0.312486 0.138096
0.787773 0.315382 0.140992
0.124226 0.387587 0.128211
0.210629 0.390511 0.131135
0.295514 0.393383 0.134008
0.379347 0.396221 0.136845
0.462594 0.399038 0.139662
0.545722 0.401851 0.142475
0.629196 0.404676 0.145300
0.713481 0.407528 0.148153
0.799045 0.410424 0.151048
0.135443 0.482160 0.138218
0.221845 0.485084 0.141142
0.306730 0.487957 0.144015
0.390564 0.490794 0.146852
0.473811 0.493611 0.149669
0.556939 0.496424 0.152483
0.640324 0.499332 0.155352
0.724209 0.502558 0.158406
0.809365 0.505834 0.161507
0.146658 0.576726 0.148225
0.233061 0.579650 0.151149
0.317946 0.582523 0.154021
0.401473 0.585646 0.157013
0.484324 0.588833 0.160029
0.567056 0.592015 0.163042
0.650132 0.595211 0.166067
0.734016 0.598437 0.169121
0.819172 0.601713 0.172221
0.157422 0.672218 0.158534
0.243413 0.675526 0.161665
0.327894 0.678775 0.164741
0.411328 0.681985 0.167779
0.494179 0.685172 0.170795
0.576910 0.688354 0.173808
0.659986 0.691550 0.176833
0.743871 0.694776 0.179887
0.829027 0.698052 0.182988
0.167371 0.769484 0.169404
0.253362 0.772792 0.172535
0.337843 0.776042 0.175611
0.421277 0.779251 0.178648
0.504128 0.782438 0.181665
0.586860 0.785621 0.184677
0.669936 0.788816 0.187702
0.753820 0.792043 0.190757
0.838976 0.795318 0.193857
0.177463 0.868146 0.180429
0.263455 0.871453 0.183560
0.347935 0.874703 0.186636
0.431369 0.877912 0.189674
0.514220 0.881099 0.192691
0.596952 0.884282 0.195703
0.680028 0.887477 0.198728
0.763912 0.890704 0.201782
0.849068 0.893980 0.204883
0.091161 0.100225 0.183650
0.177563 0.103149 0.186574
0.262449 0.106022 0.189447
0.346282 0.108859 0.192284
0.429529 0.111676 0.195101
0.512657 0.114489 0.197914
0.596131 0.117314 0.200739
0.680416 0.120166 0.203592
0.765980 0.123062 0.206487
0.102708 0.197588 0.193952
0.189111 0.200512 0.196877
0.273996 0.203384 0.199749
0.357829 0.206221 0.202586
0.441077 0.209039 0.205403
0.524204 0.211852 0.208217
0.607678 0.214677 0.211042
0.691964 0.217529 0.213894
0.777527 0.220425 0.216790
0.114091 0.293559 0.204108
0.200494 0.296483 0.207032
0.285379 0.299356 0.209904
0.369212 0.302193 0.212741
0.452459 0.305010 0.215559
0.535587 0.307824 0.218372
0.619061 0.310648 0.221197
0.703346 0.313501 0.224049
0.788910 0.316396 0.226945
0.125363 0.388601 0.214164
0.211766 0.391526 0.217088
0.296651 0.394398 0.219961
0.380484 0.397235 0.222798
0.463732 0.400052 0.225615
0.546859 0.402866 0.228428
0.630333 0.405691 0.231253
0.714619 0.408543 0.234106
0.800182 0.411439 0.237001
0.136580 0.483175 0.224171
0.222983 0.486099 0.227095
0.307868 0.488972 0.229968
0.391701 0.491809 0.232805
0.474949 0.494626 0.235622
0.558076 0.497439 0.238435
0.641319 0.500479 0.241377
0.725203 0.503706 0.244431
0.810359 0.506982 0.247531
0.147796 0.577741 0.234178
0.234198 0.580665 0.237102
0.319034 0.583584 0.239999
0.402468 0.586794 0.243037
0.485319 0.589981 0.246054
0.568050 0.593163 0.249066
0.651126 0.596359 0.252091
0.735011 0.599585 0.255146
0.820167 0.602861 0.258246
0.158416 0.673366 0.244559
0.244407 0.676674 0.247690
0.328888 0.679923 0.250766
0.412322 0.683133 0.253803
0.495173 0.686320 0.256820
0.577905 0.689502 0.259833
0.660981 0.692698 0.262857
0.744865 0.695924 0.265912
0.830021 0.699200 0.269012
0.168366 0.770632 0.255428
0.254357 0.773940 0.258559
0.338838 0.777190 0.261635
0.422272 0.780399 0.264673
0.505123 0.783586 0.267690
0.587854 0.786768 0.270702
0.670930 0.789964 0.273727
0.754815 0.793191 0.276781
0.839971 0.796466 0.279882
0.178458 0.869294 0.266454
0.264449 0.872601 0.269585
0.348930 0.875851 0.272661
0.432364 0.879060 0.275699
0.515215 0.882247 0.278716
0.597947 0.885430 0.281728
0.681023 0.888625 0.284753
0.764907 0.891852 0.287807
0.850063 0.895128 0.290908
0.092278 0.101222 0.268074
0.178681 0.104146 0.270998
0.263566 0.107018 0.273871
0.347399 0.109855 0.276708
0.430646 0.112673 0.279525
0.513774 0.115486 0.282338
0.597248 0.118311 0.285163
0.681533 0.121163 0.288016
0.767097 0.124059 0.290911
0.103825 0.198584 0.278376
0.190228 0.201508 0.281300
0.275113 0.204381 0.284173
0.358946 0.207218 0.287010
0.442194 0.210035 0.289827
0.525322 0.212848 0.292641
0.608795 0.215673 0.295465
0.693081 0.218526 0.298318
0.778644 0.221421 0.301213
0.115208 0.294556 0.288531
0.201611 0.297480 0.291455
0.286496 0.300353 0.294328
0.370329 0.303190 0.297165
0.453577 0.306007 0.299982
0.536704 0.308820 0.302796
0.620178 0.311645 0.305621
0.704463 0.314497 0.308473
0.790027 0.317393 0.311368
0.126480 0.389598 0.298588
0.212883 0.392522 0.301512
0.297768 0.395395 0.304385
0.381601 0.398232 0.307222
0.464849 0.401049 0.310039
0.547976 0.403862 0.312852
0.631450 0.406687 0.315677
0.715736 0.409540 0.318530
0.801299 0.412435 0.321425
0.137697 0.484172 0.308595
0.224100 0.487096 0.311519
0.308985 0.489968 0.314392
0.392818 0.492805 0.317229
0.476066 0.495623 0.320046
0.559193 0.498436 0.322859
0.642296 0.501607 0.325871
0.726180 0.504833 0.328925
0.811336 0.508109 0.332026
0.148913 0.578738 0.318602
0.235316 0.581662 0.321526
0.320010 0.584712 0.324494
0.403444 0.587921 0.327532
0.486295 0.591108 0.330549
0.569027 0.594290 0.333561
0.652103 0.597486 0.336586
0.735987 0.600713 0.339640
0.821143 0.603988 0.342741
0.159393 0.674493 0.329053
0.245384 0.677801 0.332184
0.329865 0.681051 0.335260
0.413299 0.684260 0.338298
0.496150 0.687447 0.341315
0.578882 0.690629 0.344327
0.661958 0.693825 0.347352
0.745842 0.697052 0.350406
0.830998 0.700327 0.353507
0.169342 0.771760 0.339923
0.255334 0.775067 0.343054
0.339814 0.778317 0.346130
0.423249 0.781526 0.349168
0.506100 0.784713 0.352184
0.588831 0.787896 0.355197
0.671907 0.791091 0.358222
0.755791 0.794318 0.361276
0.840947 0.797594 0.364377
0.179435 0.870421 0.350948
0.265426 0.873729 0.354079
0.349907 0.876978 0.357155
0.433341 0.880188 0.360193
0.516192 0.883375 0.363210
0.598923 0.886557 0.366222
0.681999 0.889753 0.369247
0.765884 0.892979 0.372302
0.851040 0.896255 0.375402
0.093381 0.102206 0.351454
0.179784 0.105130 0.354378
0.264669 0.108003 0.357250
0.348502 0.110840 0.360087
0.431750 0.113657 0.362905
0.514877 0.116470 0.365718
0.598351 0.119295 0.368543
0.682637 0.122147 0.371395
0.768200 0.125043 0.374291
0.104929 0.199569 0.361756
0.191331 0.202493 0.364680
0.276216 0.205365 0.367553
0.360050 0.208202 0.370390
0.443297 0.211019 0.373207
0.526425 0.213833 0.376020
0.609898 0.216658 0.378845
0.694184 0.219510 0.381697
0.779748 0.222406 0.384593
0.116311 0.295540 0.371911
0.202714 0.298464 0.374835
0.287599 0.301337 0.377708
0.371432 0.304174 0.380545
0.454680 0.306991 0.383362
0.537807 0.309804 0.386175
0.621281 0.312629 0.389000
0.705567 0.315482 0.391852
0.791130 0.318377 0.394748
0.127583 0.390582 0.381968
0.213986 0.393506 0.384892
0.298871 0.396379 0.387764
0.382705 0.399216 0.390601
0.465952 0.402033 0.393419
0.549080 0.404847 0.396232
0.632553 0.407671 0.399057
0.716839 0.410524 0.401909
0.802403 0.413419 0.404805
0.138800 0.485156 0.391975
0.225203 0.488080 0.394899
0.310088 0.490953 0.397771
0.393921 0.493790 0.400608
0.477169 0.496607 0.403426
0.560184 0.499525 0.406295
0.643260 0.502720 0.409320
0.727145 0.505947 0.412374
0.812301 0.509223 0.415475
0.150016 0.579722 0.401981
0.236419 0.582646 0.404905
0.320975 0.585825 0.407943
0.404409 0.589034 0.410981
0.487260 0.592221 0.413998
0.569992 0.595404 0.417010
0.653068 0.598599 0.420035
0.736952 0.601826 0.423089
0.822108 0.605102 0.426190
0.160358 0.675607 0.412502
0.246349 0.678914 0.415633
0.330830 0.682164 0.418709
0.414264 0.685373 0.421747
0.497115 0.688560 0.424764
0.579846 0.691743 0.427776
0.662923 0.694938 0.430801
0.746807 0.698165 0.433855
0.831963 0.701441 0.436956
0.170307 0.772873 0.423372
0.256298 0.776181 0.426503
0.340779 0.779431 0.429579
0.424213 0.782640 0.432617
0.507064 0.785827 0.435634
0.589796 0.789009 0.438646
0.672872 0.792205 0.441671
0.756756 0.795432 0.444725
0.841912 0.798707 0.447826
0.180399 0.871534 0.434398
0.266391 0.874842 0.437529
0.350871 0.878092 0.440605
0.434305 0.881301 0.443642
0.517156 0.884488 0.446659
0.599888 0.887671 0.449672
0.682964 0.890866 0.452696
0.766848 0.894093 0.455751
0.852004 0.897368 0.458851
0.094477 0.103184 0.434273
0.180880 0.106108 0.437197
0.265765 0.108980 0.440070
0.349598 0.111817 0.442907
0.432846 0.114635 0.445724
0.515973 0.117448 0.448537
0.599447 0.120273 0.451362
0.683732 0.123125 0.454215
0.769296 0.126021 0.457110
0.106024 0.200546 0.444575
0.192427 0.203470 0.447499
0.277312 0.206343 0.450372
0.361146 0.209180 0.453209
0.444393 0.211997 0.456026
0.527521 0.214810 0.458840
0.610994 0.217635 0.461664
0.695280 0.220488 0.464517
0.780844 0.223383 0.467412
0.117407 0.296518 0.454730
0.203810 0.299442 0.457654
0.288695 0.302315 0.460527
0.372528 0.305152 0.463364
0.455776 0.307969 0.466181
0.538903 0.310782 0.468995
0.622377 0.313607 0.471820
0.706663 0.316459 0.474672
0.792226 0.319355 0.477567
0.128679 0.391560 0.464787
0.215082 0.394484 0.467711
0.299967 0.397357 0.470584
0.383800 0.400194 0.473421
0.467048 0.403011 0.476238
0.550176 0.405824 0.479051
0.633649 0.408649 0.481876
0.717935 0.411501 0.484729
0.803451 0.414442 0.487648
0.139896 0.486134 0.474794
0.226299 0.489058 0.477718
0.311184 0.491930 0.480591
0.395017 0.494767 0.483428
0.478265 0.497585 0.486245
0.561143 0.500631 0.489184
0.644219 0.503826 0.492209
0.728103 0.507053 0.495263
0.813259 0.510329 0.498364
0.151112 0.580700 0.484801
0.237453 0.583681 0.487756
0.321933 0.586931 0.490832
0.405367 0.590140 0.493870
0.488218 0.593327 0.496886
0.570950 0.596510 0.499899
0.654026 0.599705 0.502924
0.737910 0.602932 0.505978
0.823066 0.606208 0.509079
0.161316 0.676713 0.495391
0.247307 0.680020 0.498522
0.331788 0.683270 0.501598
0.415222 0.686479 0.504636
0.498073 0.689666 0.507653
0.580805 0.692849 0.510665
0.663881 0.696044 0.513690
0.747765 0.699271 0.516744
0.832921 0.702547 0.519845
0.171265 0.773979 0.506261
0.257257 0.777287 0.509392
0.341737 0.780536 0.512468
0.425172 0.783746 0.515506
0.508023 0.786933 0.518522
0.590754 0.790115 0.521535
0.673830 0.793311 0.524560
0.757714 0.796538 0.527614
0.842870 0.799813 0.530714
0.181358 0.872640 0.517286
0.267349 0.875948 0.520417
0.351830 0.879198 0.523493
0.435264 0.882407 0.526531
0.518115 0.885594 0.529548
0.600846 0.888776 0.532560
0.683922 0.891972 0.535585
0.767807 0.895199 0.538639
0.852963 0.898474 0.541740
0.095572 0.104160 0.517017
0.181975 0.107084 0.519941
0.266860 0.109957 0.522814
0.350693 0.112794 0.525651
0.433940 0.115611 0.528468
0.517068 0.118425 0.531281
0.600542 0.121249 0.534106
0.684827 0.124102 0.536959
0.770391 0.126997 0.539854
0.107119 0.201523 0.527320
0.193522 0.204447 0.530244
0.278407 0.207320 0.533116
0.362240 0.210157 0.535953
0.445488 0.212974 0.538771
0.528616 0.215787 0.541584
0.612089 0.218612 0.544409
0.696375 0.221464 0.547261
0.781938 0.224360 0.550157
0.118502 0.297495 0.537475
0.204905 0.300419 0.540399
0.289790 0.303291 0.543271
0.373623 0.306129 0.546108
0.456871 0.308946 0.548926
0.539998 0.311759 0.551739
0.623472 0.314584 0.554564
0.707757 0.317436 0.557416
0.793321 0.320332 0.560312
0.129774 0.392537 0.547531
0.216177 0.395461 0.550455
0.301062 0.398334 0.553328
0.384895 0.401171 0.556165
0.468143 0.403988 0.558982
0.551270 0.406801 0.561795
0.634744 0.409626 0.564620
0.719030 0.412478 0.567473
0.804408 0.415547 0.570462
0.140991 0.487110 0.557538
0.227394 0.490034 0.560462
0.312279 0.492907 0.563335
0.396112 0.495744 0.566172
0.479360 0.498561 0.568989
0.562100 0.501736 0.571997
0.645176 0.504931 0.575022
0.729060 0.508158 0.578077
0.814216 0.511434 0.581177
0.152207 0.581676 0.567545
0.238410 0.584786 0.570569
0.322891 0.588036 0.573645
0.406325 0.591245 0.576683
0.489176 0.594432 0.579700
0.571908 0.597615 0.582712
0.654984 0.600810 0.585737
0.738868 0.604037 0.588791
0.824024 0.607313 0.591892
0.162273 0.677818 0.578204
0.248265 0.681125 0.581335
0.332745 0.684375 0.584411
0.416179 0.687584 0.587449
0.499030 0.690771 0.590466
0.581762 0.693954 0.593478
0.664838 0.697149 0.596503
0.748722 0.700376 0.599557
0.833878 0.703652 0.602658
0.172223 0.775084 0.589074
0.258214 0.778392 0.592205
0.342695 0.781641 0.595281
0.426129 0.784851 0.598319
0.508980 0.788038 0.601336
0.591712 0.791220 0.604348
0.674788 0.794416 0.607373
0.758672 0.797642 0.610427
0.843828 0.800918 0.613528
0.182315 0.873745 0.600100
0.268306 0.877053 0.603231
0.352787 0.880303 0.606307
0.436221 0.883512 0.609345
0.519072 0.886699 0.612361
0.601804 0.889881 0.615374
0.684880 0.893077 0.618398
0.768764 0.896304 0.621453
0.853920 0.899579 0.624553
0.096672 0.105142 0.600171
0.183075 0.108066 0.603095
0.267960 0.110939 0.605967
0.351793 0.113776 0.608804
0.435041 0.116593 0.611622
0.518168 0.119406 0.614435
0.601642 0.122231 0.617260
0.685928 0.125083 0.620112
0.771491 0.127979 0.623008
0.108220 0.202505 0.610473
0.194622 0.205429 0.613397
0.279507 0.208301 0.616269
0.363341 0.211138 0.619107
0.446588 0.213956 0.621924
0.529716 0.216769 0.624737
0.613189 0.219594 0.627562
0.697475 0.222446 0.630414
0.783039 0.225342 0.633310
0.119602 0.298476 0.620628
0.206005 0.301400 0.623552
0.290890 0.304273 0.626425
0.374723 0.307110 0.629262
0.457971 0.309927 0.632079
0.541098 0.312741 0.634892
0.624572 0.315565 0.637717
0.708858 0.318418 0.640569
0.794421 0.321313 0.643465
0.130874 0.393518 0.630685
0.217277 0.396442 0.633609
0.302162 0.399315 0.636481
0.385996 0.402152 0.639318
0.469243 0.404969 0.642136
0.552371 0.407783 0.644949
0.635844 0.410608 0.647774
0.720130 0.413460 0.650626
0.805370 0.416657 0.653684
0.142091 0.488092 0.640692
0.228494 0.491016 0.643616
0.313379 0.493889 0.646488
0.397212 0.496726 0.649325
0.480330 0.499664 0.652208
0.563062 0.502846 0.655220
0.646138 0.506042 0.658245
0.730022 0.509268 0.661299
0.815178 0.512544 0.664400
0.153307 0.582658 0.650698
0.239372 0.585897 0.653792
0.323853 0.589146 0.656868
0.407287 0.592356 0.659906
0.490138 0.595543 0.662922
0.572870 0.598725 0.665935
0.655946 0.601921 0.668960
0.739830 0.605147 0.672014
0.824986 0.608423 0.675115
0.163235 0.678928 0.661427
0.249227 0.682236 0.664558
0.333708 0.685486 0.667634
0.417142 0.688695 0.670672
0.499993 0.691882 0.673689
0.582724 0.695064 0.676701
0.665800 0.698260 0.679726
0.749685 0.701487 0.682780
0.834841 0.704762 0.685881
0.173185 0.776195 0.672297
0.259176 0.779502 0.675428
0.343657 0.782752 0.678504
0.427091 0.785961 0.681542
0.509942 0.789148 0.684558
0.592674 0.792331 0.687571
0.675750 0.795526 0.690596
0.759634 0.798753 0.693650
0.844790 0.802029 0.696750
0.183277 0.874856 0.683322
0.269268 0.878164 0.686453
0.353749 0.881413 0.689529
0.437183 0.884623 0.692567
0.520034 0.887810 0.695584
0.602766 0.890992 0.698596
0.685842 0.894188 0.701621
0.769726 0.897414 0.704675
0.854882 0.900690 0.707776
0.097784 0.106134 0.684218
0.184187 0.109058 0.687142
0.269072 0.111931 0.690014
0.352905 0.114768 0.692851
0.436153 0.117585 0.695668
0.519280 0.120398 0.698482
0.602754 0.123223 0.701307
0.687040 0.126076 0.704159
0.772603 0.128971 0.707055
0.109332 0.203497 0.694520
0.195734 0.206421 0.697444
0.280619 0.209293 0.700316
0.364453 0.212130 0.703153
0.447700 0.214948 0.705971
0.530828 0.217761 0.708784
0.614302 0.220586 0.711609
0.698587 0.223438 0.714461
0.784151 0.226334 0.717357
0.120714 0.299469 0.704675
0.207117 0.302393 0.707599
0.292002 0.305265 0.710471
0.375835 0.308102 0.713309
0.459083 0.310920 0.716126
0.542211 0.313733 0.718939
0.625684 0.316558 0.721764
0.709970 0.319410 0.724616
0.795533 0.322306 0.727512
0.131987 0.394511 0.714732
0.218389 0.397435 0.717656
0.303274 0.400307 0.720528
0.387108 0.403144 0.723365
0.470355 0.405962 0.726182
0.553483 0.408775 0.728996
0.636956 0.411600 0.731821
0.721186 0.414504 0.734701
0.806342 0.417780 0.737802
0.143203 0.489084 0.724739
0.229606 0.492008 0.727663
0.314491 0.494881 0.730535
0.398324 0.497718 0.733372
0.481303 0.500786 0.736325
0.564035 0.503968 0.739337
0.647111 0.507164 0.742362
0.730995 0.510391 0.745416
0.816151 0.513666 0.748517
0.154353 0.583711 0.734778
0.240345 0.587019 0.737909
0.324825 0.590269 0.740985
0.408259 0.593478 0.744023
0.491110 0.596665 0.747040
0.573842 0.599848 0.750052
0.656918 0.603043 0.753077
0.740802 0.606270 0.756131
0.825958 0.609545 0.759232
0.164208 0.680050 0.745544
0.250199 0.683358 0.748675
0.334680 0.686608 0.751751
0.418114 0.689817 0.754789
0.500965 0.693004 0.757806
0.583697 0.696187 0.760818
0.666773 0.699382 0.763843
0.750657 0.702609 0.766897
0.835813 0.705885 0.769998
0.174157 0.777317 0.756414
0.260149 0.780625 0.759545
0.344629 0.783874 0.762621
0.428063 0.787084 0.765659
0.510914 0.790271 0.768676
0.593646 0.793453 0.771688
0.676722 0.796649 0.774713
0.760606 0.799875 0.777767
0.845762 0.803151 0.780868
0.184250 0.875978 0.767440
0.270241 0.879286 0.770571
0.354722 0.882536 0.773647
0.438156 0.885745 0.776684
0.521007 0.888932 0.779701
0.603738 0.892114 0.782713
0.686814 0.895310 0.785738
0.770699 0.898537 0.788793
0.855855 0.901812 0.791893
0.098914 0.107143 0.769643
0.185317 0.110067 0.772567
0.270202 0.112939 0.775439
0.354036 0.115776 0.778276
0.437283 0.118594 0.781094
0.520411 0.121407 0.783907
0.603884 0.124232 0.786732
0.688170 0.127084 0.789584
0.773734 0.129980 0.792480
0.110462 0.204505 0.779945
0.196865 0.207429 0.782869
0.281750 0.210302 0.785742
0.365583 0.213139 0.788579
0.448831 0.215956 0.791396
0.531958 0.218769 0.794209
0.615432 0.221594 0.797034
0.699718 0.224447 0.799886
0.785281 0.227342 0.802782
0.121845 0.300477 0.790100
0.208247 0.303401 0.793024
0.293132 0.306274 0.795897
0.376966 0.309111 0.798734
0.460213 0.311928 0.801551
0.543341 0.314741 0.804364
0.626814 0.317566 0.807189
0.711100 0.320418 0.810041
0.796664 0.323314 0.812937
0.133117 0.395519 0.800157
0.219520 0.398443 0.803081
0.304405 0.401316 0.805953
0.388238 0.404153 0.808790
0.471486 0.406970 0.811608
0.554613 0.409783 0.814421
0.638087 0.412608 0.817246
0.722175 0.415645 0.820197
0.807331 0.418920 0.823298
0.144334 0.490093 0.810164
0.230736 0.493017 0.813088
0.315621 0.495889 0.815960
0.399440 0.498740 0.818805
0.482291 0.501927 0.821821
0.565023 0.505109 0.824834
0.648099 0.508305 0.827859
0.731983 0.511531 0.830913
0.817139 0.514807 0.834014
0.155342 0.584852 0.820275
0.241333 0.588160 0.823406
0.325814 0.591410 0.826482
0.409248 0.594619 0.829520
0.492099 0.597806 0.832536
0.574831 0.600988 0.835549
0.657907 0.604184 0.838573
0.741791 0.607411 0.841628
0.826947 0.610686 0.844728
0.165196 0.681191 0.831041
0.251188 0.684499 0.834172
0.335668 0.687749 0.837248
0.419102 0.690958 0.840286
0.501953 0.694145 0.843302
0.584685 0.697327 0.846315
0.667761 0.700523 0.849340
0.751645 0.703750 0.852394
0.836801 0.707025 0.855494
0.175146 0.778458 0.841910
0.261137 0.781765 0.845041
0.345618 0.785015 0.848117
0.429052 0.788224 0.851155
0.511903 0.791411 0.854172
0.594635 0.794594 0.857184
0.677711 0.797789 0.860209
0.761595 0.801016 0.863264
0.846751 0.804292 0.866364
0.185238 0.877119 0.852936
0.271229 0.880427 0.856067
0.355710 0.883676 0.859143
0.439144 0.886886 0.862181
0.521995 0.890073 0.865198
0.604727 0.893255 0.868210
0.687803 0.896451 0.871235
0.771687 0.899677 0.874289
0.856843 0.902953 0.877390
