assets/preview/luts/moody_dark.cube
TITLE "Moody Dark"
LUT_3D_SIZE 5
DOMAIN_MIN 0.0 0.0 0.0
DOMAIN_MAX 1.0 1.0 1.0
0.000000 0.000000 0.008196
0.171933 0.000000 0.004172
0.405886 0.000000 0.000000
0.654789 0.000000 0.000000
0.913669 0.000000 0.000000
0.000000 0.177389 0.000000
0.161091 0.174373 0.000000
0.395009 0.170293 0.000000
0.643873 0.165953 0.000000
0.902712 0.161439 0.000000
0.000000 0.400634 0.000000
0.147433 0.397581 0.000000
0.381350 0.393502 0.000000
0.630214 0.389162 0.000000
0.889086 0.384574 0.000000
0.000000 0.634727 0.000000
0.133191 0.631453 0.000000
0.367250 0.627055 0.000000
0.616265 0.622376 0.000000
0.875260 0.617509 0.000000
0.000000 0.874900 0.000000
0.118940 0.871566 0.000000
0.352998 0.867168 0.000000
0.602013 0.862489 0.000000
0.861008 0.857622 0.000000
0.000000 0.000000 0.231422
0.170635 0.000000 0.227394
0.404588 0.000000 0.221945
0.653492 0.000000 0.216149
0.912371 0.000000 0.210120
0.000000 0.176083 0.216778
0.159782 0.173063 0.212692
0.393699 0.168983 0.207207
0.642563 0.164643 0.201372
0.901402 0.160129 0.195302
0.000000 0.399328 0.198450
0.146123 0.396272 0.194328
0.380040 0.392192 0.188843
0.628905 0.387852 0.183007
0.887824 0.383163 0.177159
0.000000 0.633376 0.179284
0.131930 0.630044 0.175429
0.365992 0.625649 0.170344
0.615009 0.620973 0.164934
0.874008 0.616110 0.159307
0.000000 0.873500 0.160881
0.117689 0.870168 0.157026
0.351751 0.865773 0.151941
0.600768 0.861097 0.146531
0.859767 0.856233 0.140904
0.000000 0.000000 0.471236
0.169240 0.000000 0.467204
0.403194 0.000000 0.461756
0.652097 0.000000 0.455959
0.910977 0.000000 0.449930
0.000000 0.174680 0.456580
0.158375 0.171656 0.452490
0.392292 0.167577 0.447005
0.641156 0.163236 0.441170
0.899995 0.158722 0.435100
0.000000 0.397925 0.438252
0.144716 0.394865 0.434126
0.378634 0.390785 0.428641
0.627498 0.386445 0.422805
0.886466 0.381648 0.417095
0.000000 0.631861 0.419220
0.130573 0.628528 0.415364
0.364634 0.624133 0.410279
0.613652 0.619457 0.404869
0.872651 0.614594 0.399242
0.000000 0.871984 0.400817
0.116332 0.868652 0.396962
0.350393 0.864257 0.391877
0.599411 0.859581 0.386467
0.858410 0.854717 0.380840
0.000000 0.000000 0.717738
0.167807 0.000000 0.713702
0.401761 0.000000 0.708254
0.650664 0.000000 0.702457
0.909544 0.000000 0.696428
0.000000 0.173237 0.703068
0.156929 0.170210 0.698975
0.390846 0.166130 0.693490
0.639710 0.161790 0.687654
0.898549 0.157276 0.681585
0.000000 0.396483 0.684740
0.143270 0.393419 0.680611
0.377187 0.389339 0.675126
0.626073 0.384953 0.669348
0.885071 0.380090 0.663722
0.000000 0.630303 0.665846
0.129178 0.626970 0.661991
0.363240 0.622575 0.656906
0.612257 0.617899 0.651496
0.871256 0.613036 0.645869
0.000000 0.870426 0.647444
0.114937 0.867094 0.643588
0.348999 0.862699 0.638503
0.598016 0.858023 0.633093
0.857015 0.853159 0.627466
0.000000 0.000000 0.968685
0.166348 0.000000 0.964645
0.400302 0.000000 0.959197
0.649205 0.000000 0.953400
0.908084 0.000000 0.947371
0.000000 0.171769 0.954002
0.155457 0.168738 0.949905
0.389374 0.164658 0.944420
0.638238 0.160318 0.938585
0.897077 0.155804 0.932515
0.000000 0.395014 0.935674
0.141798 0.391946 0.931541
0.375715 0.387867 0.926056
0.624653 0.383367 0.920423
0.883651 0.378503 0.914796
0.000000 0.628716 0.916921
0.127758 0.625384 0.913065
0.361819 0.620989 0.907980
0.610837 0.616313 0.902570
0.869836 0.611450 0.896943
0.000000 0.868840 0.898518
0.113517 0.865508 0.894663
0.347578 0.861113 0.889578
0.596596 0.856437 0.884168
0.855595 0.851573 0.878541
