assets/preview/luts/moody_dark.cube
TITLE "Moody Dark"
LUT_3D_SIZE 9
DOMAIN_MIN 0.0 0.0 0.0
DOMAIN_MAX 1.0 1.0 1.0
0.000000 0.000000 0.008196
0.064728 0.000000 0.006668
0.171933 0.000000 0.004172
0.286510 0.000000 0.001503
0.405886 0.000000 0.000000
0.528877 0.000000 0.000000
0.654789 0.000000 0.000000
0.783163 0.000000 0.000000
0.913669 0.000000 0.000000
0.000000 0.072835 0.002148
0.060301 0.071705 0.000596
0.167488 0.069836 0.000000
0.282048 0.067838 0.000000
0.401406 0.065756 0.000000
0.524377 0.063612 0.000000
0.650270 0.061416 0.000000
0.778623 0.059178 0.000000
0.909109 0.056902 0.000000
0.000000 0.177389 0.000000
0.053904 0.176242 0.000000
0.161091 0.174373 0.000000
0.275651 0.172375 0.000000
0.395009 0.170293 0.000000
0.517981 0.168148 0.000000
0.643873 0.165953 0.000000
0.772226 0.163714 0.000000
0.902712 0.161439 0.000000
0.000000 0.287269 0.000000
0.047181 0.286104 0.000000
0.154369 0.284235 0.000000
0.268929 0.282237 0.000000
0.388286 0.280156 0.000000
0.511258 0.278011 0.000000
0.637150 0.275815 0.000000
0.765504 0.273577 0.000000
0.895989 0.271301 0.000000
0.000000 0.400634 0.000000
0.040245 0.399451 0.000000
0.147433 0.397581 0.000000
0.261993 0.395583 0.000000
0.381350 0.393502 0.000000
0.504322 0.391357 0.000000
0.630214 0.389162 0.000000
0.758568 0.386923 0.000000
0.889086 0.384574 0.000000
0.000000 0.516622 0.000000
0.033149 0.515420 0.000000
0.140336 0.513551 0.000000
0.254896 0.511553 0.000000
0.374254 0.509471 0.000000
0.497272 0.507222 0.000000
0.623240 0.504855 0.000000
0.751671 0.502442 0.000000
0.882236 0.499989 0.000000
0.000000 0.634727 0.000000
0.025939 0.633469 0.000000
0.133191 0.631453 0.000000
0.247821 0.629299 0.000000
0.367250 0.627055 0.000000
0.490296 0.624743 0.000000
0.616265 0.622376 0.000000
0.744696 0.619963 0.000000
0.875260 0.617509 0.000000
0.000000 0.754079 0.000000
0.018859 0.752759 0.000000
0.126111 0.750744 0.000000
0.240740 0.748590 0.000000
0.360170 0.746346 0.000000
0.483216 0.744034 0.000000
0.609184 0.741667 0.000000
0.737615 0.739254 0.000000
0.868180 0.736800 0.000000
0.000000 0.874900 0.000000
0.011687 0.873581 0.000000
0.118940 0.871566 0.000000
0.233569 0.869412 0.000000
0.352998 0.867168 0.000000
0.476044 0.864856 0.000000
0.602013 0.862489 0.000000
0.730444 0.860075 0.000000
0.861008 0.857622 0.000000
0.000000 0.000000 0.115811
0.064103 0.000000 0.114281
0.171307 0.000000 0.111784
0.285885 0.000000 0.109116
0.405261 0.000000 0.106336
0.528252 0.000000 0.103471
0.654164 0.000000 0.100539
0.782537 0.000000 0.097549
0.913043 0.000000 0.094510
0.000000 0.072206 0.109756
0.059669 0.071074 0.108203
0.166857 0.069204 0.105689
0.281417 0.067207 0.103003
0.400774 0.065125 0.100204
0.523746 0.062980 0.097321
0.649638 0.060785 0.094369
0.777992 0.058546 0.091359
0.908477 0.056271 0.088300
0.000000 0.176759 0.101173
0.053273 0.175611 0.099602
0.160460 0.173741 0.097089
0.275020 0.171743 0.094402
0.394377 0.169662 0.091604
0.517349 0.167517 0.088720
0.643242 0.165322 0.085768
0.771595 0.163083 0.082759
0.902081 0.160807 0.079699
0.000000 0.286640 0.092152
0.046550 0.285473 0.090563
0.153737 0.283604 0.088050
0.268297 0.281606 0.085364
0.387655 0.279524 0.082565
0.510626 0.277380 0.079681
0.636519 0.275184 0.076729
0.764872 0.272946 0.073720
0.895358 0.270670 0.070660
0.000000 0.400005 0.082845
0.039614 0.398819 0.081238
0.146801 0.396950 0.078724
0.261361 0.394952 0.076038
0.380719 0.392871 0.073239
0.503691 0.390726 0.070356
0.629583 0.388530 0.067404
0.757936 0.386292 0.064394
0.888478 0.383894 0.061489
0.000000 0.515993 0.073322
0.032518 0.514789 0.071696
0.139705 0.512919 0.069183
0.254265 0.510921 0.066497
0.373622 0.508840 0.063698
0.496664 0.506543 0.061007
0.622634 0.504178 0.058270
0.751066 0.501766 0.055480
0.881633 0.499314 0.052644
0.000000 0.634097 0.063626
0.025331 0.632789 0.062089
0.132584 0.630775 0.059758
0.247215 0.628622 0.057268
0.366646 0.626380 0.054673
0.489694 0.624069 0.052000
0.615664 0.621704 0.049263
0.744096 0.619292 0.046473
0.874662 0.616840 0.043637
0.000000 0.753403 0.054471
0.018255 0.752085 0.052946
0.125509 0.750071 0.050616
0.240140 0.747919 0.048125
0.359571 0.745676 0.045531
0.482618 0.743365 0.042857
0.608589 0.741000 0.040121
0.737021 0.738588 0.037330
0.867587 0.736137 0.034494
0.000000 0.874231 0.045211
0.011090 0.872912 0.043686
0.118343 0.870898 0.041356
0.232974 0.868746 0.038865
0.352405 0.866503 0.036271
0.475453 0.864193 0.033597
0.601423 0.861827 0.030861
0.729855 0.859416 0.028070
0.860421 0.856964 0.025234
0.000000 0.000000 0.231422
0.063430 0.000000 0.229891
0.170635 0.000000 0.227394
0.285212 0.000000 0.224726
0.404588 0.000000 0.221945
0.527580 0.000000 0.219081
0.653492 0.000000 0.216149
0.781865 0.000000 0.213159
0.912371 0.000000 0.210120
0.000000 0.071529 0.225362
0.058991 0.070396 0.223806
0.166179 0.068526 0.221293
0.280738 0.066528 0.218607
0.400096 0.064447 0.215808
0.523068 0.062302 0.212925
0.648960 0.060106 0.209973
0.777313 0.057868 0.206963
0.907799 0.055592 0.203903
0.000000 0.176083 0.216778
0.052594 0.174932 0.215206
0.159782 0.173063 0.212692
0.274342 0.171065 0.210006
0.393699 0.168983 0.207207
0.516671 0.166839 0.204324
0.642563 0.164643 0.201372
0.770917 0.162405 0.198362
0.901402 0.160129 0.195302
0.000000 0.285963 0.207757
0.045872 0.284795 0.206167
0.153059 0.282925 0.203653
0.267619 0.280928 0.200967
0.386976 0.278846 0.198168
0.509948 0.276701 0.195285
0.635841 0.274506 0.192333
0.764194 0.272267 0.189323
0.894680 0.269992 0.186264
0.000000 0.399328 0.198450
0.038936 0.398141 0.196841
0.146123 0.396272 0.194328
0.260683 0.394274 0.191642
0.380040 0.392192 0.188843
0.503012 0.390048 0.185959
0.628905 0.387852 0.183007
0.757258 0.385614 0.179998
0.887824 0.383163 0.177159
0.000000 0.515316 0.188928
0.031839 0.514110 0.187300
0.139027 0.512241 0.184787
0.253587 0.510243 0.182100
0.372962 0.508123 0.179351
0.496009 0.505812 0.176677
0.621980 0.503447 0.173941
0.750412 0.501035 0.171150
0.880978 0.498584 0.168314
0.000000 0.633376 0.179284
0.024676 0.632058 0.177759
0.131930 0.630044 0.175429
0.246560 0.627892 0.172938
0.365992 0.625649 0.170344
0.489039 0.623338 0.167670
0.615009 0.620973 0.164934
0.743442 0.618561 0.162143
0.874008 0.616110 0.159307
0.000000 0.752673 0.170141
0.017601 0.751354 0.168616
0.124855 0.749340 0.166286
0.239485 0.747188 0.163796
0.358917 0.744945 0.161201
0.481964 0.742635 0.158528
0.607934 0.740269 0.155791
0.736367 0.737858 0.153001
0.866933 0.735406 0.150164
0.000000 0.873500 0.160881
0.010435 0.872182 0.159356
0.117689 0.870168 0.157026
0.232319 0.868015 0.154536
0.351751 0.865773 0.151941
0.474798 0.863462 0.149268
0.600768 0.861097 0.146531
0.729201 0.858685 0.143741
0.859767 0.856233 0.140904
0.000000 0.000000 0.350257
0.062740 0.000000 0.348724
0.169944 0.000000 0.346227
0.284521 0.000000 0.343559
0.403898 0.000000 0.340779
0.526889 0.000000 0.337915
0.652801 0.000000 0.334982
0.781174 0.000000 0.331993
0.911680 0.000000 0.328953
0.000000 0.070834 0.344191
0.058294 0.069698 0.342634
0.165481 0.067829 0.340120
0.280041 0.065831 0.337434
0.399399 0.063750 0.334635
0.522371 0.061605 0.331752
0.648263 0.059409 0.328800
0.776616 0.057171 0.325790
0.907102 0.054895 0.322731
0.000000 0.175388 0.335607
0.051897 0.174235 0.334033
0.159085 0.172366 0.331520
0.273644 0.170368 0.328833
0.393002 0.168286 0.326035
0.515974 0.166142 0.323151
0.641866 0.163946 0.320199
0.770219 0.161708 0.317190
0.900705 0.159432 0.314130
0.000000 0.285268 0.326586
0.045174 0.284098 0.324994
0.152362 0.282228 0.322481
0.266922 0.280230 0.319795
0.386279 0.278149 0.316996
0.509251 0.276004 0.314112
0.635143 0.273809 0.311160
0.763497 0.271570 0.308151
0.893982 0.269294 0.305091
0.000000 0.398633 0.317279
0.038239 0.397444 0.315669
0.145426 0.395575 0.313155
0.259986 0.393577 0.310469
0.379343 0.391495 0.307670
0.502315 0.389350 0.304787
0.628208 0.387155 0.301835
0.756585 0.384864 0.298892
0.887151 0.382412 0.296055
0.000000 0.514621 0.307757
0.031142 0.513413 0.306127
0.138330 0.511544 0.303614
0.252889 0.509546 0.300928
0.372289 0.507372 0.298246
0.495337 0.505061 0.295573
0.621307 0.502696 0.292836
0.749740 0.500284 0.290046
0.880306 0.497833 0.287209
0.000000 0.632625 0.298180
0.024004 0.631307 0.296654
0.131257 0.629293 0.294324
0.245888 0.627140 0.291834
0.365319 0.624898 0.289239
0.488367 0.622587 0.286566
0.614337 0.620222 0.283829
0.742770 0.617810 0.281039
0.873336 0.615358 0.278202
0.000000 0.751922 0.289037
0.016929 0.750603 0.287512
0.124182 0.748589 0.285182
0.238813 0.746437 0.282691
0.358244 0.744194 0.280097
0.481292 0.741884 0.277423
0.607262 0.739518 0.274687
0.735694 0.737107 0.271896
0.866261 0.734655 0.269060
0.000000 0.872749 0.279777
0.009763 0.871430 0.278252
0.117016 0.869417 0.275922
0.231647 0.867264 0.273431
0.351078 0.865021 0.270837
0.474126 0.862711 0.268163
0.600096 0.860345 0.265427
0.728528 0.857934 0.262636
0.859095 0.855482 0.259800
0.000000 0.000000 0.471236
0.062036 0.000000 0.469701
0.169240 0.000000 0.467204
0.283818 0.000000 0.464536
0.403194 0.000000 0.461756
0.526185 0.000000 0.458892
0.652097 0.000000 0.455959
0.780471 0.000000 0.452970
0.910977 0.000000 0.449930
0.000000 0.070126 0.465163
0.057584 0.068989 0.463604
0.164772 0.067119 0.461091
0.279332 0.065121 0.458405
0.398689 0.063040 0.455606
0.521661 0.060895 0.452722
0.647553 0.058700 0.449770
0.775907 0.056461 0.446761
0.906392 0.054185 0.443701
0.000000 0.174680 0.456580
0.051187 0.173525 0.455004
0.158375 0.171656 0.452490
0.272935 0.169658 0.449804
0.392292 0.167577 0.447005
0.515264 0.165432 0.444122
0.641156 0.163236 0.441170
0.769510 0.160998 0.438160
0.899995 0.158722 0.435100
0.000000 0.284560 0.447559
0.044465 0.283388 0.445965
0.151652 0.281519 0.443451
0.266212 0.279521 0.440765
0.385569 0.277439 0.437966
0.508541 0.275294 0.435083
0.634434 0.273099 0.432131
0.762787 0.270860 0.429121
0.893273 0.268585 0.426061
0.000000 0.397925 0.438252
0.037529 0.396734 0.436639
0.144716 0.394865 0.434126
0.259276 0.392867 0.431440
0.378634 0.390785 0.428641
0.501605 0.388641 0.425757
0.627498 0.386445 0.422805
0.755900 0.384099 0.419932
0.886466 0.381648 0.417095
0.000000 0.513913 0.428729
0.030432 0.512703 0.427098
0.137620 0.510834 0.424584
0.252180 0.508836 0.421898
0.371605 0.506607 0.419286
0.494652 0.504297 0.416613
0.620622 0.501931 0.413876
0.749055 0.499520 0.411086
0.879621 0.497068 0.408249
0.000000 0.631861 0.419220
0.023319 0.630542 0.417694
0.130573 0.628528 0.415364
0.245203 0.626376 0.412874
0.364634 0.624133 0.410279
0.487682 0.621823 0.407606
0.613652 0.619457 0.404869
0.742085 0.617046 0.402079
0.872651 0.614594 0.399242
0.000000 0.751157 0.410077
0.016244 0.749839 0.408552
0.123498 0.747825 0.406222
0.238128 0.745672 0.403731
0.357559 0.743430 0.401137
0.480607 0.741119 0.398463
0.606577 0.738754 0.395727
0.735010 0.736342 0.392936
0.865576 0.733890 0.390100
0.000000 0.871984 0.400817
0.009078 0.870666 0.399292
0.116332 0.868652 0.396962
0.230962 0.866499 0.394471
0.350393 0.864257 0.391877
0.473441 0.861946 0.389203
0.599411 0.859581 0.386467
0.727844 0.857169 0.383676
0.858410 0.854717 0.380840
0.000000 0.000000 0.593834
0.061323 0.000000 0.592297
0.168528 0.000000 0.589800
0.283105 0.000000 0.587132
0.402481 0.000000 0.584352
0.525472 0.000000 0.581487
0.651384 0.000000 0.578555
0.779758 0.000000 0.575565
0.910264 0.000000 0.572526
0.000000 0.069409 0.587755
0.056865 0.068269 0.586194
0.164052 0.066400 0.583680
0.278612 0.064402 0.580994
0.397970 0.062321 0.578195
0.520942 0.060176 0.575312
0.646834 0.057980 0.572360
0.775187 0.055742 0.569350
0.905673 0.053466 0.566290
0.000000 0.173962 0.579171
0.050468 0.172806 0.577593
0.157656 0.170937 0.575080
0.272215 0.168939 0.572393
0.391573 0.166857 0.569595
0.514545 0.164713 0.566711
0.640437 0.162517 0.563759
0.768790 0.160279 0.560749
0.899276 0.158003 0.557690
0.000000 0.283843 0.570150
0.043746 0.282669 0.568554
0.150933 0.280799 0.566041
0.265493 0.278801 0.563354
0.384850 0.276720 0.560556
0.507822 0.274575 0.557672
0.633714 0.272380 0.554720
0.762068 0.270141 0.551711
0.892553 0.267865 0.548651
0.000000 0.397208 0.560843
0.036810 0.396015 0.559229
0.143997 0.394146 0.556715
0.258557 0.392148 0.554029
0.377914 0.390066 0.551230
0.500886 0.387921 0.548347
0.626779 0.385726 0.545395
0.755206 0.383324 0.542592
0.885773 0.380873 0.539755
0.000000 0.513196 0.551320
0.029713 0.511984 0.549687
0.136901 0.510115 0.547174
0.251480 0.508075 0.544541
0.370911 0.505832 0.541946
0.493959 0.503522 0.539273
0.619929 0.501156 0.536536
0.748361 0.498745 0.533746
0.878927 0.496293 0.530909
0.000000 0.631086 0.541880
0.022625 0.629767 0.540354
0.129879 0.627753 0.538024
0.244510 0.625601 0.535534
0.363941 0.623358 0.532939
0.486988 0.621048 0.530266
0.612959 0.618682 0.527529
0.741391 0.616271 0.524739
0.871957 0.613819 0.521902
0.000000 0.750382 0.532737
0.015550 0.749064 0.531212
0.122804 0.747050 0.528882
0.237434 0.744897 0.526391
0.356866 0.742655 0.523797
0.479913 0.740344 0.521123
0.605883 0.737979 0.518387
0.734316 0.735567 0.515596
0.864882 0.733115 0.512760
0.000000 0.871209 0.523477
0.008384 0.869891 0.521952
0.115638 0.867877 0.519622
0.230269 0.865724 0.517131
0.349700 0.863482 0.514537
0.472747 0.861171 0.511863
0.598718 0.858806 0.509127
0.727150 0.856394 0.506336
0.857716 0.853943 0.503500
0.000000 0.000000 0.717738
0.060603 0.000000 0.716199
0.167807 0.000000 0.713702
0.282385 0.000000 0.711034
0.401761 0.000000 0.708254
0.524752 0.000000 0.705389
0.650664 0.000000 0.702457
0.779037 0.000000 0.699467
0.909544 0.000000 0.696428
0.000000 0.068684 0.711652
0.056138 0.067542 0.710089
0.163326 0.065673 0.707576
0.277885 0.063675 0.704889
0.397243 0.061594 0.702091
0.520215 0.059449 0.699207
0.646107 0.057253 0.696255
0.774460 0.055015 0.693245
0.904946 0.052739 0.690186
0.000000 0.173237 0.703068
0.049741 0.172079 0.701488
0.156929 0.170210 0.698975
0.271489 0.168212 0.696289
0.390846 0.166130 0.693490
0.513818 0.163986 0.690606
0.639710 0.161790 0.687654
0.768064 0.159552 0.684645
0.898549 0.157276 0.681585
0.000000 0.283118 0.694047
0.043019 0.281942 0.692449
0.150206 0.280072 0.689936
0.264766 0.278074 0.687250
0.384123 0.275993 0.684451
0.507095 0.273848 0.681568
0.632988 0.271653 0.678616
0.761341 0.269414 0.675606
0.891827 0.267139 0.672546
0.000000 0.396483 0.684740
0.036083 0.395288 0.683124
0.143270 0.393419 0.680611
0.257830 0.391421 0.677924
0.377187 0.389339 0.675126
0.500159 0.387195 0.672242
0.626073 0.384953 0.669348
0.754505 0.382541 0.666558
0.885071 0.380090 0.663722
0.000000 0.512471 0.675218
0.028986 0.511257 0.673583
0.136174 0.509388 0.671069
0.250779 0.507292 0.668507
0.370210 0.505049 0.665913
0.493257 0.502739 0.663240
0.619227 0.500373 0.660503
0.747660 0.497962 0.657713
0.878226 0.495510 0.654876
0.000000 0.630303 0.665846
0.021924 0.628984 0.664321
0.129178 0.626970 0.661991
0.243808 0.624818 0.659500
0.363240 0.622575 0.656906
0.486287 0.620265 0.654233
0.612257 0.617899 0.651496
0.740690 0.615488 0.648706
0.871256 0.613036 0.645869
0.000000 0.749599 0.656704
0.014849 0.748281 0.655178
0.122103 0.746267 0.652848
0.236733 0.744114 0.650358
0.356164 0.741871 0.647763
0.479212 0.739561 0.645090
0.605182 0.737196 0.642353
0.733615 0.734784 0.639563
0.864181 0.732332 0.636726
0.000000 0.870426 0.647444
0.007683 0.869108 0.645918
0.114937 0.867094 0.643588
0.229567 0.864941 0.641098
0.348999 0.862699 0.638503
0.472046 0.860388 0.635830
0.598016 0.858023 0.633093
0.726449 0.855611 0.630303
0.857015 0.853159 0.627466
0.000000 0.000000 0.842738
0.059876 0.000000 0.841197
0.167080 0.000000 0.838700
0.281658 0.000000 0.836032
0.401034 0.000000 0.833252
0.524025 0.000000 0.830388
0.649937 0.000000 0.827455
0.778311 0.000000 0.824466
0.908817 0.000000 0.821426
0.000000 0.067952 0.836646
0.055405 0.066809 0.835081
0.162592 0.064940 0.832567
0.277152 0.062942 0.829881
0.396510 0.060860 0.827082
0.519481 0.058716 0.824199
0.645374 0.056520 0.821247
0.773727 0.054282 0.818237
0.904213 0.052006 0.815178
0.000000 0.172506 0.828062
0.049008 0.171346 0.826480
0.156195 0.169477 0.823967
0.270755 0.167479 0.821281
0.390113 0.165397 0.818482
0.513085 0.163252 0.815598
0.638977 0.161057 0.812646
0.767330 0.158818 0.809637
0.897816 0.156543 0.806577
0.000000 0.282386 0.819041
0.042285 0.281208 0.817441
0.149473 0.279339 0.814928
0.264033 0.277341 0.812242
0.383390 0.275260 0.809443
0.506362 0.273115 0.806559
0.632254 0.270919 0.803607
0.760608 0.268681 0.800598
0.891093 0.266405 0.797538
0.000000 0.395751 0.809734
0.035349 0.394555 0.808116
0.142537 0.392685 0.805602
0.257097 0.390687 0.802916
0.376454 0.388606 0.800117
0.499426 0.386461 0.797234
0.625365 0.384163 0.794412
0.753798 0.381751 0.791622
0.884364 0.379300 0.788785
0.000000 0.511739 0.800212
0.028253 0.510524 0.798574
0.135441 0.508654 0.796062
0.250071 0.506502 0.793571
0.369502 0.504259 0.790977
0.492550 0.501949 0.788303
0.618520 0.499583 0.785567
0.746953 0.497172 0.782776
0.877519 0.494720 0.779940
0.000000 0.629512 0.790910
0.021217 0.628194 0.789385
0.128470 0.626180 0.787055
0.243101 0.624028 0.784564
0.362532 0.621785 0.781970
0.485580 0.619475 0.779296
0.611550 0.617109 0.776560
0.739983 0.614697 0.773769
0.870549 0.612246 0.770933
0.000000 0.748809 0.781767
0.014142 0.747490 0.780242
0.121395 0.745477 0.777912
0.236026 0.743324 0.775422
0.355457 0.741081 0.772827
0.478505 0.738771 0.770154
0.604475 0.736405 0.767417
0.732907 0.733994 0.764627
0.863474 0.731542 0.761790
0.000000 0.869636 0.772507
0.006976 0.868318 0.770982
0.114229 0.866304 0.768652
0.228860 0.864151 0.766162
0.348291 0.861909 0.763567
0.471339 0.859598 0.760894
0.597309 0.857233 0.758157
0.725742 0.854821 0.755367
0.856308 0.852369 0.752530
0.000000 0.000000 0.968685
0.059144 0.000000 0.967142
0.166348 0.000000 0.964645
0.280926 0.000000 0.961977
0.400302 0.000000 0.959197
0.523293 0.000000 0.956333
0.649205 0.000000 0.953400
0.777578 0.000000 0.950411
0.908084 0.000000 0.947371
0.000000 0.067215 0.962586
0.054666 0.066070 0.961019
0.161853 0.064201 0.958506
0.276413 0.062203 0.955820
0.395771 0.060121 0.953021
0.518742 0.057977 0.950137
0.644635 0.055781 0.947185
0.772988 0.053543 0.944176
0.903474 0.051267 0.941116
0.000000 0.171769 0.954002
0.048269 0.170607 0.952419
0.155457 0.168738 0.949905
0.270016 0.166740 0.947219
0.389374 0.164658 0.944420
0.512346 0.162514 0.941537
0.638238 0.160318 0.938585
0.766591 0.158079 0.935575
0.897077 0.155804 0.932515
0.000000 0.281650 0.944981
0.041546 0.280469 0.943380
0.148734 0.278600 0.940866
0.263294 0.276602 0.938180
0.382651 0.274521 0.935381
0.505623 0.272376 0.932498
0.631515 0.270180 0.929546
0.759869 0.267942 0.926536
0.890354 0.265666 0.923476
0.000000 0.395014 0.935674
0.034610 0.393816 0.934054
0.141798 0.391946 0.931541
0.256358 0.389949 0.928854
0.375715 0.387867 0.926056
0.498687 0.385722 0.923172
0.624653 0.383367 0.920423
0.753085 0.380955 0.917633
0.883651 0.378503 0.914796
0.000000 0.511003 0.926152
0.027514 0.509785 0.924513
0.134728 0.507858 0.922072
0.249358 0.505706 0.919582
0.368790 0.503463 0.916987
0.491837 0.501153 0.914314
0.617807 0.498787 0.911577
0.746240 0.496375 0.908787
0.876806 0.493924 0.905950
0.000000 0.628716 0.916921
0.020504 0.627398 0.915396
0.127758 0.625384 0.913065
0.242388 0.623232 0.910575
0.361819 0.620989 0.907980
0.484867 0.618678 0.905307
0.610837 0.616313 0.902570
0.739270 0.613901 0.899780
0.869836 0.611450 0.896943
0.000000 0.748013 0.907778
0.013429 0.746694 0.906253
0.120683 0.744680 0.903923
0.235313 0.742528 0.901432
0.354744 0.740285 0.898838
0.477792 0.737975 0.896164
0.603762 0.735609 0.893428
0.732195 0.733198 0.890637
0.862761 0.730746 0.887801
0.000000 0.868840 0.898518
0.006263 0.867522 0.896993
0.113517 0.865508 0.894663
0.228147 0.863355 0.892172
0.347578 0.861113 0.889578
0.470626 0.858802 0.886904
0.596596 0.856437 0.884168
0.725029 0.854025 0.881377
0.855595 0.851573 0.878541
