assets/preview/luts/moody_dark.cube
TITLE "Moody Dark"
LUT_3D_SIZE 33
DOMAIN_MIN 0.0 0.0 0.0
DOMAIN_MAX 1.0 1.0 1.0
0.000000 0.000000 0.008196
0.000000 0.000000 0.008193
0.016278 0.000000 0.007797
0.039826 0.000000 0.007248
0.064728 0.000000 0.006668
0.090565 0.000000 0.006067
0.117125 0.000000 0.005448
0.144277 0.000000 0.004816
0.171933 0.000000 0.004172
0.200028 0.000000 0.003517
0.228514 0.000000 0.002854
0.257352 0.000000 0.002182
0.286510 0.000000 0.001503
0.315963 0.000000 0.000817
0.345689 0.000000 0.000125
0.375669 0.000000 0.000000
0.405886 0.000000 0.000000
0.436328 0.000000 0.000000
0.466981 0.000000 0.000000
0.497834 0.000000 0.000000
0.528877 0.000000 0.000000
0.560102 0.000000 0.000000
0.591501 0.000000 0.000000
0.623066 0.000000 0.000000
0.654789 0.000000 0.000000
0.686667 0.000000 0.000000
0.718691 0.000000 0.000000
0.750858 0.000000 0.000000
0.783163 0.000000 0.000000
0.815600 0.000000 0.000000
0.848166 0.000000 0.000000
0.880857 0.000000 0.000000
0.913669 0.000000 0.000000
0.000000 0.001920 0.007970
0.000000 0.001923 0.007966
0.016197 0.001647 0.007565
0.039741 0.001236 0.007013
0.064640 0.000802 0.006429
0.090472 0.000351 0.005824
0.117028 0.000000 0.005201
0.144175 0.000000 0.004564
0.171827 0.000000 0.003916
0.199918 0.000000 0.003257
0.228400 0.000000 0.002590
0.257233 0.000000 0.001913
0.286387 0.000000 0.001230
0.315835 0.000000 0.000539
0.345556 0.000000 0.000000
0.375531 0.000000 0.000000
0.405744 0.000000 0.000000
0.436181 0.000000 0.000000
0.466829 0.000000 0.000000
0.497677 0.000000 0.000000
0.528716 0.000000 0.000000
0.559936 0.000000 0.000000
0.591330 0.000000 0.000000
0.622889 0.000000 0.000000
0.654608 0.000000 0.000000
0.686481 0.000000 0.000000
0.718500 0.000000 0.000000
0.750662 0.000000 0.000000
0.782962 0.000000 0.000000
0.815394 0.000000 0.000000
0.847955 0.000000 0.000000
0.880641 0.000000 0.000000
0.913447 0.000000 0.000000
0.000000 0.024173 0.006143
0.000000 0.024175 0.006139
0.014835 0.023895 0.005735
0.038380 0.023485 0.005183
0.063278 0.023050 0.004599
0.089111 0.022600 0.003993
0.115666 0.022137 0.003371
0.142814 0.021663 0.002734
0.170466 0.021181 0.002086
0.198557 0.020691 0.001427
0.227038 0.020194 0.000759
0.255872 0.019692 0.000083
0.285025 0.019183 0.000000
0.314474 0.018670 0.000000
0.344195 0.018151 0.000000
0.374170 0.017628 0.000000
0.404383 0.017102 0.000000
0.434820 0.016571 0.000000
0.465468 0.016036 0.000000
0.496316 0.015498 0.000000
0.527355 0.014957 0.000000
0.558575 0.014412 0.000000
0.589968 0.013865 0.000000
0.621528 0.013315 0.000000
0.653247 0.012761 0.000000
0.685119 0.012205 0.000000
0.717139 0.011647 0.000000
0.749301 0.011086 0.000000
0.781600 0.010523 0.000000
0.814033 0.009957 0.000000
0.846594 0.009389 0.000000
0.879279 0.008819 0.000000
0.912086 0.008247 0.000000
0.000000 0.048044 0.004183
0.000000 0.048047 0.004179
0.013375 0.047763 0.003771
0.036919 0.047353 0.003219
0.061818 0.046918 0.002635
0.087650 0.046468 0.002030
0.114206 0.046005 0.001407
0.141353 0.045531 0.000770
0.169005 0.045049 0.000122
0.197096 0.044559 0.000000
0.225578 0.044062 0.000000
0.254411 0.043560 0.000000
0.283565 0.043051 0.000000
0.313013 0.042538 0.000000
0.342734 0.042019 0.000000
0.372709 0.041496 0.000000
0.402922 0.040970 0.000000
0.433359 0.040439 0.000000
0.464007 0.039904 0.000000
0.494855 0.039366 0.000000
0.525894 0.038825 0.000000
0.557114 0.038280 0.000000
0.588508 0.037733 0.000000
0.620068 0.037183 0.000000
0.651787 0.036629 0.000000
0.683659 0.036074 0.000000
0.715678 0.035515 0.000000
0.747840 0.034954 0.000000
0.780140 0.034391 0.000000
0.812572 0.033825 0.000000
0.845133 0.033257 0.000000
0.877819 0.032687 0.000000
0.910625 0.032115 0.000000
0.000000 0.072835 0.002148
0.000000 0.072838 0.002144
0.011858 0.072550 0.001732
0.035402 0.072139 0.001180
0.060301 0.071705 0.000596
0.086134 0.071255 0.000000
0.112689 0.070791 0.000000
0.139837 0.070318 0.000000
0.167488 0.069836 0.000000
0.195579 0.069346 0.000000
0.224061 0.068849 0.000000
0.252894 0.068346 0.000000
0.282048 0.067838 0.000000
0.311496 0.067324 0.000000
0.341218 0.066806 0.000000
0.371193 0.066283 0.000000
0.401406 0.065756 0.000000
0.431842 0.065225 0.000000
0.462490 0.064691 0.000000
0.493339 0.064153 0.000000
0.524377 0.063612 0.000000
0.555598 0.063067 0.000000
0.586991 0.062520 0.000000
0.618551 0.061969 0.000000
0.650270 0.061416 0.000000
0.682142 0.060860 0.000000
0.714162 0.060302 0.000000
0.746324 0.059741 0.000000
0.778623 0.059178 0.000000
0.811055 0.058612 0.000000
0.843616 0.058044 0.000000
0.876302 0.057474 0.000000
0.909109 0.056902 0.000000
0.000000 0.098283 0.000058
0.000000 0.098285 0.000055
0.010301 0.097994 0.000000
0.033845 0.097583 0.000000
0.058744 0.097149 0.000000
0.084577 0.096698 0.000000
0.111132 0.096235 0.000000
0.138280 0.095762 0.000000
0.165931 0.095279 0.000000
0.194022 0.094790 0.000000
0.222504 0.094293 0.000000
0.251337 0.093790 0.000000
0.280491 0.093281 0.000000
0.309940 0.092768 0.000000
0.339661 0.092250 0.000000
0.369636 0.091727 0.000000
0.399849 0.091200 0.000000
0.430285 0.090669 0.000000
0.460933 0.090135 0.000000
0.491782 0.089597 0.000000
0.522820 0.089055 0.000000
0.554041 0.088511 0.000000
0.585434 0.087963 0.000000
0.616994 0.087413 0.000000
0.648713 0.086860 0.000000
0.680585 0.086304 0.000000
0.712605 0.085745 0.000000
0.744767 0.085185 0.000000
0.777066 0.084621 0.000000
0.809498 0.084056 0.000000
0.842059 0.083488 0.000000
0.874745 0.082918 0.000000
0.907552 0.082346 0.000000
0.000000 0.124246 0.000000
0.000000 0.124249 0.000000
0.008712 0.123953 0.000000
0.032257 0.123542 0.000000
0.057155 0.123108 0.000000
0.082988 0.122657 0.000000
0.109544 0.122194 0.000000
0.136691 0.121721 0.000000
0.164343 0.121239 0.000000
0.192434 0.120749 0.000000
0.220915 0.120252 0.000000
0.249749 0.119749 0.000000
0.278903 0.119241 0.000000
0.308351 0.118727 0.000000
0.338072 0.118209 0.000000
0.368047 0.117686 0.000000
0.398260 0.117159 0.000000
0.428697 0.116628 0.000000
0.459345 0.116094 0.000000
0.490193 0.115556 0.000000
0.521232 0.115014 0.000000
0.552452 0.114470 0.000000
0.583846 0.113922 0.000000
0.615405 0.113372 0.000000
0.647124 0.112819 0.000000
0.678997 0.112263 0.000000
0.711016 0.111705 0.000000
0.743178 0.111144 0.000000
0.775478 0.110580 0.000000
0.807910 0.110015 0.000000
0.840471 0.109447 0.000000
0.873157 0.108877 0.000000
0.905963 0.108305 0.000000
0.000000 0.150636 0.000000
0.000000 0.150638 0.000000
0.007098 0.150338 0.000000
0.030642 0.149927 0.000000
0.055541 0.149493 0.000000
0.081374 0.149042 0.000000
0.107929 0.148579 0.000000
0.135077 0.148106 0.000000
0.162728 0.147624 0.000000
0.190819 0.147134 0.000000
0.219301 0.146637 0.000000
0.248134 0.146134 0.000000
0.277288 0.145626 0.000000
0.306736 0.145112 0.000000
0.336458 0.144594 0.000000
0.366433 0.144071 0.000000
0.396646 0.143544 0.000000
0.427082 0.143013 0.000000
0.457730 0.142479 0.000000
0.488579 0.141941 0.000000
0.519617 0.141399 0.000000
0.550838 0.140855 0.000000
0.582231 0.140307 0.000000
0.613791 0.139757 0.000000
0.645510 0.139204 0.000000
0.677382 0.138648 0.000000
0.709402 0.138090 0.000000
0.741564 0.137529 0.000000
0.773863 0.136965 0.000000
0.806295 0.136400 0.000000
0.838856 0.135832 0.000000
0.871542 0.135262 0.000000
0.904349 0.134690 0.000000
0.000000 0.177389 0.000000
0.000000 0.177391 0.000000
0.005461 0.177087 0.000000
0.029006 0.176676 0.000000
0.053904 0.176242 0.000000
0.079737 0.175791 0.000000
0.106292 0.175328 0.000000
0.133440 0.174855 0.000000
0.161091 0.174373 0.000000
0.189182 0.173883 0.000000
0.217664 0.173386 0.000000
0.246497 0.172883 0.000000
0.275651 0.172375 0.000000
0.305100 0.171861 0.000000
0.334821 0.171343 0.000000
0.364796 0.170820 0.000000
0.395009 0.170293 0.000000
0.425445 0.169762 0.000000
0.456093 0.169228 0.000000
0.486942 0.168690 0.000000
0.517981 0.168148 0.000000
0.549201 0.167604 0.000000
0.580594 0.167056 0.000000
0.612154 0.166506 0.000000
0.643873 0.165953 0.000000
0.675745 0.165397 0.000000
0.707765 0.164839 0.000000
0.739927 0.164278 0.000000
0.772226 0.163714 0.000000
0.804659 0.163149 0.000000
0.837220 0.162581 0.000000
0.869905 0.162011 0.000000
0.902712 0.161439 0.000000
0.000000 0.204461 0.000000
0.000000 0.204463 0.000000
0.003805 0.204154 0.000000
0.027349 0.203743 0.000000
0.052248 0.203309 0.000000
0.078081 0.202859 0.000000
0.104636 0.202396 0.000000
0.131784 0.201922 0.000000
0.159435 0.201440 0.000000
0.187526 0.200950 0.000000
0.216008 0.200453 0.000000
0.244841 0.199950 0.000000
0.273995 0.199442 0.000000
0.303443 0.198928 0.000000
0.333164 0.198410 0.000000
0.363139 0.197887 0.000000
0.393352 0.197360 0.000000
0.423789 0.196830 0.000000
0.454437 0.196295 0.000000
0.485286 0.195757 0.000000
0.516324 0.195216 0.000000
0.547544 0.194671 0.000000
0.578938 0.194124 0.000000
0.610498 0.193573 0.000000
0.642217 0.193020 0.000000
0.674089 0.192464 0.000000
0.706109 0.191906 0.000000
0.738271 0.191345 0.000000
0.770570 0.190782 0.000000
0.803002 0.190216 0.000000
0.835563 0.189648 0.000000
0.868249 0.189078 0.000000
0.901056 0.188506 0.000000
0.000000 0.231816 0.000000
0.000000 0.231818 0.000000
0.002131 0.231505 0.000000
0.025676 0.231094 0.000000
0.050574 0.230660 0.000000
0.076407 0.230209 0.000000
0.102962 0.229746 0.000000
0.130110 0.229273 0.000000
0.157761 0.228790 0.000000
0.185853 0.228300 0.000000
0.214334 0.227804 0.000000
0.243167 0.227301 0.000000
0.272321 0.226792 0.000000
0.301770 0.226279 0.000000
0.331491 0.225761 0.000000
0.361466 0.225238 0.000000
0.391679 0.224711 0.000000
0.422115 0.224180 0.000000
0.452764 0.223646 0.000000
0.483612 0.223108 0.000000
0.514651 0.222566 0.000000
0.545871 0.222022 0.000000
0.577264 0.221474 0.000000
0.608824 0.220924 0.000000
0.640543 0.220371 0.000000
0.672415 0.219815 0.000000
0.704435 0.219256 0.000000
0.736597 0.218696 0.000000
0.768896 0.218132 0.000000
0.801329 0.217567 0.000000
0.833890 0.216999 0.000000
0.866575 0.216429 0.000000
0.899382 0.215857 0.000000
0.000000 0.259426 0.000000
0.000000 0.259429 0.000000
0.000442 0.259111 0.000000
0.023986 0.258700 0.000000
0.048885 0.258266 0.000000
0.074718 0.257815 0.000000
0.101273 0.257352 0.000000
0.128421 0.256879 0.000000
0.156072 0.256396 0.000000
0.184163 0.255906 0.000000
0.212645 0.255410 0.000000
0.241478 0.254907 0.000000
0.270632 0.254398 0.000000
0.300080 0.253885 0.000000
0.329801 0.253367 0.000000
0.359777 0.252844 0.000000
0.389990 0.252317 0.000000
0.420426 0.251786 0.000000
0.451074 0.251252 0.000000
0.481923 0.250714 0.000000
0.512961 0.250172 0.000000
0.544181 0.249628 0.000000
0.575575 0.249080 0.000000
0.607135 0.248530 0.000000
0.638854 0.247977 0.000000
0.670726 0.247421 0.000000
0.702746 0.246862 0.000000
0.734908 0.246301 0.000000
0.767207 0.245738 0.000000
0.799639 0.245173 0.000000
0.832200 0.244605 0.000000
0.864886 0.244035 0.000000
0.897693 0.243463 0.000000
0.000000 0.287269 0.000000
0.000000 0.287272 0.000000
0.000000 0.286949 0.000000
0.022283 0.286539 0.000000
0.047181 0.286104 0.000000
0.073014 0.285654 0.000000
0.099570 0.285191 0.000000
0.126717 0.284717 0.000000
0.154369 0.284235 0.000000
0.182460 0.283745 0.000000
0.210941 0.283248 0.000000
0.239775 0.282746 0.000000
0.268929 0.282237 0.000000
0.298377 0.281724 0.000000
0.328098 0.281205 0.000000
0.358073 0.280682 0.000000
0.388286 0.280156 0.000000
0.418723 0.279625 0.000000
0.449371 0.279090 0.000000
0.480219 0.278552 0.000000
0.511258 0.278011 0.000000
0.542478 0.277466 0.000000
0.573872 0.276919 0.000000
0.605431 0.276369 0.000000
0.637150 0.275815 0.000000
0.669022 0.275259 0.000000
0.701042 0.274701 0.000000
0.733204 0.274140 0.000000
0.765504 0.273577 0.000000
0.797936 0.273011 0.000000
0.830497 0.272443 0.000000
0.863182 0.271873 0.000000
0.895989 0.271301 0.000000
0.000000 0.315327 0.000000
0.000000 0.315329 0.000000
0.000000 0.315002 0.000000
0.020566 0.314591 0.000000
0.045465 0.314157 0.000000
0.071298 0.313706 0.000000
0.097853 0.313243 0.000000
0.125001 0.312770 0.000000
0.152652 0.312288 0.000000
0.180743 0.311798 0.000000
0.209225 0.311301 0.000000
0.238058 0.310798 0.000000
0.267212 0.310290 0.000000
0.296660 0.309776 0.000000
0.326381 0.309258 0.000000
0.356356 0.308735 0.000000
0.386569 0.308208 0.000000
0.417006 0.307677 0.000000
0.447654 0.307143 0.000000
0.478502 0.306605 0.000000
0.509541 0.306064 0.000000
0.540761 0.305519 0.000000
0.572155 0.304972 0.000000
0.603715 0.304421 0.000000
0.635434 0.303868 0.000000
0.667306 0.303312 0.000000
0.699326 0.302754 0.000000
0.731488 0.302193 0.000000
0.763787 0.301629 0.000000
0.796219 0.301064 0.000000
0.828780 0.300496 0.000000
0.861466 0.299926 0.000000
0.894273 0.299354 0.000000
0.000000 0.343582 0.000000
0.000000 0.343584 0.000000
0.000000 0.343253 0.000000
0.018838 0.342842 0.000000
0.043736 0.342408 0.000000
0.069569 0.341957 0.000000
0.096124 0.341494 0.000000
0.123272 0.341021 0.000000
0.150923 0.340538 0.000000
0.179014 0.340048 0.000000
0.207496 0.339552 0.000000
0.236329 0.339049 0.000000
0.265483 0.338540 0.000000
0.294932 0.338027 0.000000
0.324653 0.337509 0.000000
0.354628 0.336986 0.000000
0.384841 0.336459 0.000000
0.415277 0.335928 0.000000
0.445925 0.335394 0.000000
0.476774 0.334856 0.000000
0.507812 0.334314 0.000000
0.539033 0.333770 0.000000
0.570426 0.333222 0.000000
0.601986 0.332672 0.000000
0.633705 0.332119 0.000000
0.665577 0.331563 0.000000
0.697597 0.331004 0.000000
0.729759 0.330443 0.000000
0.762058 0.329880 0.000000
0.794491 0.329315 0.000000
0.827051 0.328747 0.000000
0.859737 0.328177 0.000000
0.892544 0.327605 0.000000
0.000000 0.372022 0.000000
0.000000 0.372024 0.000000
0.000000 0.371688 0.000000
0.017098 0.371277 0.000000
0.041996 0.370843 0.000000
0.067829 0.370392 0.000000
0.094384 0.369929 0.000000
0.121532 0.369456 0.000000
0.149183 0.368974 0.000000
0.177274 0.368484 0.000000
0.205756 0.367987 0.000000
0.234589 0.367484 0.000000
0.263743 0.366976 0.000000
0.293192 0.366462 0.000000
0.322913 0.365944 0.000000
0.352888 0.365421 0.000000
0.383101 0.364894 0.000000
0.413537 0.364363 0.000000
0.444185 0.363829 0.000000
0.475034 0.363291 0.000000
0.506072 0.362749 0.000000
0.537293 0.362205 0.000000
0.568686 0.361657 0.000000
0.600246 0.361107 0.000000
0.631965 0.360554 0.000000
0.663837 0.359998 0.000000
0.695857 0.359440 0.000000
0.728019 0.358879 0.000000
0.760318 0.358315 0.000000
0.792751 0.357750 0.000000
0.825311 0.357182 0.000000
0.857997 0.356612 0.000000
0.890804 0.356040 0.000000
0.000000 0.400634 0.000000
0.000000 0.400637 0.000000
0.000000 0.400296 0.000000
0.015347 0.399885 0.000000
0.040245 0.399451 0.000000
0.066078 0.399000 0.000000
0.092634 0.398537 0.000000
0.119781 0.398064 0.000000
0.147433 0.397581 0.000000
0.175524 0.397091 0.000000
0.204005 0.396595 0.000000
0.232839 0.396092 0.000000
0.261993 0.395583 0.000000
0.291441 0.395070 0.000000
0.321162 0.394552 0.000000
0.351137 0.394029 0.000000
0.381350 0.393502 0.000000
0.411787 0.392971 0.000000
0.442435 0.392437 0.000000
0.473283 0.391899 0.000000
0.504322 0.391357 0.000000
0.535542 0.390813 0.000000
0.566936 0.390265 0.000000
0.598495 0.389715 0.000000
0.630214 0.389162 0.000000
0.662087 0.388606 0.000000
0.694106 0.388047 0.000000
0.726268 0.387487 0.000000
0.758568 0.386923 0.000000
0.791000 0.386358 0.000000
0.823561 0.385790 0.000000
0.856260 0.385190 0.000000
0.889086 0.384574 0.000000
0.000000 0.429409 0.000000
0.000000 0.429411 0.000000
0.000000 0.429066 0.000000
0.013586 0.428655 0.000000
0.038485 0.428221 0.000000
0.064318 0.427770 0.000000
0.090873 0.427307 0.000000
0.118021 0.426834 0.000000
0.145672 0.426352 0.000000
0.173763 0.425862 0.000000
0.202245 0.425365 0.000000
0.231078 0.424862 0.000000
0.260232 0.424354 0.000000
0.289681 0.423840 0.000000
0.319402 0.423322 0.000000
0.349377 0.422799 0.000000
0.379590 0.422272 0.000000
0.410026 0.421741 0.000000
0.440674 0.421207 0.000000
0.471523 0.420669 0.000000
0.502561 0.420127 0.000000
0.533782 0.419583 0.000000
0.565175 0.419036 0.000000
0.596735 0.418485 0.000000
0.628454 0.417932 0.000000
0.660326 0.417376 0.000000
0.692346 0.416818 0.000000
0.724508 0.416257 0.000000
0.756822 0.415660 0.000000
0.789274 0.415050 0.000000
0.821855 0.414438 0.000000
0.854560 0.413823 0.000000
0.887387 0.413206 0.000000
0.000000 0.458337 0.000000
0.000000 0.458340 0.000000
0.000000 0.457989 0.000000
0.011817 0.457579 0.000000
0.036715 0.457145 0.000000
0.062548 0.456694 0.000000
0.089103 0.456231 0.000000
0.116251 0.455757 0.000000
0.143902 0.455275 0.000000
0.171993 0.454785 0.000000
0.200475 0.454289 0.000000
0.229308 0.453786 0.000000
0.258462 0.453277 0.000000
0.287911 0.452764 0.000000
0.317632 0.452245 0.000000
0.347607 0.451723 0.000000
0.377820 0.451196 0.000000
0.408256 0.450665 0.000000
0.438904 0.450130 0.000000
0.469753 0.449592 0.000000
0.500791 0.449051 0.000000
0.532012 0.448507 0.000000
0.563405 0.447959 0.000000
0.594965 0.447409 0.000000
0.626684 0.446855 0.000000
0.658574 0.446259 0.000000
0.690613 0.445657 0.000000
0.722795 0.445052 0.000000
0.755114 0.444445 0.000000
0.787565 0.443835 0.000000
0.820146 0.443223 0.000000
0.852851 0.442608 0.000000
0.885678 0.441992 0.000000
0.000000 0.487411 0.000000
0.000000 0.487413 0.000000
0.000000 0.487058 0.000000
0.010038 0.486647 0.000000
0.034936 0.486213 0.000000
0.060769 0.485763 0.000000
0.087324 0.485300 0.000000
0.114472 0.484826 0.000000
0.142124 0.484344 0.000000
0.170215 0.483854 0.000000
0.198696 0.483357 0.000000
0.227530 0.482854 0.000000
0.256683 0.482346 0.000000
0.286132 0.481832 0.000000
0.315853 0.481314 0.000000
0.345828 0.480791 0.000000
0.376041 0.480264 0.000000
0.406478 0.479734 0.000000
0.437126 0.479199 0.000000
0.467974 0.478661 0.000000
0.499013 0.478120 0.000000
0.530236 0.477568 0.000000
0.561649 0.476978 0.000000
0.593227 0.476385 0.000000
0.624966 0.475788 0.000000
0.656857 0.475189 0.000000
0.688896 0.474587 0.000000
0.721077 0.473982 0.000000
0.753396 0.473375 0.000000
0.785848 0.472765 0.000000
0.818429 0.472153 0.000000
0.851134 0.471538 0.000000
0.883961 0.470921 0.000000
0.000000 0.516622 0.000000
0.000000 0.516625 0.000000
0.000000 0.516265 0.000000
0.008251 0.515854 0.000000
0.033149 0.515420 0.000000
0.058982 0.514969 0.000000
0.085537 0.514506 0.000000
0.112685 0.514033 0.000000
0.140336 0.513551 0.000000
0.168427 0.513061 0.000000
0.196909 0.512564 0.000000
0.225742 0.512061 0.000000
0.254896 0.511553 0.000000
0.284345 0.511039 0.000000
0.314066 0.510521 0.000000
0.344041 0.509998 0.000000
0.374254 0.509471 0.000000
0.404690 0.508940 0.000000
0.435347 0.508386 0.000000
0.466214 0.507806 0.000000
0.497272 0.507222 0.000000
0.528511 0.506635 0.000000
0.559923 0.506045 0.000000
0.591502 0.505452 0.000000
0.623240 0.504855 0.000000
0.655132 0.504256 0.000000
0.687171 0.503654 0.000000
0.719352 0.503049 0.000000
0.751671 0.502442 0.000000
0.784123 0.501832 0.000000
0.816704 0.501220 0.000000
0.849409 0.500605 0.000000
0.882236 0.499989 0.000000
0.000000 0.545965 0.000000
0.000000 0.545964 0.000000
0.000000 0.545603 0.000000
0.006455 0.545192 0.000000
0.031354 0.544758 0.000000
0.057187 0.544308 0.000000
0.083742 0.543845 0.000000
0.110890 0.543371 0.000000
0.138541 0.542889 0.000000
0.166632 0.542399 0.000000
0.195114 0.541902 0.000000
0.223947 0.541399 0.000000
0.253101 0.540891 0.000000
0.282549 0.540377 0.000000
0.312270 0.539859 0.000000
0.342261 0.539301 0.000000
0.372493 0.538732 0.000000
0.402948 0.538160 0.000000
0.433614 0.537584 0.000000
0.464481 0.537004 0.000000
0.495539 0.536420 0.000000
0.526778 0.535833 0.000000
0.558190 0.535243 0.000000
0.589769 0.534650 0.000000
0.621507 0.534053 0.000000
0.653399 0.533454 0.000000
0.685438 0.532852 0.000000
0.717619 0.532247 0.000000
0.749938 0.531640 0.000000
0.782390 0.531030 0.000000
0.814971 0.530418 0.000000
0.847676 0.529803 0.000000
0.880503 0.529187 0.000000
0.000000 0.575434 0.000000
0.000000 0.575428 0.000000
0.000000 0.575067 0.000000
0.004652 0.574656 0.000000
0.029551 0.574222 0.000000
0.055384 0.573771 0.000000
0.081939 0.573308 0.000000
0.109087 0.572835 0.000000
0.136738 0.572353 0.000000
0.164829 0.571863 0.000000
0.193311 0.571366 0.000000
0.222151 0.570848 0.000000
0.251322 0.570300 0.000000
0.280789 0.569746 0.000000
0.310528 0.569187 0.000000
0.340521 0.568623 0.000000
0.370752 0.568055 0.000000
0.401207 0.567483 0.000000
0.431874 0.566907 0.000000
0.462741 0.566327 0.000000
0.493798 0.565743 0.000000
0.525037 0.565156 0.000000
0.556450 0.564566 0.000000
0.588029 0.563973 0.000000
0.619767 0.563376 0.000000
0.651658 0.562777 0.000000
0.683697 0.562175 0.000000
0.715879 0.561570 0.000000
0.748198 0.560963 0.000000
0.780649 0.560353 0.000000
0.813230 0.559741 0.000000
0.845936 0.559126 0.000000
0.878762 0.558510 0.000000
0.000000 0.605023 0.000000
0.000000 0.605012 0.000000
0.000000 0.604651 0.000000
0.002842 0.604240 0.000000
0.027740 0.603806 0.000000
0.053573 0.603355 0.000000
0.080129 0.602892 0.000000
0.107278 0.602416 0.000000
0.134946 0.601896 0.000000
0.163054 0.601368 0.000000
0.191553 0.600832 0.000000
0.220403 0.600290 0.000000
0.249575 0.599742 0.000000
0.279041 0.599188 0.000000
0.308780 0.598630 0.000000
0.338773 0.598066 0.000000
0.369004 0.597498 0.000000
0.399460 0.596926 0.000000
0.430126 0.596349 0.000000
0.460993 0.595769 0.000000
0.492051 0.595186 0.000000
0.523290 0.594599 0.000000
0.554702 0.594008 0.000000
0.586281 0.593415 0.000000
0.618019 0.592819 0.000000
0.649911 0.592219 0.000000
0.681950 0.591617 0.000000
0.714131 0.591013 0.000000
0.746450 0.590405 0.000000
0.778902 0.589796 0.000000
0.811483 0.589183 0.000000
0.844188 0.588569 0.000000
0.877015 0.587952 0.000000
0.000000 0.634727 0.000000
0.000000 0.634711 0.000000
0.000000 0.634350 0.000000
0.001026 0.633937 0.000000
0.025939 0.633469 0.000000
0.051788 0.632983 0.000000
0.078359 0.632484 0.000000
0.105523 0.631973 0.000000
0.133191 0.631453 0.000000
0.161300 0.630925 0.000000
0.189798 0.630390 0.000000
0.218649 0.629847 0.000000
0.247821 0.629299 0.000000
0.277287 0.628746 0.000000
0.307026 0.628187 0.000000
0.337019 0.627623 0.000000
0.367250 0.627055 0.000000
0.397705 0.626483 0.000000
0.428372 0.625907 0.000000
0.459239 0.625327 0.000000
0.490296 0.624743 0.000000
0.521535 0.624156 0.000000
0.552948 0.623566 0.000000
0.584527 0.622972 0.000000
0.616265 0.622376 0.000000
0.648156 0.621777 0.000000
0.680195 0.621175 0.000000
0.712377 0.620570 0.000000
0.744696 0.619963 0.000000
0.777148 0.619353 0.000000
0.809728 0.618741 0.000000
0.842434 0.618126 0.000000
0.875260 0.617509 0.000000
0.000000 0.664455 0.000000
0.000000 0.664436 0.000000
0.000000 0.664047 0.000000
0.000000 0.663604 0.000000
0.024178 0.663136 0.000000
0.050027 0.662650 0.000000
0.076598 0.662151 0.000000
0.103762 0.661641 0.000000
0.131431 0.661121 0.000000
0.159539 0.660592 0.000000
0.188037 0.660057 0.000000
0.216888 0.659515 0.000000
0.246060 0.658967 0.000000
0.275526 0.658413 0.000000
0.305265 0.657854 0.000000
0.335258 0.657291 0.000000
0.365489 0.656722 0.000000
0.395944 0.656150 0.000000
0.426611 0.655574 0.000000
0.457478 0.654994 0.000000
0.488535 0.654410 0.000000
0.519774 0.653823 0.000000
0.551187 0.653233 0.000000
0.582766 0.652640 0.000000
0.614504 0.652043 0.000000
0.646395 0.651444 0.000000
0.678434 0.650842 0.000000
0.710616 0.650237 0.000000
0.742935 0.649630 0.000000
0.775387 0.649020 0.000000
0.807967 0.648408 0.000000
0.840673 0.647793 0.000000
0.873499 0.647177 0.000000
0.000000 0.694229 0.000000
0.000000 0.694210 0.000000
0.000000 0.693820 0.000000
0.000000 0.693378 0.000000
0.022411 0.692909 0.000000
0.048260 0.692424 0.000000
0.074831 0.691924 0.000000
0.101995 0.691414 0.000000
0.129663 0.690894 0.000000
0.157771 0.690366 0.000000
0.186270 0.689830 0.000000
0.215121 0.689288 0.000000
0.244292 0.688740 0.000000
0.273759 0.688186 0.000000
0.303498 0.687628 0.000000
0.333491 0.687064 0.000000
0.363722 0.686496 0.000000
0.394177 0.685924 0.000000
0.424844 0.685347 0.000000
0.455711 0.684767 0.000000
0.486768 0.684184 0.000000
0.518007 0.683597 0.000000
0.549420 0.683007 0.000000
0.580998 0.682413 0.000000
0.612737 0.681817 0.000000
0.644628 0.681218 0.000000
0.676667 0.680615 0.000000
