assets/preview/luts/neutro_clean.cube
TITLE "Neutro Clean"
LUT_3D_SIZE 5
DOMAIN_MIN 0.0 0.0 0.0
DOMAIN_MAX 1.0 1.0 1.0
0.000000 0.000000 0.000000
0.237334 0.000000 0.000000
0.519685 0.000000 0.000000
0.802036 0.000000 0.000000
1.000000 0.000000 0.000000
0.000000 0.231595 0.000000
0.229168 0.229168 0.000000
0.511519 0.226280 0.000000
0.793871 0.223393 0.000000
1.000000 0.220965 0.000000
0.000000 0.507120 0.000000
0.219454 0.504693 0.000000
0.501805 0.501805 0.000000
0.784156 0.498917 0.000000
1.000000 0.496490 0.000000
0.000000 0.782645 0.000000
0.209739 0.780217 0.000000
0.492091 0.777330 0.000000
0.774442 0.774442 0.000000
1.000000 0.772015 0.000000
0.000000 1.000000 0.000000
0.201574 1.000000 0.000000
0.483925 1.000000 0.000000
0.766276 1.000000 0.000000
1.000000 1.000000 0.000000
0.000000 0.000000 0.238937
0.236509 0.000000 0.236509
0.518861 0.000000 0.233622
0.801212 0.000000 0.230734
1.000000 0.000000 0.228307
0.000000 0.230771 0.230771
0.228344 0.228344 0.228344
0.510695 0.225456 0.225456
0.793046 0.222568 0.222568
1.000000 0.220141 0.220141
0.000000 0.506296 0.221057
0.218629 0.503868 0.218629
0.500981 0.500981 0.215742
0.783332 0.498093 0.212854
1.000000 0.495666 0.210427
0.000000 0.781820 0.211342
0.208915 0.779393 0.208915
0.491266 0.776505 0.206027
0.773618 0.773618 0.203139
1.000000 0.771190 0.200712
0.000000 1.000000 0.203177
0.200749 1.000000 0.200749
0.483101 1.000000 0.197862
0.765452 1.000000 0.194974
1.000000 1.000000 0.192547
0.000000 0.000000 0.523195
0.235529 0.000000 0.520768
0.517880 0.000000 0.517880
0.800231 0.000000 0.514992
1.000000 0.000000 0.512565
0.000000 0.229790 0.515029
0.227363 0.227363 0.512602
0.509714 0.224475 0.509714
0.792066 0.221588 0.506827
1.000000 0.219160 0.504399
0.000000 0.505315 0.505315
0.217649 0.502888 0.502888
0.500000 0.500000 0.500000
0.782351 0.497112 0.497112
1.000000 0.494685 0.494685
0.000000 0.780840 0.495601
0.207934 0.778412 0.493173
0.490286 0.775525 0.490286
0.772637 0.772637 0.487398
1.000000 0.770210 0.484971
0.000000 1.000000 0.487435
0.199769 1.000000 0.485008
0.482120 1.000000 0.482120
0.764471 1.000000 0.479232
1.000000 1.000000 0.476805
0.000000 0.000000 0.807453
0.234548 0.000000 0.805026
0.516899 0.000000 0.802138
0.799251 0.000000 0.799251
1.000000 0.000000 0.796823
0.000000 0.228810 0.799288
0.226382 0.226382 0.796861
0.508734 0.223495 0.793973
0.791085 0.220607 0.791085
1.000000 0.218180 0.788658
0.000000 0.504334 0.789573
0.216668 0.501907 0.787146
0.499019 0.499019 0.784258
0.781371 0.496132 0.781371
1.000000 0.493704 0.778943
0.000000 0.779859 0.779859
0.206954 0.777432 0.777432
0.489305 0.774544 0.774544
0.771656 0.771656 0.771656
1.000000 0.769229 0.769229
0.000000 1.000000 0.771693
0.198788 1.000000 0.769266
0.481139 1.000000 0.766378
0.763491 1.000000 0.763491
1.000000 1.000000 0.761063
0.000000 0.000000 1.000000
0.233724 0.000000 1.000000
0.516075 0.000000 1.000000
0.798426 0.000000 1.000000
1.000000 0.000000 1.000000
0.000000 0.227985 1.000000
0.225558 0.225558 1.000000
0.507909 0.222670 1.000000
0.790261 0.219783 1.000000
1.000000 0.217355 1.000000
0.000000 0.503510 1.000000
0.215844 0.501083 1.000000
0.498195 0.498195 1.000000
0.780546 0.495307 1.000000
1.000000 0.492880 1.000000
0.000000 0.779035 1.000000
0.206129 0.776607 1.000000
0.488481 0.773720 1.000000
0.770832 0.770832 1.000000
1.000000 0.768405 1.000000
0.000000 1.000000 1.000000
0.197964 1.000000 1.000000
0.480315 1.000000 1.000000
0.762666 1.000000 1.000000
1.000000 1.000000 1.000000
