assets/preview/luts/neutro_clean.cube
TITLE "Neutro Clean"
LUT_3D_SIZE 33
DOMAIN_MIN 0.0 0.0 0.0
DOMAIN_MAX 1.0 1.0 1.0
0.000000 0.000000 0.000000
0.000000 0.000000 0.000000
0.028735 0.000000 0.000000
0.063202 0.000000 0.000000
0.097802 0.000000 0.000000
0.132526 0.000000 0.000000
0.167362 0.000000 0.000000
0.202302 0.000000 0.000000
0.237334 0.000000 0.000000
0.272448 0.000000 0.000000
0.307634 0.000000 0.000000
0.342881 0.000000 0.000000
0.378180 0.000000 0.000000
0.413521 0.000000 0.000000
0.448892 0.000000 0.000000
0.484283 0.000000 0.000000
0.519685 0.000000 0.000000
0.555087 0.000000 0.000000
0.590478 0.000000 0.000000
0.625849 0.000000 0.000000
0.661190 0.000000 0.000000
0.696489 0.000000 0.000000
0.731736 0.000000 0.000000
0.766922 0.000000 0.000000
0.802036 0.000000 0.000000
0.837068 0.000000 0.000000
0.872008 0.000000 0.000000
0.906844 0.000000 0.000000
0.941568 0.000000 0.000000
0.976168 0.000000 0.000000
1.000000 0.000000 0.000000
1.000000 0.000000 0.000000
1.000000 0.000000 0.000000
0.000000 0.000000 0.000000
0.000000 0.000000 0.000000
0.028735 0.000000 0.000000
0.063202 0.000000 0.000000
0.097802 0.000000 0.000000
0.132526 0.000000 0.000000
0.167362 0.000000 0.000000
0.202302 0.000000 0.000000
0.237334 0.000000 0.000000
0.272448 0.000000 0.000000
0.307634 0.000000 0.000000
0.342881 0.000000 0.000000
0.378180 0.000000 0.000000
0.413521 0.000000 0.000000
0.448892 0.000000 0.000000
0.484283 0.000000 0.000000
0.519685 0.000000 0.000000
0.555087 0.000000 0.000000
0.590478 0.000000 0.000000
0.625849 0.000000 0.000000
0.661190 0.000000 0.000000
0.696489 0.000000 0.000000
0.731736 0.000000 0.000000
0.766922 0.000000 0.000000
0.802036 0.000000 0.000000
0.837068 0.000000 0.000000
0.872008 0.000000 0.000000
0.906844 0.000000 0.000000
0.941568 0.000000 0.000000
0.976168 0.000000 0.000000
1.000000 0.000000 0.000000
1.000000 0.000000 0.000000
1.000000 0.000000 0.000000
0.000000 0.028041 0.000000
0.000000 0.028041 0.000000
0.027747 0.027747 0.000000
0.062213 0.027394 0.000000
0.096814 0.027040 0.000000
0.131537 0.026685 0.000000
0.166374 0.026329 0.000000
0.201313 0.025972 0.000000
0.236345 0.025613 0.000000
0.271459 0.025254 0.000000
0.306645 0.024894 0.000000
0.341893 0.024534 0.000000
0.377192 0.024173 0.000000
0.412532 0.023811 0.000000
0.447903 0.023450 0.000000
0.483295 0.023088 0.000000
0.518696 0.022726 0.000000
0.554098 0.022364 0.000000
0.589490 0.022002 0.000000
0.624861 0.021640 0.000000
0.660201 0.021278 0.000000
0.695500 0.020917 0.000000
0.730748 0.020557 0.000000
0.765934 0.020197 0.000000
0.801048 0.019838 0.000000
0.836080 0.019480 0.000000
0.871019 0.019122 0.000000
0.905856 0.018766 0.000000
0.940579 0.018411 0.000000
0.975179 0.018057 0.000000
1.000000 0.017705 0.000000
1.000000 0.017411 0.000000
1.000000 0.017411 0.000000
0.000000 0.061674 0.000000
0.000000 0.061674 0.000000
0.026561 0.061380 0.000000
0.061028 0.061028 0.000000
0.095628 0.060674 0.000000
0.130351 0.060319 0.000000
0.165188 0.059962 0.000000
0.200127 0.059605 0.000000
0.235159 0.059247 0.000000
0.270273 0.058888 0.000000
0.305459 0.058528 0.000000
0.340707 0.058167 0.000000
0.376006 0.057806 0.000000
0.411346 0.057445 0.000000
0.446717 0.057083 0.000000
0.482109 0.056721 0.000000
0.517511 0.056359 0.000000
0.552912 0.055997 0.000000
0.588304 0.055635 0.000000
0.623675 0.055273 0.000000
0.659015 0.054912 0.000000
0.694314 0.054551 0.000000
0.729562 0.054190 0.000000
0.764748 0.053830 0.000000
0.799862 0.053471 0.000000
0.834894 0.053113 0.000000
0.869833 0.052756 0.000000
0.904670 0.052399 0.000000
0.939393 0.052044 0.000000
0.973993 0.051690 0.000000
1.000000 0.051338 0.000000
1.000000 0.051044 0.000000
1.000000 0.051044 0.000000
0.000000 0.095438 0.000000
0.000000 0.095438 0.000000
0.025371 0.095144 0.000000
0.059837 0.094791 0.000000
0.094437 0.094437 0.000000
0.129161 0.094082 0.000000
0.163997 0.093726 0.000000
0.198937 0.093369 0.000000
0.233969 0.093010 0.000000
0.269083 0.092651 0.000000
0.304269 0.092291 0.000000
0.339516 0.091931 0.000000
0.374816 0.091570 0.000000
0.410156 0.091208 0.000000
0.445527 0.090847 0.000000
0.480918 0.090485 0.000000
0.516320 0.090123 0.000000
0.551722 0.089761 0.000000
0.587113 0.089399 0.000000
0.622484 0.089037 0.000000
0.657825 0.088675 0.000000
0.693124 0.088314 0.000000
0.728371 0.087954 0.000000
0.763557 0.087594 0.000000
0.798671 0.087235 0.000000
0.833703 0.086877 0.000000
0.868643 0.086519 0.000000
0.903479 0.086163 0.000000
0.938203 0.085808 0.000000
0.972803 0.085454 0.000000
1.000000 0.085101 0.000000
1.000000 0.084808 0.000000
1.000000 0.084808 0.000000
0.000000 0.129322 0.000000
0.000000 0.129322 0.000000
0.024176 0.129028 0.000000
0.058642 0.128675 0.000000
0.093243 0.128321 0.000000
0.127966 0.127966 0.000000
0.162803 0.127610 0.000000
0.197742 0.127253 0.000000
0.232774 0.126894 0.000000
0.267888 0.126535 0.000000
0.303074 0.126175 0.000000
0.338322 0.125815 0.000000
0.373621 0.125454 0.000000
0.408961 0.125092 0.000000
0.444332 0.124731 0.000000
0.479724 0.124369 0.000000
0.515125 0.124007 0.000000
0.550527 0.123645 0.000000
0.585919 0.123283 0.000000
0.621290 0.122921 0.000000
0.656630 0.122559 0.000000
0.691929 0.122198 0.000000
0.727177 0.121838 0.000000
0.762363 0.121478 0.000000
0.797477 0.121119 0.000000
0.832509 0.120761 0.000000
0.867448 0.120403 0.000000
0.902285 0.120047 0.000000
0.937008 0.119692 0.000000
0.971608 0.119338 0.000000
1.000000 0.118985 0.000000
1.000000 0.118692 0.000000
1.000000 0.118692 0.000000
0.000000 0.163316 0.000000
0.000000 0.163316 0.000000
0.022977 0.163022 0.000000
0.057444 0.162670 0.000000
0.092044 0.162316 0.000000
0.126768 0.161961 0.000000
0.161604 0.161604 0.000000
0.196544 0.161247 0.000000
0.231575 0.160889 0.000000
0.266690 0.160529 0.000000
0.301876 0.160170 0.000000
0.337123 0.159809 0.000000
0.372422 0.159448 0.000000
0.407762 0.159087 0.000000
0.443133 0.158725 0.000000
0.478525 0.158363 0.000000
0.513927 0.158001 0.000000
0.549329 0.157639 0.000000
0.584720 0.157277 0.000000
0.620091 0.156915 0.000000
0.655431 0.156554 0.000000
0.690730 0.156193 0.000000
0.725978 0.155832 0.000000
0.761164 0.155472 0.000000
0.796278 0.155113 0.000000
0.831310 0.154755 0.000000
0.866249 0.154398 0.000000
0.901086 0.154041 0.000000
0.935810 0.153686 0.000000
0.970410 0.153332 0.000000
1.000000 0.152980 0.000000
1.000000 0.152686 0.000000
1.000000 0.152686 0.000000
0.000000 0.197411 0.000000
0.000000 0.197411 0.000000
0.021775 0.197117 0.000000
0.056242 0.196764 0.000000
0.090842 0.196410 0.000000
0.125566 0.196055 0.000000
0.160402 0.195699 0.000000
0.195342 0.195342 0.000000
0.230373 0.194983 0.000000
0.265487 0.194624 0.000000
0.300673 0.194264 0.000000
0.335921 0.193904 0.000000
0.371220 0.193543 0.000000
0.406560 0.193181 0.000000
0.441931 0.192820 0.000000
0.477323 0.192458 0.000000
0.512725 0.192096 0.000000
0.548127 0.191733 0.000000
0.583518 0.191371 0.000000
0.618889 0.191010 0.000000
0.654229 0.190648 0.000000
0.689528 0.190287 0.000000
0.724776 0.189927 0.000000
0.759962 0.189567 0.000000
0.795076 0.189208 0.000000
0.830108 0.188850 0.000000
0.865047 0.188492 0.000000
0.899884 0.188136 0.000000
0.934607 0.187781 0.000000
0.969208 0.187427 0.000000
1.000000 0.187074 0.000000
1.000000 0.186781 0.000000
1.000000 0.186781 0.000000
0.000000 0.231595 0.000000
0.000000 0.231595 0.000000
0.020570 0.231301 0.000000
0.055036 0.230949 0.000000
0.089637 0.230595 0.000000
0.124360 0.230240 0.000000
0.159197 0.229884 0.000000
0.194136 0.229526 0.000000
0.229168 0.229168 0.000000
0.264282 0.228809 0.000000
0.299468 0.228449 0.000000
0.334716 0.228089 0.000000
0.370015 0.227728 0.000000
0.405355 0.227366 0.000000
0.440726 0.227004 0.000000
0.476118 0.226642 0.000000
0.511519 0.226280 0.000000
0.546921 0.225918 0.000000
0.582313 0.225556 0.000000
0.617684 0.225195 0.000000
0.653024 0.224833 0.000000
0.688323 0.224472 0.000000
0.723571 0.224112 0.000000
0.758757 0.223752 0.000000
0.793871 0.223393 0.000000
0.828903 0.223034 0.000000
0.863842 0.222677 0.000000
0.898679 0.222321 0.000000
0.933402 0.221966 0.000000
0.968002 0.221612 0.000000
1.000000 0.221259 0.000000
1.000000 0.220965 0.000000
1.000000 0.220965 0.000000
0.000000 0.265860 0.000000
0.000000 0.265860 0.000000
0.019362 0.265567 0.000000
0.053828 0.265214 0.000000
0.088429 0.264860 0.000000
0.123152 0.264505 0.000000
0.157989 0.264149 0.000000
0.192928 0.263791 0.000000
0.227960 0.263433 0.000000
0.263074 0.263074 0.000000
0.298260 0.262714 0.000000
0.333508 0.262354 0.000000
0.368807 0.261993 0.000000
0.404147 0.261631 0.000000
0.439518 0.261269 0.000000
0.474909 0.260908 0.000000
0.510311 0.260545 0.000000
0.545713 0.260183 0.000000
0.581105 0.259821 0.000000
0.616476 0.259460 0.000000
0.651816 0.259098 0.000000
0.687115 0.258737 0.000000
0.722363 0.258377 0.000000
0.757549 0.258017 0.000000
0.792663 0.257658 0.000000
0.827695 0.257299 0.000000
0.862634 0.256942 0.000000
0.897470 0.256586 0.000000
0.932194 0.256231 0.000000
0.966794 0.255877 0.000000
1.000000 0.255524 0.000000
1.000000 0.255230 0.000000
1.000000 0.255230 0.000000
0.000000 0.300196 0.000000
0.000000 0.300196 0.000000
0.018151 0.299902 0.000000
0.052618 0.299549 0.000000
0.087218 0.299195 0.000000
0.121942 0.298840 0.000000
0.156778 0.298484 0.000000
0.191718 0.298127 0.000000
0.226749 0.297768 0.000000
0.261863 0.297409 0.000000
0.297049 0.297049 0.000000
0.332297 0.296689 0.000000
0.367596 0.296328 0.000000
0.402936 0.295967 0.000000
0.438307 0.295605 0.000000
0.473699 0.295243 0.000000
0.509101 0.294881 0.000000
0.544503 0.294519 0.000000
0.579894 0.294157 0.000000
0.615265 0.293795 0.000000
0.650605 0.293434 0.000000
0.685904 0.293072 0.000000
0.721152 0.292712 0.000000
0.756338 0.292352 0.000000
0.791452 0.291993 0.000000
0.826484 0.291635 0.000000
0.861423 0.291277 0.000000
0.896260 0.290921 0.000000
0.930983 0.290566 0.000000
0.965584 0.290212 0.000000
1.000000 0.289860 0.000000
1.000000 0.289566 0.000000
1.000000 0.289566 0.000000
0.000000 0.334591 0.000000
0.000000 0.334591 0.000000
0.016938 0.334297 0.000000
0.051405 0.333945 0.000000
0.086005 0.333591 0.000000
0.120729 0.333236 0.000000
0.155565 0.332880 0.000000
0.190505 0.332522 0.000000
0.225537 0.332164 0.000000
0.260651 0.331805 0.000000
0.295837 0.331445 0.000000
0.331084 0.331084 0.000000
0.366383 0.330723 0.000000
0.401724 0.330362 0.000000
0.437095 0.330000 0.000000
0.472486 0.329638 0.000000
0.507888 0.329276 0.000000
0.543290 0.328914 0.000000
0.578681 0.328552 0.000000
0.614052 0.328190 0.000000
0.649393 0.327829 0.000000
0.684692 0.327468 0.000000
0.719939 0.327107 0.000000
0.755125 0.326748 0.000000
0.790239 0.326388 0.000000
0.825271 0.326030 0.000000
0.860211 0.325673 0.000000
0.895047 0.325317 0.000000
0.929771 0.324961 0.000000
0.964371 0.324608 0.000000
0.998838 0.324255 0.000000
1.000000 0.323961 0.000000
1.000000 0.323961 0.000000
0.000000 0.369037 0.000000
0.000000 0.369037 0.000000
0.015724 0.368743 0.000000
0.050191 0.368390 0.000000
0.084791 0.368037 0.000000
0.119514 0.367681 0.000000
0.154351 0.367325 0.000000
0.189290 0.366968 0.000000
0.224322 0.366609 0.000000
0.259436 0.366250 0.000000
0.294622 0.365890 0.000000
0.329870 0.365530 0.000000
0.365169 0.365169 0.000000
0.400509 0.364808 0.000000
0.435880 0.364446 0.000000
0.471272 0.364084 0.000000
0.506674 0.363722 0.000000
0.542075 0.363360 0.000000
0.577467 0.362998 0.000000
0.612838 0.362636 0.000000
0.648178 0.362275 0.000000
0.683477 0.361914 0.000000
0.718725 0.361553 0.000000
0.753911 0.361193 0.000000
0.789025 0.360834 0.000000
0.824057 0.360476 0.000000
0.858996 0.360118 0.000000
0.893833 0.359762 0.000000
0.928556 0.359407 0.000000
0.963156 0.359053 0.000000
0.997623 0.358701 0.000000
1.000000 0.358407 0.000000
1.000000 0.358407 0.000000
0.000000 0.403522 0.000000
0.000000 0.403522 0.000000
0.014508 0.403229 0.000000
0.048975 0.402876 0.000000
0.083575 0.402522 0.000000
0.118298 0.402167 0.000000
0.153135 0.401811 0.000000
0.188074 0.401453 0.000000
0.223106 0.401095 0.000000
0.258220 0.400736 0.000000
0.293406 0.400376 0.000000
0.328654 0.400016 0.000000
0.363953 0.399655 0.000000
0.399293 0.399293 0.000000
0.434664 0.398932 0.000000
0.470056 0.398570 0.000000
0.505458 0.398207 0.000000
0.540859 0.397845 0.000000
0.576251 0.397483 0.000000
0.611622 0.397122 0.000000
0.646962 0.396760 0.000000
0.682261 0.396399 0.000000
0.717509 0.396039 0.000000
0.752695 0.395679 0.000000
0.787809 0.395320 0.000000
0.822841 0.394961 0.000000
0.857780 0.394604 0.000000
0.892617 0.394248 0.000000
0.927340 0.393893 0.000000
0.961941 0.393539 0.000000
0.996407 0.393186 0.000000
1.000000 0.392892 0.000000
1.000000 0.392892 0.000000
0.000000 0.438038 0.000000
0.000000 0.438038 0.000000
0.013291 0.437744 0.000000
0.047758 0.437392 0.000000
0.082358 0.437038 0.000000
0.117082 0.436683 0.000000
0.151918 0.436327 0.000000
0.186857 0.435969 0.000000
0.221889 0.435611 0.000000
0.257003 0.435252 0.000000
0.292189 0.434892 0.000000
0.327437 0.434532 0.000000
0.362736 0.434170 0.000000
0.398076 0.433809 0.000000
0.433447 0.433447 0.000000
0.468839 0.433085 0.000000
0.504241 0.432723 0.000000
0.539643 0.432361 0.000000
0.575034 0.431999 0.000000
0.610405 0.431637 0.000000
0.645745 0.431276 0.000000
0.681044 0.430915 0.000000
0.716292 0.430555 0.000000
0.751478 0.430195 0.000000
0.786592 0.429836 0.000000
0.821624 0.429477 0.000000
0.856563 0.429120 0.000000
0.891400 0.428764 0.000000
0.926123 0.428409 0.000000
0.960724 0.428055 0.000000
0.995190 0.427702 0.000000
1.000000 0.427408 0.000000
1.000000 0.427408 0.000000
0.000000 0.472574 0.000000
0.000000 0.472574 0.000000
0.012073 0.472280 0.000000
0.046540 0.471928 0.000000
0.081140 0.471574 0.000000
0.115864 0.471219 0.000000
0.150700 0.470862 0.000000
0.185640 0.470505 0.000000
0.220672 0.470147 0.000000
0.255786 0.469788 0.000000
0.290972 0.469428 0.000000
0.326219 0.469067 0.000000
0.361518 0.468706 0.000000
0.396859 0.468345 0.000000
0.432230 0.467983 0.000000
0.467621 0.467621 0.000000
0.503023 0.467259 0.000000
0.538425 0.466897 0.000000
0.573816 0.466535 0.000000
0.609187 0.466173 0.000000
0.644528 0.465812 0.000000
0.679827 0.465451 0.000000
0.715074 0.465090 0.000000
0.750260 0.464731 0.000000
0.785374 0.464371 0.000000
0.820406 0.464013 0.000000
0.855346 0.463656 0.000000
0.890182 0.463300 0.000000
0.924906 0.462944 0.000000
0.959506 0.462591 0.000000
0.993973 0.462238 0.000000
1.000000 0.461944 0.000000
1.000000 0.461944 0.000000
0.000000 0.507120 0.000000
0.000000 0.507120 0.000000
0.010855 0.506826 0.000000
0.045322 0.506474 0.000000
0.079922 0.506120 0.000000
0.114646 0.505765 0.000000
0.149482 0.505408 0.000000
0.184422 0.505051 0.000000
0.219454 0.504693 0.000000
0.254568 0.504334 0.000000
0.289754 0.503974 0.000000
0.325001 0.503613 0.000000
0.360300 0.503252 0.000000
0.395641 0.502891 0.000000
0.431012 0.502529 0.000000
0.466403 0.502167 0.000000
0.501805 0.501805 0.000000
0.537207 0.501443 0.000000
0.572598 0.501081 0.000000
0.607969 0.500719 0.000000
0.643310 0.500358 0.000000
0.678609 0.499997 0.000000
0.713856 0.499636 0.000000
0.749042 0.499276 0.000000
0.784156 0.498917 0.000000
0.819188 0.498559 0.000000
0.854128 0.498202 0.000000
0.888964 0.497845 0.000000
0.923688 0.497490 0.000000
0.958288 0.497136 0.000000
0.992755 0.496784 0.000000
1.000000 0.496490 0.000000
1.000000 0.496490 0.000000
0.000000 0.541666 0.000000
0.000000 0.541666 0.000000
0.009637 0.541372 0.000000
0.044104 0.541019 0.000000
0.078704 0.540666 0.000000
0.113428 0.540310 0.000000
0.148264 0.539954 0.000000
0.183204 0.539597 0.000000
0.218236 0.539239 0.000000
0.253350 0.538879 0.000000
0.288536 0.538520 0.000000
0.323783 0.538159 0.000000
0.359082 0.537798 0.000000
0.394423 0.537437 0.000000
0.429794 0.537075 0.000000
0.465185 0.536713 0.000000
0.500587 0.536351 0.000000
0.535989 0.535989 0.000000
0.571380 0.535627 0.000000
0.606751 0.535265 0.000000
0.642092 0.534904 0.000000
0.677391 0.534543 0.000000
0.712638 0.534182 0.000000
0.747824 0.533822 0.000000
0.782938 0.533463 0.000000
0.817970 0.533105 0.000000
0.852910 0.532748 0.000000
0.887746 0.532391 0.000000
0.922470 0.532036 0.000000
0.957070 0.531682 0.000000
0.991537 0.531330 0.000000
1.000000 0.531036 0.000000
1.000000 0.531036 0.000000
0.000000 0.576202 0.000000
0.000000 0.576202 0.000000
0.008420 0.575908 0.000000
0.042886 0.575555 0.000000
0.077487 0.575201 0.000000
0.112210 0.574846 0.000000
0.147047 0.574490 0.000000
0.181986 0.574133 0.000000
0.217018 0.573774 0.000000
0.252132 0.573415 0.000000
0.287318 0.573055 0.000000
0.322566 0.572695 0.000000
0.357865 0.572334 0.000000
0.393205 0.571973 0.000000
0.428576 0.571611 0.000000
0.463967 0.571249 0.000000
0.499369 0.570887 0.000000
0.534771 0.570525 0.000000
0.570163 0.570163 0.000000
0.605534 0.569801 0.000000
0.640874 0.569440 0.000000
0.676173 0.569078 0.000000
0.711421 0.568718 0.000000
0.746607 0.568358 0.000000
0.781721 0.567999 0.000000
0.816753 0.567641 0.000000
0.851692 0.567283 0.000000
0.886528 0.566927 0.000000
0.921252 0.566572 0.000000
0.955852 0.566218 0.000000
0.990319 0.565866 0.000000
1.000000 0.565572 0.000000
1.000000 0.565572 0.000000
0.000000 0.610718 0.000000
0.000000 0.610718 0.000000
0.007203 0.610424 0.000000
0.041669 0.610071 0.000000
0.076270 0.609717 0.000000
0.110993 0.609362 0.000000
0.145830 0.609006 0.000000
0.180769 0.608649 0.000000
0.215801 0.608290 0.000000
0.250915 0.607931 0.000000
0.286101 0.607571 0.000000
0.321349 0.607211 0.000000
0.356648 0.606850 0.000000
0.391988 0.606488 0.000000
0.427359 0.606127 0.000000
0.462751 0.605765 0.000000
0.498152 0.605403 0.000000
0.533554 0.605040 0.000000
0.568946 0.604678 0.000000
0.604317 0.604317 0.000000
0.639657 0.603955 0.000000
0.674956 0.603594 0.000000
0.710204 0.603234 0.000000
0.745390 0.602874 0.000000
0.780504 0.602515 0.000000
0.815536 0.602157 0.000000
0.850475 0.601799 0.000000
0.885312 0.601443 0.000000
0.920035 0.601088 0.000000
0.954635 0.600734 0.000000
0.989102 0.600381 0.000000
1.000000 0.600088 0.000000
1.000000 0.600088 0.000000
0.000000 0.645203 0.000000
0.000000 0.645203 0.000000
0.005987 0.644909 0.000000
0.040454 0.644557 0.000000
0.075054 0.644203 0.000000
0.109777 0.643848 0.000000
0.144614 0.643492 0.000000
0.179553 0.643134 0.000000
0.214585 0.642776 0.000000
0.249699 0.642417 0.000000
0.284885 0.642057 0.000000
0.320133 0.641696 0.000000
0.355432 0.641335 0.000000
0.390772 0.640974 0.000000
0.426143 0.640612 0.000000
0.461535 0.640250 0.000000
0.496936 0.639888 0.000000
0.532338 0.639526 0.000000
0.567730 0.639164 0.000000
0.603101 0.638802 0.000000
0.638441 0.638441 0.000000
0.673740 0.638080 0.000000
0.708988 0.637720 0.000000
0.744174 0.637360 0.000000
0.779288 0.637001 0.000000
0.814320 0.636642 0.000000
0.849259 0.636285 0.000000
0.884096 0.635929 0.000000
0.918819 0.635573 0.000000
0.953419 0.635220 0.000000
0.987886 0.634867 0.000000
1.000000 0.634573 0.000000
1.000000 0.634573 0.000000
0.000000 0.679649 0.000000
0.000000 0.679649 0.000000
0.004772 0.679355 0.000000
0.039239 0.679002 0.000000
0.073839 0.678649 0.000000
0.108563 0.678293 0.000000
0.143399 0.677937 0.000000
0.178339 0.677580 0.000000
0.213371 0.677222 0.000000
0.248485 0.676862 0.000000
0.283671 0.676503 0.000000
0.318918 0.676142 0.000000
0.354217 0.675781 0.000000
0.389558 0.675420 0.000000
0.424929 0.675058 0.000000
0.460320 0.674696 0.000000
0.495722 0.674334 0.000000
0.531124 0.673972 0.000000
0.566515 0.673610 0.000000
0.601886 0.673248 0.000000
0.637227 0.672887 0.000000
0.672526 0.672526 0.000000
0.707773 0.672165 0.000000
0.742959 0.671805 0.000000
0.778073 0.671446 0.000000
0.813105 0.671088 0.000000
0.848045 0.670730 0.000000
0.882881 0.670374 0.000000
0.917605 0.670019 0.000000
0.952205 0.669665 0.000000
0.986672 0.669313 0.000000
1.000000 0.669019 0.000000
1.000000 0.669019 0.000000
0.000000 0.714044 0.000000
0.000000 0.714044 0.000000
0.003560 0.713750 0.000000
0.038026 0.713398 0.000000
0.072627 0.713044 0.000000
0.107350 0.712689 0.000000
0.142187 0.712333 0.000000
0.177126 0.711975 0.000000
0.212158 0.711617 0.000000
0.247272 0.711258 0.000000
0.282458 0.710898 0.000000
0.317706 0.710538 0.000000
0.353005 0.710176 0.000000
0.388345 0.709815 0.000000
0.423716 0.709453 0.000000
0.459107 0.709091 0.000000
0.494509 0.708729 0.000000
0.529911 0.708367 0.000000
0.565303 0.708005 0.000000
0.600674 0.707643 0.000000
0.636014 0.707282 0.000000
0.671313 0.706921 0.000000
0.706561 0.706561 0.000000
0.741747 0.706201 0.000000
0.776861 0.705842 0.000000
0.811892 0.705483 0.000000
0.846832 0.705126 0.000000
0.881668 0.704770 0.000000
0.916392 0.704415 0.000000
0.950992 0.704061 0.000000
0.985459 0.703708 0.000000
1.000000 0.703414 0.000000
1.000000 0.703414 0.000000
0.000000 0.748380 0.000000
0.000000 0.748380 0.000000
0.002349 0.748086 0.000000
0.036816 0.747733 0.000000
0.071416 0.747379 0.000000
0.106140 0.747024 0.000000
0.140976 0.746668 0.000000
0.175915 0.746311 0.000000
0.210947 0.745952 0.000000
0.246061 0.745593 0.000000
0.281247 0.745233 0.000000
0.316495 0.744873 0.000000
0.351794 0.744512 0.000000
0.387134 0.744150 0.000000
0.422505 0.743789 0.000000
0.457897 0.743427 0.000000
0.493299 0.743065 0.000000
0.528701 0.742702 0.000000
0.564092 0.742341 0.000000
0.599463 0.741979 0.000000
0.634803 0.741617 0.000000
0.670102 0.741256 0.000000
0.705350 0.740896 0.000000
0.740536 0.740536 0.000000
0.775650 0.740177 0.000000
0.810682 0.739819 0.000000
0.845621 0.739461 0.000000
0.880458 0.739105 0.000000
0.915181 0.738750 0.000000
0.949782 0.738396 0.000000
0.984248 0.738043 0.000000
1.000000 0.737750 0.000000
1.000000 0.737750 0.000000
0.000000 0.782645 0.000000
0.000000 0.782645 0.000000
0.001141 0.782351 0.000000
0.035608 0.781998 0.000000
0.070208 0.781644 0.000000
0.104931 0.781289 0.000000
0.139768 0.780933 0.000000
0.174707 0.780576 0.000000
0.209739 0.780217 0.000000
0.244853 0.779858 0.000000
0.280039 0.779498 0.000000
0.315287 0.779138 0.000000
0.350586 0.778777 0.000000
0.385926 0.778415 0.000000
0.421297 0.778054 0.000000
0.456689 0.777692 0.000000
0.492091 0.777330 0.000000
0.527492 0.776968 0.000000
0.562884 0.776606 0.000000
0.598255 0.776244 0.000000
0.633595 0.775882 0.000000
0.668894 0.775521 0.000000
0.704142 0.775161 0.000000
0.739328 0.774801 0.000000
0.774442 0.774442 0.000000
0.809474 0.774084 0.000000
0.844413 0.773726 0.000000
0.879250 0.773370 0.000000
0.913973 0.773015 0.000000
0.948574 0.772661 0.000000
0.983040 0.772309 0.000000
1.000000 0.772015 0.000000
1.000000 0.772015 0.000000
0.000000 0.816829 0.000000
0.000000 0.816829 0.000000
0.000000 0.816536 0.000000
0.034402 0.816183 0.000000
0.069003 0.815829 0.000000
0.103726 0.815474 0.000000
0.138563 0.815118 0.000000
0.173502 0.814760 0.000000
0.208534 0.814402 0.000000
0.243648 0.814043 0.000000
0.278834 0.813683 0.000000
0.314082 0.813323 0.000000
0.349381 0.812962 0.000000
0.384721 0.812600 0.000000
0.420092 0.812239 0.000000
0.455483 0.811877 0.000000
0.490885 0.811514 0.000000
0.526287 0.811152 0.000000
0.561679 0.810790 0.000000
0.597050 0.810429 0.000000
0.632390 0.810067 0.000000
0.667689 0.809706 0.000000
0.702937 0.809346 0.000000
0.738123 0.808986 0.000000
0.773237 0.808627 0.000000
0.808268 0.808268 0.000000
0.843208 0.807911 0.000000
0.878044 0.807555 0.000000
0.912768 0.807200 0.000000
0.947368 0.806846 0.000000
0.981835 0.806493 0.000000
1.000000 0.806199 0.000000
1.000000 0.806199 0.000000
0.000000 0.850924 0.000000
0.000000 0.850924 0.000000
0.000000 0.850630 0.000000
0.033200 0.850278 0.000000
0.067800 0.849924 0.000000
0.102524 0.849569 0.000000
0.137361 0.849212 0.000000
0.172300 0.848855 0.000000
0.207332 0.848497 0.000000
0.242446 0.848138 0.000000
0.277632 0.847778 0.000000
0.312880 0.847417 0.000000
0.348179 0.847056 0.000000
0.383519 0.846695 0.000000
0.418890 0.846333 0.000000
0.454281 0.845971 0.000000
0.489683 0.845609 0.000000
0.525085 0.845247 0.000000
0.560477 0.844885 0.000000
0.595848 0.844523 0.000000
0.631188 0.844162 0.000000
0.666487 0.843801 0.000000
0.701734 0.843440 0.000000
0.736920 0.843081 0.000000
0.772035 0.842721 0.000000
0.807066 0.842363 0.000000
0.842006 0.842006 0.000000
