assets/preview/luts/neutro_clean.cube
TITLE "Neutro Clean"
LUT_3D_SIZE 9
DOMAIN_MIN 0.0 0.0 0.0
DOMAIN_MAX 1.0 1.0 1.0
0.000000 0.000000 0.000000
0.097802 0.000000 0.000000
0.237334 0.000000 0.000000
0.378180 0.000000 0.000000
0.519685 0.000000 0.000000
0.661190 0.000000 0.000000
0.802036 0.000000 0.000000
0.941568 0.000000 0.000000
1.000000 0.000000 0.000000
0.000000 0.095438 0.000000
0.094437 0.094437 0.000000
0.233969 0.093010 0.000000
0.374816 0.091570 0.000000
0.516320 0.090123 0.000000
0.657825 0.088675 0.000000
0.798671 0.087235 0.000000
0.938203 0.085808 0.000000
1.000000 0.084808 0.000000
0.000000 0.231595 0.000000
0.089637 0.230595 0.000000
0.229168 0.229168 0.000000
0.370015 0.227728 0.000000
0.511519 0.226280 0.000000
0.653024 0.224833 0.000000
0.793871 0.223393 0.000000
0.933402 0.221966 0.000000
1.000000 0.220965 0.000000
0.000000 0.369037 0.000000
0.084791 0.368037 0.000000
0.224322 0.366609 0.000000
0.365169 0.365169 0.000000
0.506674 0.363722 0.000000
0.648178 0.362275 0.000000
0.789025 0.360834 0.000000
0.928556 0.359407 0.000000
1.000000 0.358407 0.000000
0.000000 0.507120 0.000000
0.079922 0.506120 0.000000
0.219454 0.504693 0.000000
0.360300 0.503252 0.000000
0.501805 0.501805 0.000000
0.643310 0.500358 0.000000
0.784156 0.498917 0.000000
0.923688 0.497490 0.000000
1.000000 0.496490 0.000000
0.000000 0.645203 0.000000
0.075054 0.644203 0.000000
0.214585 0.642776 0.000000
0.355432 0.641335 0.000000
0.496936 0.639888 0.000000
0.638441 0.638441 0.000000
0.779288 0.637001 0.000000
0.918819 0.635573 0.000000
1.000000 0.634573 0.000000
0.000000 0.782645 0.000000
0.070208 0.781644 0.000000
0.209739 0.780217 0.000000
0.350586 0.778777 0.000000
0.492091 0.777330 0.000000
0.633595 0.775882 0.000000
0.774442 0.774442 0.000000
0.913973 0.773015 0.000000
1.000000 0.772015 0.000000
0.000000 0.918802 0.000000
0.065407 0.917802 0.000000
0.204939 0.916375 0.000000
0.345785 0.914935 0.000000
0.487290 0.913487 0.000000
0.628794 0.912040 0.000000
0.769641 0.910600 0.000000
0.909173 0.909173 0.000000
1.000000 0.908172 0.000000
0.000000 1.000000 0.000000
0.062042 1.000000 0.000000
0.201574 1.000000 0.000000
0.342420 1.000000 0.000000
0.483925 1.000000 0.000000
0.625430 1.000000 0.000000
0.766276 1.000000 0.000000
0.905808 1.000000 0.000000
1.000000 1.000000 0.000000
0.000000 0.000000 0.098463
0.097463 0.000000 0.097463
0.236994 0.000000 0.096036
0.377841 0.000000 0.094595
0.519345 0.000000 0.093148
0.660850 0.000000 0.091701
0.801697 0.000000 0.090260
0.941228 0.000000 0.088833
1.000000 0.000000 0.087833
0.000000 0.095098 0.095098
0.094098 0.094098 0.094098
0.233629 0.092671 0.092671
0.374476 0.091230 0.091230
0.515980 0.089783 0.089783
0.657485 0.088336 0.088336
0.798332 0.086895 0.086895
0.937863 0.085468 0.085468
1.000000 0.084468 0.084468
0.000000 0.231256 0.090297
0.089297 0.230255 0.089297
0.228828 0.228828 0.087870
0.369675 0.227388 0.086429
0.511180 0.225941 0.084982
0.652684 0.224493 0.083535
0.793531 0.223053 0.082095
0.933062 0.221626 0.080668
1.000000 0.220626 0.079667
0.000000 0.368697 0.085451
0.084451 0.367697 0.084451
0.223982 0.366270 0.083024
0.364829 0.364829 0.081584
0.506334 0.363382 0.080136
0.647838 0.361935 0.078689
0.788685 0.360494 0.077249
0.928217 0.359067 0.075822
1.000000 0.358067 0.074821
0.000000 0.506780 0.080583
0.079583 0.505780 0.079583
0.219114 0.504353 0.078156
0.359961 0.502913 0.076715
0.501465 0.501465 0.075268
0.642970 0.500018 0.073821
0.783817 0.498578 0.072380
0.923348 0.497151 0.070953
1.000000 0.496150 0.069953
0.000000 0.644864 0.075714
0.074714 0.643863 0.074714
0.214245 0.642436 0.073287
0.355092 0.640996 0.071847
0.496597 0.639549 0.070399
0.638101 0.638101 0.068952
0.778948 0.636661 0.067512
0.918479 0.635234 0.066085
1.000000 0.634234 0.065084
0.000000 0.782305 0.070868
0.069868 0.781305 0.069868
0.209400 0.779878 0.068441
0.350246 0.778437 0.067001
0.491751 0.776990 0.065553
0.633255 0.775543 0.064106
0.774102 0.774102 0.062666
0.913634 0.772675 0.061239
1.000000 0.771675 0.060238
0.000000 0.918463 0.066068
0.065068 0.917462 0.065068
0.204599 0.916035 0.063640
0.345446 0.914595 0.062200
0.486950 0.913148 0.060753
0.628455 0.911700 0.059306
0.769302 0.910260 0.057865
0.908833 0.908833 0.056438
1.000000 0.907833 0.055438
0.000000 1.000000 0.062703
0.061703 1.000000 0.061703
0.201234 1.000000 0.060276
0.342081 1.000000 0.058835
0.483585 1.000000 0.057388
0.625090 1.000000 0.055941
0.765937 1.000000 0.054500
0.905468 1.000000 0.053073
1.000000 1.000000 0.052073
0.000000 0.000000 0.238937
0.096978 0.000000 0.237936
0.236509 0.000000 0.236509
0.377356 0.000000 0.235069
0.518861 0.000000 0.233622
0.660365 0.000000 0.232174
0.801212 0.000000 0.230734
0.940743 0.000000 0.229307
1.000000 0.000000 0.228307
0.000000 0.094613 0.235572
0.093613 0.093613 0.234571
0.233144 0.092186 0.233144
0.373991 0.090746 0.231704
0.515496 0.089298 0.230257
0.657000 0.087851 0.228809
0.797847 0.086411 0.227369
0.937378 0.084984 0.225942
1.000000 0.083983 0.224942
0.000000 0.230771 0.230771
0.088812 0.229771 0.229771
0.228344 0.228344 0.228344
0.369191 0.226903 0.226903
0.510695 0.225456 0.225456
0.652200 0.224009 0.224009
0.793046 0.222568 0.222568
0.932578 0.221141 0.221141
1.000000 0.220141 0.220141
0.000000 0.368212 0.225925
0.083966 0.367212 0.224925
0.223498 0.365785 0.223498
0.364345 0.364345 0.222057
0.505849 0.362897 0.220610
0.647354 0.361450 0.219163
0.788201 0.360010 0.217722
0.927732 0.358583 0.216295
1.000000 0.357582 0.215295
0.000000 0.506296 0.221057
0.079098 0.505295 0.220056
0.218629 0.503868 0.218629
0.359476 0.502428 0.217189
0.500981 0.500981 0.215742
0.642485 0.499533 0.214294
0.783332 0.498093 0.212854
0.922863 0.496666 0.211427
1.000000 0.495666 0.210427
0.000000 0.644379 0.216188
0.074229 0.643379 0.215188
0.213761 0.641952 0.213761
0.354608 0.640511 0.212320
0.496112 0.639064 0.210873
0.637617 0.637617 0.209426
0.778464 0.636176 0.207985
0.917995 0.634749 0.206558
1.000000 0.633749 0.205558
0.000000 0.781820 0.211342
0.069384 0.780820 0.210342
0.208915 0.779393 0.208915
0.349762 0.777953 0.207474
0.491266 0.776505 0.206027
0.632771 0.775058 0.204580
0.773618 0.773618 0.203139
0.913149 0.772191 0.201712
1.000000 0.771190 0.200712
0.000000 0.917978 0.206542
0.064583 0.916978 0.205541
0.204114 0.915551 0.204114
0.344961 0.914110 0.202674
0.486466 0.912663 0.201227
0.627970 0.911216 0.199779
0.768817 0.909775 0.198339
0.908348 0.908348 0.196912
1.000000 0.907348 0.195912
0.000000 1.000000 0.203177
0.061218 1.000000 0.202176
0.200749 1.000000 0.200749
0.341596 1.000000 0.199309
0.483101 1.000000 0.197862
0.624605 1.000000 0.196414
0.765452 1.000000 0.194974
0.904983 1.000000 0.193547
1.000000 1.000000 0.192547
0.000000 0.000000 0.380735
0.096489 0.000000 0.379734
0.236020 0.000000 0.378307
0.376867 0.000000 0.376867
0.518371 0.000000 0.375420
0.659876 0.000000 0.373973
0.800723 0.000000 0.372532
0.940254 0.000000 0.371105
1.000000 0.000000 0.370105
0.000000 0.094124 0.377370
0.093124 0.093124 0.376370
0.232655 0.091697 0.374942
0.373502 0.090256 0.373502
0.515007 0.088809 0.372055
0.656511 0.087362 0.370608
0.797358 0.085921 0.369167
0.936889 0.084494 0.367740
1.000000 0.083494 0.366740
0.000000 0.230282 0.372569
0.088323 0.229282 0.371569
0.227855 0.227855 0.370142
0.368701 0.226414 0.368701
0.510206 0.224967 0.367254
0.651710 0.223520 0.365807
0.792557 0.222079 0.364366
0.932089 0.220652 0.362939
1.000000 0.219652 0.361939
0.000000 0.367723 0.367723
0.083477 0.366723 0.366723
0.223009 0.365296 0.365296
0.363855 0.363855 0.363855
0.505360 0.362408 0.362408
0.646865 0.360961 0.360961
0.787711 0.359521 0.359521
0.927243 0.358094 0.358094
1.000000 0.357093 0.357093
0.000000 0.505806 0.362855
0.078609 0.504806 0.361854
0.218140 0.503379 0.360427
0.358987 0.501939 0.358987
0.500491 0.500491 0.357540
0.641996 0.499044 0.356093
0.782843 0.497604 0.354652
0.922374 0.496177 0.353225
1.000000 0.495176 0.352225
0.000000 0.643890 0.357986
0.073740 0.642889 0.356986
0.213272 0.641462 0.355559
0.354118 0.640022 0.354118
0.495623 0.638575 0.352671
0.637127 0.637127 0.351224
0.777974 0.635687 0.349783
0.917506 0.634260 0.348356
1.000000 0.633260 0.347356
0.000000 0.781331 0.353140
0.068894 0.780331 0.352140
0.208426 0.778904 0.350713
0.349273 0.777463 0.349273
0.490777 0.776016 0.347825
0.632282 0.774569 0.346378
0.773128 0.773128 0.344938
0.912660 0.771701 0.343511
1.000000 0.770701 0.342510
0.000000 0.917489 0.348340
0.064094 0.916489 0.347339
0.203625 0.915062 0.345912
0.344472 0.913621 0.344472
0.485976 0.912174 0.343025
0.627481 0.910727 0.341577
0.768328 0.909286 0.340137
0.907859 0.907859 0.338710
1.000000 0.906859 0.337710
0.000000 1.000000 0.344975
0.060729 1.000000 0.343974
0.200260 1.000000 0.342547
0.341107 1.000000 0.341107
0.482611 1.000000 0.339660
0.624116 1.000000 0.338213
0.764963 1.000000 0.336772
0.904494 1.000000 0.335345
1.000000 1.000000 0.334345
0.000000 0.000000 0.523195
0.095997 0.000000 0.522195
0.235529 0.000000 0.520768
0.376375 0.000000 0.519327
0.517880 0.000000 0.517880
0.659385 0.000000 0.516433
0.800231 0.000000 0.514992
0.939763 0.000000 0.513565
1.000000 0.000000 0.512565
0.000000 0.093633 0.519830
0.092632 0.092632 0.518830
0.232164 0.091205 0.517403
0.373011 0.089765 0.515962
0.514515 0.088318 0.514515
0.656020 0.086870 0.513068
0.796866 0.085430 0.511627
0.936398 0.084003 0.510200
1.000000 0.083003 0.509200
0.000000 0.229790 0.515029
0.087832 0.228790 0.514029
0.227363 0.227363 0.512602
0.368210 0.225923 0.511162
0.509714 0.224475 0.509714
0.651219 0.223028 0.508267
0.792066 0.221588 0.506827
0.931597 0.220161 0.505400
1.000000 0.219160 0.504399
0.000000 0.367232 0.510184
0.082986 0.366232 0.509183
0.222517 0.364804 0.507756
0.363364 0.363364 0.506316
0.504869 0.361917 0.504869
0.646373 0.360470 0.503421
0.787220 0.359029 0.501981
0.926751 0.357602 0.500554
1.000000 0.356602 0.499554
0.000000 0.505315 0.505315
0.078117 0.504315 0.504315
0.217649 0.502888 0.502888
0.358495 0.501447 0.501447
0.500000 0.500000 0.500000
0.641505 0.498553 0.498553
0.782351 0.497112 0.497112
0.921883 0.495685 0.495685
1.000000 0.494685 0.494685
0.000000 0.643398 0.500446
0.073249 0.642398 0.499446
0.212780 0.640971 0.498019
0.353627 0.639530 0.496579
0.495131 0.638083 0.495131
0.636636 0.636636 0.493684
0.777483 0.635196 0.492244
0.917014 0.633768 0.490817
1.000000 0.632768 0.489816
0.000000 0.780840 0.495601
0.068403 0.779839 0.494600
0.207934 0.778412 0.493173
0.348781 0.776972 0.491733
0.490286 0.775525 0.490286
0.631790 0.774077 0.488838
0.772637 0.772637 0.487398
0.912168 0.771210 0.485971
1.000000 0.770210 0.484971
0.000000 0.916997 0.490800
0.063602 0.915997 0.489800
0.203134 0.914570 0.488373
0.343980 0.913130 0.486932
0.485485 0.911682 0.485485
0.626989 0.910235 0.484038
0.767836 0.908795 0.482597
0.907368 0.907368 0.481170
1.000000 0.906367 0.480170
0.000000 1.000000 0.487435
0.060237 1.000000 0.486435
0.199769 1.000000 0.485008
0.340615 1.000000 0.483567
0.482120 1.000000 0.482120
0.623625 1.000000 0.480673
0.764471 1.000000 0.479232
0.904003 1.000000 0.477805
1.000000 1.000000 0.476805
0.000000 0.000000 0.665655
0.095506 0.000000 0.664655
0.235037 0.000000 0.663228
0.375884 0.000000 0.661787
0.517389 0.000000 0.660340
0.658893 0.000000 0.658893
0.799740 0.000000 0.657453
0.939271 0.000000 0.656026
1.000000 0.000000 0.655025
0.000000 0.093141 0.662290
0.092141 0.092141 0.661290
0.231672 0.090714 0.659863
0.372519 0.089273 0.658423
0.514024 0.087826 0.656975
0.655528 0.086379 0.655528
0.796375 0.084938 0.654088
0.935906 0.083511 0.652661
1.000000 0.082511 0.651660
0.000000 0.229299 0.657490
0.087340 0.228299 0.656489
0.226872 0.226872 0.655062
0.367718 0.225431 0.653622
0.509223 0.223984 0.652175
0.650727 0.222537 0.650727
0.791574 0.221096 0.649287
0.931106 0.219669 0.647860
1.000000 0.218669 0.646860
0.000000 0.366740 0.652644
0.082494 0.365740 0.651644
0.222026 0.364313 0.650217
0.362873 0.362873 0.648776
0.504377 0.361425 0.647329
0.645882 0.359978 0.645882
0.786728 0.358538 0.644441
0.926260 0.357111 0.643014
1.000000 0.356110 0.642014
0.000000 0.504824 0.647775
0.077626 0.503823 0.646775
0.217157 0.502396 0.645348
0.358004 0.500956 0.643907
0.499509 0.499509 0.642460
0.641013 0.498061 0.641013
0.781860 0.496621 0.639573
0.921391 0.495194 0.638146
1.000000 0.494194 0.637145
0.000000 0.642907 0.642907
0.072757 0.641906 0.641906
0.212289 0.640479 0.640479
0.353135 0.639039 0.639039
0.494640 0.637592 0.637592
0.636145 0.636145 0.636145
0.776991 0.634704 0.634704
0.916523 0.633277 0.633277
1.000000 0.632277 0.632277
0.000000 0.780348 0.638061
0.067911 0.779348 0.637061
0.207443 0.777921 0.635634
0.348290 0.776480 0.634193
0.489794 0.775033 0.632746
0.631299 0.773586 0.631299
0.772145 0.772145 0.629858
0.911677 0.770718 0.628431
1.000000 0.769718 0.627431
0.000000 0.916506 0.633260
0.063111 0.915506 0.632260
0.202642 0.914079 0.630833
0.343489 0.912638 0.629392
0.484993 0.911191 0.627945
0.626498 0.909744 0.626498
0.767345 0.908303 0.625058
0.906876 0.906876 0.623630
1.000000 0.905876 0.622630
0.000000 1.000000 0.629895
0.059746 1.000000 0.628895
0.199277 1.000000 0.627468
0.340124 1.000000 0.626027
0.481629 1.000000 0.624580
0.623133 1.000000 0.623133
0.763980 1.000000 0.621693
0.903511 1.000000 0.620266
1.000000 1.000000 0.619265
0.000000 0.000000 0.807453
0.095017 0.000000 0.806453
0.234548 0.000000 0.805026
0.375395 0.000000 0.803586
0.516899 0.000000 0.802138
0.658404 0.000000 0.800691
0.799251 0.000000 0.799251
0.938782 0.000000 0.797824
1.000000 0.000000 0.796823
0.000000 0.092652 0.804088
0.091652 0.091652 0.803088
0.231183 0.090225 0.801661
0.372030 0.088784 0.800221
0.513534 0.087337 0.798773
0.655039 0.085890 0.797326
0.795886 0.084449 0.795886
0.935417 0.083022 0.794459
1.000000 0.082022 0.793458
0.000000 0.228810 0.799288
0.086851 0.227809 0.798288
0.226382 0.226382 0.796861
0.367229 0.224942 0.795420
0.508734 0.223495 0.793973
0.650238 0.222047 0.792526
0.791085 0.220607 0.791085
0.930616 0.219180 0.789658
1.000000 0.218180 0.788658
0.000000 0.366251 0.794442
0.082005 0.365251 0.793442
0.221536 0.363824 0.792015
0.362383 0.362383 0.790574
0.503888 0.360936 0.789127
0.645392 0.359489 0.787680
0.786239 0.358048 0.786239
0.925771 0.356621 0.784812
1.000000 0.355621 0.783812
0.000000 0.504334 0.789573
0.077137 0.503334 0.788573
0.216668 0.501907 0.787146
0.357515 0.500467 0.785706
0.499019 0.499019 0.784258
0.640524 0.497572 0.782811
0.781371 0.496132 0.781371
0.920902 0.494705 0.779944
1.000000 0.493704 0.778943
0.000000 0.642418 0.784705
0.072268 0.641417 0.783705
0.211799 0.639990 0.782278
0.352646 0.638550 0.780837
0.494151 0.637103 0.779390
0.635655 0.635655 0.777943
0.776502 0.634215 0.776502
0.916034 0.632788 0.775075
1.000000 0.631788 0.774075
0.000000 0.779859 0.779859
0.067422 0.778859 0.778859
0.206954 0.777432 0.777432
0.347800 0.775991 0.775991
0.489305 0.774544 0.774544
0.630809 0.773097 0.773097
0.771656 0.771656 0.771656
0.911188 0.770229 0.770229
1.000000 0.769229 0.769229
0.000000 0.916017 0.775058
0.062622 0.915016 0.774058
0.202153 0.913589 0.772631
0.343000 0.912149 0.771191
0.484504 0.910702 0.769743
0.626009 0.909254 0.768296
0.766856 0.907814 0.766856
0.906387 0.906387 0.765429
1.000000 0.905387 0.764428
0.000000 1.000000 0.771693
0.059257 1.000000 0.770693
0.198788 1.000000 0.769266
0.339635 1.000000 0.767826
0.481139 1.000000 0.766378
0.622644 1.000000 0.764931
0.763491 1.000000 0.763491
0.903022 1.000000 0.762064
1.000000 1.000000 0.761063
0.000000 0.000000 0.947927
0.094532 0.000000 0.946927
0.234063 0.000000 0.945500
0.374910 0.000000 0.944059
0.516415 0.000000 0.942612
0.657919 0.000000 0.941165
0.798766 0.000000 0.939724
0.938297 0.000000 0.938297
1.000000 0.000000 0.937297
0.000000 0.092167 0.944562
0.091167 0.091167 0.943562
0.230698 0.089740 0.942135
0.371545 0.088300 0.940694
0.513050 0.086852 0.939247
0.654554 0.085405 0.937800
0.795401 0.083965 0.936360
0.934932 0.082538 0.934932
1.000000 0.081537 0.933932
0.000000 0.228325 0.939762
0.086366 0.227325 0.938761
0.225898 0.225898 0.937334
0.366745 0.224457 0.935894
0.508249 0.223010 0.934447
0.649754 0.221563 0.932999
0.790600 0.220122 0.931559
0.930132 0.218695 0.930132
1.000000 0.217695 0.929132
0.000000 0.365766 0.934916
0.081521 0.364766 0.933915
0.221052 0.363339 0.932488
0.361899 0.361899 0.931048
0.503403 0.360451 0.929601
0.644908 0.359004 0.928153
0.785755 0.357564 0.926713
0.925286 0.356137 0.925286
1.000000 0.355136 0.924286
0.000000 0.503850 0.930047
0.076652 0.502849 0.929047
0.216183 0.501422 0.927620
0.357030 0.499982 0.926179
0.498535 0.498535 0.924732
0.640039 0.497087 0.923285
0.780886 0.495647 0.921844
0.920417 0.494220 0.920417
1.000000 0.493220 0.919417
0.000000 0.641933 0.925179
0.071783 0.640933 0.924178
0.211315 0.639506 0.922751
0.352162 0.638065 0.921311
0.493666 0.636618 0.919864
0.635171 0.635171 0.918416
0.776018 0.633730 0.916976
0.915549 0.632303 0.915549
1.000000 0.631303 0.914549
0.000000 0.779374 0.920333
0.066938 0.778374 0.919332
0.206469 0.776947 0.917905
0.347316 0.775507 0.916465
0.488820 0.774059 0.915018
0.630325 0.772612 0.913571
0.771172 0.771172 0.912130
0.910703 0.769745 0.910703
1.000000 0.768744 0.909703
0.000000 0.915532 0.915532
0.062137 0.914532 0.914532
0.201668 0.913105 0.913105
0.342515 0.911664 0.911664
0.484020 0.910217 0.910217
0.625524 0.908770 0.908770
0.766371 0.907329 0.907329
0.905902 0.905902 0.905902
1.000000 0.904902 0.904902
0.000000 1.000000 0.912167
0.058772 1.000000 0.911167
0.198303 1.000000 0.909740
0.339150 1.000000 0.908299
0.480655 1.000000 0.906852
0.622159 1.000000 0.905405
0.763006 1.000000 0.903964
0.902537 1.000000 0.902537
1.000000 1.000000 0.901537
0.000000 0.000000 1.000000
0.094192 0.000000 1.000000
0.233724 0.000000 1.000000
0.374570 0.000000 1.000000
0.516075 0.000000 1.000000
0.657580 0.000000 1.000000
0.798426 0.000000 1.000000
0.937958 0.000000 1.000000
1.000000 0.000000 1.000000
0.000000 0.091828 1.000000
0.090827 0.090827 1.000000
0.230359 0.089400 1.000000
0.371206 0.087960 1.000000
0.512710 0.086513 1.000000
0.654215 0.085065 1.000000
0.795061 0.083625 1.000000
0.934593 0.082198 1.000000
1.000000 0.081198 1.000000
0.000000 0.227985 1.000000
0.086027 0.226985 1.000000
0.225558 0.225558 1.000000
0.366405 0.224118 1.000000
0.507909 0.222670 1.000000
0.649414 0.221223 1.000000
0.790261 0.219783 1.000000
0.929792 0.218356 1.000000
1.000000 0.217355 1.000000
0.000000 0.365427 1.000000
0.081181 0.364427 1.000000
0.220712 0.362999 1.000000
0.361559 0.361559 1.000000
0.503064 0.360112 1.000000
0.644568 0.358665 1.000000
0.785415 0.357224 1.000000
0.924946 0.355797 1.000000
1.000000 0.354797 1.000000
0.000000 0.503510 1.000000
0.076312 0.502510 1.000000
0.215844 0.501083 1.000000
0.356690 0.499642 1.000000
0.498195 0.498195 1.000000
0.639700 0.496748 1.000000
0.780546 0.495307 1.000000
0.920078 0.493880 1.000000
1.000000 0.492880 1.000000
0.000000 0.641593 1.000000
0.071444 0.640593 1.000000
0.210975 0.639166 1.000000
0.351822 0.637725 1.000000
0.493326 0.636278 1.000000
0.634831 0.634831 1.000000
0.775678 0.633391 1.000000
0.915209 0.631963 1.000000
1.000000 0.630963 1.000000
0.000000 0.779035 1.000000
0.066598 0.778034 1.000000
0.206129 0.776607 1.000000
0.346976 0.775167 1.000000
0.488481 0.773720 1.000000
0.629985 0.772272 1.000000
0.770832 0.770832 1.000000
0.910363 0.769405 1.000000
1.000000 0.768405 1.000000
0.000000 0.915192 1.000000
0.061797 0.914192 1.000000
0.201329 0.912765 1.000000
0.342175 0.911325 1.000000
0.483680 0.909877 1.000000
0.625184 0.908430 1.000000
0.766031 0.906990 1.000000
0.905563 0.905563 1.000000
1.000000 0.904562 1.000000
0.000000 1.000000 1.000000
0.058432 1.000000 1.000000
0.197964 1.000000 1.000000
0.338810 1.000000 1.000000
0.480315 1.000000 1.000000
0.621820 1.000000 1.000000
0.762666 1.000000 1.000000
0.902198 1.000000 1.000000
1.000000 1.000000 1.000000
