assets/preview/luts/premium.cube
TITLE "Premium"
LUT_3D_SIZE 33
DOMAIN_MIN 0.0 0.0 0.0
DOMAIN_MAX 1.0 1.0 1.0
0.047059 0.031373 0.031373
0.047059 0.031373 0.031373
0.074510 0.031373 0.031373
0.105882 0.031373 0.031373
0.129412 0.031373 0.031373
0.164706 0.031373 0.031373
0.192157 0.031373 0.031373
0.215686 0.031373 0.031373
0.243137 0.031373 0.031373
0.270588 0.031373 0.031373
0.301961 0.031373 0.031373
0.333333 0.031373 0.031373
0.360784 0.031373 0.031373
0.392157 0.031373 0.031373
0.411765 0.031373 0.031373
0.443137 0.031373 0.031373
0.470588 0.031373 0.031373
0.501961 0.031373 0.031373
0.537255 0.031373 0.031373
0.560784 0.031373 0.031373
0.596078 0.031373 0.031373
0.615686 0.031373 0.031373
0.643137 0.031373 0.031373
0.670588 0.031373 0.031373
0.705882 0.031373 0.031373
0.733333 0.031373 0.031373
0.764706 0.031373 0.031373
0.792157 0.031373 0.031373
0.819608 0.031373 0.031373
0.847059 0.031373 0.031373
0.886275 0.031373 0.031373
0.913725 0.031373 0.031373
0.945098 0.031373 0.031373
0.047059 0.035294 0.031373
0.047059 0.035294 0.031373
0.074510 0.035294 0.031373
0.109804 0.035294 0.031373
0.133333 0.039216 0.031373
0.164706 0.035294 0.031373
0.192157 0.039216 0.031373
0.215686 0.039216 0.031373
0.243137 0.039216 0.031373
0.274510 0.043137 0.031373
0.301961 0.043137 0.031373
0.333333 0.043137 0.031373
0.360784 0.047059 0.031373
0.392157 0.043137 0.031373
0.419608 0.043137 0.031373
0.447059 0.050980 0.031373
0.474510 0.050980 0.031373
0.501961 0.050980 0.031373
0.537255 0.050980 0.031373
0.560784 0.050980 0.031373
0.596078 0.050980 0.031373
0.619608 0.050980 0.031373
0.643137 0.050980 0.031373
0.670588 0.050980 0.031373
0.705882 0.050980 0.031373
0.733333 0.050980 0.031373
0.764706 0.050980 0.031373
0.792157 0.050980 0.031373
0.831373 0.054902 0.031373
0.858824 0.058824 0.031373
0.886275 0.058824 0.031373
0.921569 0.054902 0.031373
0.949020 0.062745 0.031373
0.047059 0.062745 0.031373
0.050980 0.070588 0.031373
0.074510 0.070588 0.031373
0.109804 0.066667 0.031373
0.133333 0.070588 0.031373
0.164706 0.070588 0.031373
0.192157 0.070588 0.031373
0.223529 0.066667 0.031373
0.247059 0.074510 0.031373
0.274510 0.074510 0.031373
0.301961 0.074510 0.031373
0.333333 0.074510 0.031373
0.360784 0.074510 0.031373
0.396078 0.074510 0.031373
0.423529 0.074510 0.031373
0.447059 0.078431 0.031373
0.474510 0.078431 0.031373
0.501961 0.082353 0.031373
0.537255 0.078431 0.031373
0.560784 0.078431 0.031373
0.596078 0.078431 0.031373
0.619608 0.078431 0.031373
0.650980 0.078431 0.031373
0.670588 0.082353 0.031373
0.705882 0.078431 0.031373
0.741176 0.078431 0.031373
0.768627 0.082353 0.031373
0.803922 0.082353 0.031373
0.831373 0.082353 0.031373
0.862745 0.082353 0.031373
0.886275 0.086275 0.031373
0.921569 0.082353 0.031373
0.949020 0.090196 0.031373
0.047059 0.094118 0.031373
0.054902 0.094118 0.031373
0.074510 0.098039 0.031373
0.109804 0.098039 0.031373
0.133333 0.098039 0.031373
0.164706 0.094118 0.031373
0.192157 0.098039 0.031373
0.219608 0.094118 0.031373
0.254902 0.101961 0.031373
0.274510 0.101961 0.031373
0.301961 0.105882 0.031373
0.337255 0.105882 0.031373
0.364706 0.105882 0.031373
0.396078 0.105882 0.031373
0.423529 0.109804 0.031373
0.450980 0.105882 0.031373
0.474510 0.109804 0.031373
0.501961 0.109804 0.031373
0.537255 0.109804 0.031373
0.560784 0.109804 0.031373
0.596078 0.109804 0.031373
0.623529 0.105882 0.031373
0.647059 0.105882 0.031373
0.678431 0.109804 0.031373
0.709804 0.113725 0.031373
0.745098 0.113725 0.031373
0.768627 0.113725 0.031373
0.800000 0.113725 0.031373
0.831373 0.113725 0.031373
0.862745 0.109804 0.031373
0.890196 0.113725 0.031373
0.921569 0.121569 0.031373
0.949020 0.121569 0.031373
0.047059 0.121569 0.031373
0.054902 0.121569 0.031373
0.078431 0.121569 0.031373
0.109804 0.125490 0.031373
0.133333 0.125490 0.031373
0.164706 0.121569 0.031373
0.192157 0.125490 0.031373
0.223529 0.129412 0.031373
0.254902 0.129412 0.031373
0.282353 0.129412 0.031373
0.305882 0.137255 0.031373
0.337255 0.133333 0.031373
0.364706 0.137255 0.031373
0.392157 0.133333 0.031373
0.423529 0.133333 0.031373
0.450980 0.133333 0.031373
0.478431 0.133333 0.031373
0.509804 0.133333 0.031373
0.537255 0.137255 0.031373
0.564706 0.133333 0.031373
0.592157 0.137255 0.031373
0.623529 0.133333 0.031373
0.650980 0.137255 0.031373
0.686275 0.137255 0.031373
0.709804 0.141176 0.031373
0.741176 0.141176 0.031373
0.768627 0.141176 0.031373
0.800000 0.141176 0.031373
0.827451 0.141176 0.031373
0.862745 0.141176 0.031373
0.894118 0.145098 0.031373
0.921569 0.145098 0.031373
0.949020 0.149020 0.031373
0.047059 0.152941 0.031373
0.054902 0.152941 0.031373
0.078431 0.152941 0.031373
0.113725 0.152941 0.031373
0.133333 0.156863 0.031373
0.164706 0.156863 0.031373
0.188235 0.156863 0.031373
0.227451 0.160784 0.031373
0.258824 0.160784 0.031373
0.282353 0.156863 0.031373
0.309804 0.160784 0.031373
0.337255 0.160784 0.031373
0.364706 0.164706 0.031373
0.392157 0.160784 0.031373
0.419608 0.160784 0.031373
0.450980 0.156863 0.031373
0.486275 0.156863 0.031373
0.513725 0.160784 0.031373
0.537255 0.164706 0.031373
0.564706 0.160784 0.031373
0.596078 0.164706 0.031373
0.627451 0.164706 0.031373
0.650980 0.164706 0.031373
0.686275 0.164706 0.031373
0.713725 0.164706 0.031373
0.741176 0.164706 0.031373
0.764706 0.164706 0.031373
0.800000 0.164706 0.031373
0.827451 0.164706 0.031373
0.862745 0.164706 0.031373
0.894118 0.168627 0.031373
0.925490 0.168627 0.031373
0.952941 0.176471 0.031373
0.047059 0.176471 0.031373
0.054902 0.176471 0.031373
0.078431 0.176471 0.031373
0.113725 0.176471 0.031373
0.137255 0.176471 0.031373
0.164706 0.176471 0.031373
0.200000 0.188235 0.031373
0.227451 0.184314 0.031373
0.254902 0.188235 0.031373
0.282353 0.188235 0.031373
0.309804 0.188235 0.031373
0.341176 0.184314 0.031373
0.368627 0.188235 0.031373
0.392157 0.188235 0.031373
0.427451 0.184314 0.031373
0.450980 0.188235 0.031373
0.486275 0.184314 0.031373
0.513725 0.184314 0.031373
0.541176 0.192157 0.031373
0.568627 0.192157 0.031373
0.596078 0.196078 0.031373
0.627451 0.192157 0.031373
0.650980 0.196078 0.031373
0.686275 0.192157 0.031373
0.713725 0.192157 0.031373
0.749020 0.192157 0.031373
0.764706 0.196078 0.031373
0.800000 0.196078 0.031373
0.827451 0.196078 0.031373
0.866667 0.200000 0.031373
0.898039 0.203922 0.031373
0.929412 0.203922 0.031373
0.956863 0.203922 0.031373
0.047059 0.207843 0.031373
0.054902 0.207843 0.031373
0.078431 0.207843 0.031373
0.113725 0.207843 0.031373
0.141176 0.211765 0.031373
0.168627 0.215686 0.031373
0.196078 0.215686 0.031373
0.227451 0.215686 0.031373
0.258824 0.215686 0.031373
0.282353 0.215686 0.031373
0.313725 0.215686 0.031373
0.341176 0.215686 0.031373
0.368627 0.215686 0.031373
0.392157 0.215686 0.031373
0.427451 0.215686 0.031373
0.450980 0.215686 0.031373
0.490196 0.215686 0.031373
0.517647 0.215686 0.031373
0.541176 0.219608 0.031373
0.576471 0.219608 0.031373
0.596078 0.223529 0.031373
0.627451 0.219608 0.031373
0.650980 0.219608 0.031373
0.686275 0.219608 0.031373
0.713725 0.223529 0.031373
0.749020 0.219608 0.031373
0.772549 0.219608 0.031373
0.800000 0.223529 0.031373
0.831373 0.227451 0.031373
0.870588 0.231373 0.031373
0.898039 0.231373 0.031373
0.929412 0.231373 0.031373
0.956863 0.231373 0.031373
0.047059 0.235294 0.031373
0.054902 0.235294 0.031373
0.078431 0.239216 0.031373
0.113725 0.239216 0.031373
0.149020 0.235294 0.031373
0.172549 0.243137 0.031373
0.200000 0.243137 0.031373
0.223529 0.247059 0.031373
0.258824 0.243137 0.031373
0.282353 0.243137 0.031373
0.313725 0.239216 0.031373
0.341176 0.243137 0.031373
0.368627 0.243137 0.031373
0.392157 0.247059 0.031373
0.431373 0.247059 0.031373
0.454902 0.250980 0.031373
0.490196 0.247059 0.031373
0.517647 0.250980 0.031373
0.541176 0.250980 0.031373
0.576471 0.250980 0.031373
0.600000 0.250980 0.031373
0.627451 0.250980 0.031373
0.650980 0.254902 0.031373
0.686275 0.250980 0.031373
0.713725 0.254902 0.031373
0.749020 0.250980 0.031373
0.776471 0.254902 0.031373
0.811765 0.254902 0.031373
0.835294 0.262745 0.031373
0.870588 0.262745 0.031373
0.898039 0.262745 0.031373
0.929412 0.258824 0.031373
0.956863 0.262745 0.031373
0.043137 0.266667 0.031373
0.054902 0.266667 0.031373
0.086275 0.262745 0.031373
0.113725 0.266667 0.031373
0.149020 0.270588 0.031373
0.172549 0.270588 0.031373
0.203922 0.266667 0.031373
0.223529 0.270588 0.031373
0.258824 0.270588 0.031373
0.282353 0.270588 0.031373
0.313725 0.270588 0.031373
0.341176 0.270588 0.031373
0.372549 0.274510 0.031373
0.403922 0.274510 0.031373
0.431373 0.278431 0.031373
0.454902 0.278431 0.031373
0.490196 0.274510 0.031373
0.517647 0.278431 0.031373
0.541176 0.278431 0.031373
0.572549 0.274510 0.031373
0.600000 0.278431 0.031373
0.627451 0.278431 0.031373
0.650980 0.278431 0.031373
0.686275 0.278431 0.031373
0.717647 0.282353 0.031373
0.752941 0.278431 0.031373
0.776471 0.282353 0.031373
0.815686 0.282353 0.031373
0.843137 0.282353 0.031373
0.870588 0.282353 0.031373
0.898039 0.286275 0.031373
0.929412 0.286275 0.031373
0.960784 0.282353 0.031373
0.043137 0.290196 0.031373
0.054902 0.294118 0.031373
0.082353 0.294118 0.031373
0.117647 0.298039 0.031373
0.145098 0.298039 0.031373
0.172549 0.294118 0.031373
0.203922 0.294118 0.031373
0.227451 0.298039 0.031373
0.258824 0.298039 0.031373
0.282353 0.298039 0.031373
0.317647 0.301961 0.031373
0.345098 0.301961 0.031373
0.372549 0.301961 0.031373
0.400000 0.301961 0.031373
0.431373 0.301961 0.031373
0.454902 0.305882 0.031373
0.486275 0.301961 0.031373
0.517647 0.305882 0.031373
0.541176 0.305882 0.031373
0.572549 0.305882 0.031373
0.596078 0.305882 0.031373
0.631373 0.301961 0.031373
0.654902 0.313725 0.031373
0.690196 0.309804 0.031373
0.717647 0.313725 0.031373
0.749020 0.309804 0.031373
0.776471 0.309804 0.031373
0.811765 0.313725 0.031373
0.847059 0.309804 0.031373
0.870588 0.313725 0.031373
0.901961 0.313725 0.031373
0.925490 0.313725 0.031373
0.960784 0.313725 0.031373
0.043137 0.317647 0.031373
0.058824 0.317647 0.031373
0.082353 0.321569 0.031373
0.117647 0.325490 0.031373
0.145098 0.321569 0.031373
0.168627 0.325490 0.031373
0.203922 0.321569 0.031373
0.227451 0.321569 0.031373
0.262745 0.325490 0.031373
0.286275 0.329412 0.031373
0.313725 0.329412 0.031373
0.345098 0.329412 0.031373
0.372549 0.329412 0.031373
0.400000 0.329412 0.031373
0.431373 0.329412 0.031373
0.458824 0.329412 0.031373
0.486275 0.333333 0.031373
0.513725 0.333333 0.031373
0.541176 0.333333 0.031373
0.572549 0.333333 0.031373
0.603922 0.337255 0.031373
0.631373 0.333333 0.031373
0.658824 0.337255 0.031373
0.686275 0.337255 0.031373
0.721569 0.333333 0.031373
0.749020 0.337255 0.031373
0.784314 0.337255 0.031373
0.811765 0.341176 0.031373
0.847059 0.341176 0.031373
0.874510 0.341176 0.031373
0.901961 0.341176 0.031373
0.925490 0.341176 0.031373
0.964706 0.345098 0.035294
0.043137 0.349020 0.031373
0.058824 0.349020 0.031373
0.086275 0.352941 0.031373
0.113725 0.352941 0.031373
0.145098 0.352941 0.031373
0.168627 0.356863 0.031373
0.207843 0.356863 0.031373
0.231373 0.360784 0.031373
0.262745 0.356863 0.031373
0.290196 0.360784 0.031373
0.313725 0.360784 0.031373
0.341176 0.360784 0.031373
0.372549 0.360784 0.031373
0.400000 0.360784 0.031373
0.431373 0.360784 0.031373
0.458824 0.360784 0.031373
0.494118 0.360784 0.031373
0.513725 0.364706 0.031373
0.545098 0.368627 0.031373
0.576471 0.368627 0.031373
0.607843 0.364706 0.031373
0.631373 0.368627 0.031373
0.666667 0.364706 0.031373
0.694118 0.364706 0.031373
0.721569 0.364706 0.031373
0.752941 0.368627 0.031373
0.784314 0.368627 0.031373
0.811765 0.368627 0.031373
0.847059 0.368627 0.031373
0.874510 0.368627 0.031373
0.913725 0.368627 0.035294
0.929412 0.376471 0.031373
0.964706 0.372549 0.031373
0.043137 0.372549 0.031373
0.058824 0.376471 0.031373
0.094118 0.380392 0.031373
0.113725 0.384314 0.031373
0.149020 0.384314 0.031373
0.172549 0.388235 0.031373
0.207843 0.384314 0.031373
0.231373 0.388235 0.031373
0.262745 0.384314 0.031373
0.290196 0.388235 0.031373
0.313725 0.388235 0.031373
0.341176 0.388235 0.031373
0.372549 0.388235 0.031373
0.400000 0.388235 0.031373
0.431373 0.388235 0.031373
0.458824 0.388235 0.031373
0.498039 0.392157 0.031373
0.525490 0.392157 0.031373
0.549020 0.392157 0.031373
0.576471 0.396078 0.031373
0.607843 0.392157 0.031373
0.631373 0.392157 0.031373
0.666667 0.392157 0.031373
0.694118 0.392157 0.031373
0.729412 0.392157 0.031373
0.752941 0.400000 0.031373
0.784314 0.400000 0.031373
0.811765 0.400000 0.031373
0.850980 0.400000 0.035294
0.878431 0.403922 0.031373
0.913725 0.403922 0.031373
0.937255 0.403922 0.031373
0.964706 0.403922 0.031373
0.043137 0.407843 0.031373
0.062745 0.407843 0.031373
0.098039 0.411765 0.031373
0.121569 0.411765 0.031373
0.149020 0.411765 0.031373
0.172549 0.415686 0.031373
0.207843 0.411765 0.031373
0.231373 0.415686 0.031373
0.262745 0.411765 0.031373
0.290196 0.411765 0.031373
0.321569 0.411765 0.031373
0.341176 0.415686 0.031373
0.372549 0.415686 0.031373
0.400000 0.415686 0.031373
0.435294 0.419608 0.031373
0.462745 0.419608 0.031373
0.498039 0.419608 0.031373
0.525490 0.419608 0.031373
0.549020 0.419608 0.031373
0.576471 0.419608 0.031373
0.607843 0.419608 0.031373
0.631373 0.419608 0.031373
0.666667 0.419608 0.031373
0.694118 0.419608 0.031373
0.733333 0.423529 0.031373
0.756863 0.423529 0.031373
0.788235 0.431373 0.035294
0.815686 0.431373 0.035294
0.850980 0.431373 0.031373
0.878431 0.431373 0.031373
0.913725 0.427451 0.031373
0.937255 0.431373 0.031373
0.968627 0.427451 0.035294
0.043137 0.439216 0.031373
0.066667 0.439216 0.031373
0.098039 0.439216 0.031373
0.121569 0.439216 0.031373
0.156863 0.439216 0.031373
0.172549 0.443137 0.031373
0.207843 0.439216 0.031373
0.231373 0.443137 0.031373
0.262745 0.439216 0.031373
0.290196 0.443137 0.031373
0.317647 0.439216 0.031373
0.349020 0.439216 0.031373
0.376471 0.447059 0.031373
0.411765 0.443137 0.031373
0.435294 0.447059 0.031373
0.466667 0.443137 0.031373
0.498039 0.443137 0.031373
0.525490 0.447059 0.031373
0.552941 0.443137 0.031373
0.576471 0.447059 0.031373
0.607843 0.447059 0.031373
0.631373 0.447059 0.031373
0.662745 0.447059 0.031373
0.694118 0.447059 0.031373
0.737255 0.454902 0.035294
0.760784 0.454902 0.035294
0.788235 0.458824 0.031373
0.815686 0.458824 0.031373
0.850980 0.458824 0.031373
0.878431 0.458824 0.031373
0.909804 0.454902 0.035294
0.937255 0.458824 0.031373
0.968627 0.458824 0.031373
0.043137 0.470588 0.031373
0.066667 0.470588 0.031373
0.098039 0.470588 0.031373
0.121569 0.470588 0.031373
0.152941 0.470588 0.031373
0.180392 0.470588 0.031373
0.207843 0.470588 0.031373
0.231373 0.474510 0.031373
0.262745 0.470588 0.031373
0.294118 0.470588 0.031373
0.321569 0.474510 0.031373
0.356863 0.474510 0.031373
0.380392 0.474510 0.031373
0.407843 0.478431 0.031373
0.435294 0.478431 0.031373
0.466667 0.474510 0.031373
0.494118 0.474510 0.031373
0.525490 0.478431 0.031373
0.552941 0.474510 0.031373
0.580392 0.478431 0.031373
0.603922 0.478431 0.031373
0.631373 0.478431 0.031373
0.662745 0.478431 0.031373
0.701961 0.486275 0.035294
0.733333 0.486275 0.031373
0.760784 0.486275 0.031373
0.792157 0.486275 0.031373
0.815686 0.490196 0.031373
0.850980 0.490196 0.035294
0.878431 0.490196 0.031373
0.909804 0.490196 0.031373
0.933333 0.490196 0.031373
0.968627 0.486275 0.031373
0.043137 0.494118 0.031373
0.066667 0.494118 0.031373
0.090196 0.498039 0.031373
0.121569 0.494118 0.031373
0.149020 0.494118 0.031373
0.180392 0.494118 0.031373
0.207843 0.494118 0.031373
0.231373 0.498039 0.031373
0.258824 0.498039 0.031373
0.298039 0.505882 0.031373
0.321569 0.505882 0.031373
0.356863 0.505882 0.031373
0.380392 0.505882 0.031373
0.415686 0.501961 0.031373
0.439216 0.505882 0.031373
0.466667 0.505882 0.031373
0.501961 0.501961 0.031373
0.529412 0.505882 0.031373
0.552941 0.505882 0.031373
0.588235 0.505882 0.031373
0.611765 0.505882 0.031373
0.639216 0.509804 0.031373
0.666667 0.513725 0.031373
0.701961 0.509804 0.035294
0.729412 0.513725 0.031373
0.760784 0.509804 0.031373
0.788235 0.513725 0.031373
0.823529 0.509804 0.031373
0.843137 0.513725 0.031373
0.878431 0.513725 0.031373
0.905882 0.513725 0.031373
0.937255 0.513725 0.031373
0.968627 0.517647 0.035294
0.043137 0.529412 0.031373
0.066667 0.525490 0.031373
0.090196 0.525490 0.031373
0.121569 0.525490 0.031373
0.149020 0.525490 0.031373
0.180392 0.525490 0.031373
0.207843 0.525490 0.031373
0.235294 0.533333 0.031373
0.262745 0.537255 0.031373
0.298039 0.537255 0.031373
0.329412 0.533333 0.031373
0.356863 0.533333 0.031373
0.388235 0.533333 0.031373
0.415686 0.533333 0.031373
0.439216 0.533333 0.031373
0.466667 0.537255 0.031373
0.501961 0.537255 0.031373
0.529412 0.537255 0.031373
0.552941 0.537255 0.031373
0.588235 0.537255 0.031373
0.615686 0.537255 0.031373
0.647059 0.537255 0.031373
0.666667 0.537255 0.031373
0.701961 0.537255 0.031373
0.729412 0.537255 0.031373
0.760784 0.537255 0.031373
0.788235 0.537255 0.031373
0.823529 0.537255 0.031373
0.850980 0.537255 0.031373
0.878431 0.537255 0.031373
0.905882 0.537255 0.031373
0.945098 0.545098 0.039216
0.972549 0.545098 0.047059
0.043137 0.549020 0.031373
0.066667 0.549020 0.031373
0.090196 0.549020 0.031373
0.121569 0.549020 0.031373
0.149020 0.549020 0.031373
0.184314 0.552941 0.031373
0.215686 0.552941 0.031373
0.247059 0.556863 0.031373
0.270588 0.556863 0.031373
0.298039 0.560784 0.031373
0.329412 0.556863 0.031373
0.356863 0.556863 0.031373
0.388235 0.556863 0.031373
0.411765 0.556863 0.031373
0.443137 0.556863 0.031373
0.466667 0.560784 0.031373
0.501961 0.556863 0.031373
0.529412 0.564706 0.031373
0.552941 0.564706 0.031373
0.588235 0.564706 0.031373
0.615686 0.564706 0.031373
0.647059 0.564706 0.031373
0.674510 0.564706 0.031373
0.701961 0.564706 0.031373
0.729412 0.568627 0.031373
0.760784 0.564706 0.031373
0.788235 0.568627 0.031373
0.819608 0.564706 0.031373
0.850980 0.568627 0.031373
0.886275 0.568627 0.035294
0.909804 0.572549 0.043137
0.945098 0.576471 0.043137
0.972549 0.576471 0.043137
0.039216 0.580392 0.031373
0.066667 0.576471 0.031373
0.094118 0.580392 0.031373
0.121569 0.584314 0.031373
0.156863 0.584314 0.031373
0.180392 0.584314 0.031373
0.211765 0.580392 0.031373
0.243137 0.588235 0.031373
0.270588 0.584314 0.031373
0.294118 0.588235 0.031373
0.325490 0.588235 0.031373
0.352941 0.588235 0.031373
0.380392 0.588235 0.031373
0.411765 0.588235 0.031373
0.439216 0.588235 0.031373
0.474510 0.592157 0.031373
0.501961 0.596078 0.031373
0.529412 0.596078 0.031373
0.552941 0.596078 0.031373
0.588235 0.596078 0.031373
0.615686 0.596078 0.031373
0.643137 0.596078 0.031373
0.674510 0.596078 0.031373
0.701961 0.596078 0.031373
0.729412 0.600000 0.031373
0.756863 0.596078 0.031373
0.788235 0.600000 0.031373
0.823529 0.600000 0.035294
0.854902 0.600000 0.043137
0.886275 0.600000 0.039216
0.921569 0.607843 0.043137
0.945098 0.607843 0.043137
0.972549 0.607843 0.047059
0.039216 0.607843 0.031373
0.070588 0.615686 0.031373
0.101961 0.611765 0.031373
0.121569 0.615686 0.031373
0.152941 0.615686 0.031373
0.176471 0.611765 0.031373
0.215686 0.615686 0.031373
0.239216 0.619608 0.031373
0.270588 0.615686 0.031373
0.298039 0.619608 0.031373
0.321569 0.619608 0.031373
0.352941 0.619608 0.031373
0.380392 0.619608 0.031373
0.415686 0.623529 0.031373
0.443137 0.623529 0.031373
0.470588 0.623529 0.031373
0.505882 0.623529 0.031373
0.529412 0.627451 0.031373
0.552941 0.627451 0.031373
0.584314 0.627451 0.031373
0.615686 0.627451 0.031373
0.643137 0.627451 0.031373
0.670588 0.627451 0.031373
0.705882 0.627451 0.031373
0.729412 0.631373 0.031373
0.764706 0.631373 0.035294
0.792157 0.631373 0.043137
0.823529 0.631373 0.047059
0.850980 0.631373 0.039216
0.890196 0.631373 0.043137
0.921569 0.631373 0.047059
0.945098 0.635294 0.047059
0.976471 0.631373 0.047059
0.043137 0.639216 0.031373
0.070588 0.639216 0.031373
0.101961 0.639216 0.031373
0.125490 0.639216 0.031373
0.152941 0.639216 0.031373
0.176471 0.643137 0.031373
0.215686 0.643137 0.031373
0.239216 0.647059 0.031373
0.270588 0.643137 0.031373
0.298039 0.647059 0.031373
0.329412 0.643137 0.031373
0.356863 0.654902 0.031373
0.384314 0.650980 0.031373
0.411765 0.650980 0.035294
0.443137 0.650980 0.031373
0.470588 0.650980 0.031373
0.505882 0.650980 0.031373
0.533333 0.650980 0.031373
0.552941 0.654902 0.031373
0.584314 0.654902 0.031373
0.611765 0.654902 0.035294
0.643137 0.654902 0.031373
0.670588 0.654902 0.031373
0.709804 0.658824 0.035294
0.737255 0.658824 0.043137
0.760784 0.658824 0.047059
0.796078 0.658824 0.039216
0.823529 0.658824 0.039216
0.858824 0.658824 0.039216
0.890196 0.662745 0.047059
0.921569 0.658824 0.047059
0.949020 0.662745 0.043137
0.976471 0.662745 0.043137
0.043137 0.666667 0.031373
0.070588 0.666667 0.031373
0.101961 0.666667 0.031373
0.125490 0.666667 0.031373
0.152941 0.666667 0.031373
0.180392 0.674510 0.031373
0.215686 0.670588 0.031373
0.239216 0.674510 0.031373
0.270588 0.670588 0.031373
0.301961 0.678431 0.031373
0.333333 0.674510 0.031373
0.360784 0.678431 0.035294
0.384314 0.678431 0.035294
0.411765 0.682353 0.031373
0.443137 0.678431 0.031373
0.470588 0.678431 0.031373
0.505882 0.678431 0.031373
0.533333 0.678431 0.031373
0.556863 0.678431 0.035294
0.584314 0.682353 0.031373
0.611765 0.682353 0.031373
0.647059 0.686275 0.035294
0.682353 0.682353 0.043137
0.709804 0.682353 0.047059
0.745098 0.682353 0.039216
0.768627 0.682353 0.039216
0.796078 0.686275 0.039216
0.823529 0.686275 0.043137
0.862745 0.690196 0.047059
0.890196 0.690196 0.050980
0.921569 0.690196 0.043137
0.949020 0.690196 0.043137
0.984314 0.686275 0.043137
0.043137 0.698039 0.031373
0.070588 0.698039 0.031373
0.101961 0.698039 0.031373
0.125490 0.698039 0.031373
0.164706 0.701961 0.031373
0.180392 0.705882 0.031373
0.215686 0.705882 0.031373
0.243137 0.709804 0.031373
0.274510 0.705882 0.031373
0.301961 0.709804 0.035294
0.333333 0.705882 0.035294
0.360784 0.709804 0.031373
0.384314 0.709804 0.031373
0.411765 0.709804 0.031373
0.443137 0.709804 0.031373
0.470588 0.709804 0.031373
0.505882 0.709804 0.031373
0.533333 0.709804 0.031373
0.564706 0.709804 0.031373
0.596078 0.713725 0.035294
0.623529 0.713725 0.043137
0.647059 0.713725 0.047059
0.682353 0.713725 0.039216
0.709804 0.717647 0.039216
0.745098 0.713725 0.039216
0.768627 0.713725 0.043137
0.800000 0.713725 0.043137
0.827451 0.721569 0.050980
0.862745 0.721569 0.043137
0.890196 0.721569 0.043137
0.921569 0.721569 0.043137
0.952941 0.725490 0.050980
0.984314 0.725490 0.050980
0.043137 0.729412 0.031373
0.070588 0.729412 0.031373
0.101961 0.729412 0.031373
0.125490 0.729412 0.031373
0.164706 0.733333 0.031373
0.192157 0.737255 0.031373
0.215686 0.741176 0.031373
0.243137 0.741176 0.035294
0.274510 0.737255 0.035294
0.301961 0.741176 0.031373
0.333333 0.737255 0.031373
0.360784 0.741176 0.031373
0.392157 0.737255 0.031373
0.411765 0.741176 0.031373
0.443137 0.741176 0.035294
0.470588 0.741176 0.031373
0.505882 0.741176 0.031373
0.537255 0.745098 0.035294
0.568627 0.741176 0.043137
0.596078 0.745098 0.047059
0.623529 0.745098 0.047059
0.647059 0.749020 0.039216
0.682353 0.745098 0.039216
0.709804 0.745098 0.043137
0.741176 0.745098 0.043137
0.768627 0.745098 0.043137
0.800000 0.745098 0.039216
0.835294 0.749020 0.043137
0.862745 0.752941 0.043137
0.894118 0.752941 0.050980
0.925490 0.752941 0.050980
0.952941 0.752941 0.047059
0.984314 0.752941 0.047059
0.043137 0.756863 0.031373
0.070588 0.756863 0.031373
0.098039 0.756863 0.031373
0.133333 0.764706 0.031373
0.164706 0.764706 0.031373
0.192157 0.764706 0.035294
0.219608 0.764706 0.035294
0.243137 0.768627 0.035294
0.274510 0.768627 0.031373
0.301961 0.768627 0.031373
0.333333 0.764706 0.031373
0.360784 0.768627 0.031373
0.388235 0.764706 0.035294
0.415686 0.768627 0.031373
0.443137 0.768627 0.031373
0.478431 0.772549 0.035294
0.509804 0.772549 0.043137
0.537255 0.772549 0.047059
0.564706 0.768627 0.047059
0.596078 0.772549 0.039216
0.627451 0.768627 0.039216
0.647059 0.776471 0.043137
0.678431 0.772549 0.043137
0.709804 0.772549 0.043137
0.741176 0.772549 0.039216
0.764706 0.772549 0.039216
0.803922 0.776471 0.043137
0.839216 0.784314 0.050980
