assets/preview/luts/premium.cube
TITLE "Premium"
LUT_3D_SIZE 9
DOMAIN_MIN 0.0 0.0 0.0
DOMAIN_MAX 1.0 1.0 1.0
0.047059 0.031373 0.031373
0.129412 0.031373 0.031373
0.243137 0.031373 0.031373
0.360784 0.031373 0.031373
0.470588 0.031373 0.031373
0.596078 0.031373 0.031373
0.705882 0.031373 0.031373
0.819608 0.031373 0.031373
0.945098 0.031373 0.031373
0.047059 0.121569 0.031373
0.133333 0.125490 0.031373
0.254902 0.129412 0.031373
0.364706 0.137255 0.031373
0.478431 0.133333 0.031373
0.592157 0.137255 0.031373
0.709804 0.141176 0.031373
0.827451 0.141176 0.031373
0.949020 0.149020 0.031373
0.047059 0.235294 0.031373
0.149020 0.235294 0.031373
0.258824 0.243137 0.031373
0.368627 0.243137 0.031373
0.490196 0.247059 0.031373
0.600000 0.250980 0.031373
0.713725 0.254902 0.031373
0.835294 0.262745 0.031373
0.956863 0.262745 0.031373
0.043137 0.349020 0.031373
0.145098 0.352941 0.031373
0.262745 0.356863 0.031373
0.372549 0.360784 0.031373
0.494118 0.360784 0.031373
0.607843 0.364706 0.031373
0.721569 0.364706 0.031373
0.847059 0.368627 0.031373
0.964706 0.372549 0.031373
0.043137 0.470588 0.031373
0.152941 0.470588 0.031373
0.262745 0.470588 0.031373
0.380392 0.474510 0.031373
0.494118 0.474510 0.031373
0.603922 0.478431 0.031373
0.733333 0.486275 0.031373
0.850980 0.490196 0.035294
0.968627 0.486275 0.031373
0.039216 0.580392 0.031373
0.156863 0.584314 0.031373
0.270588 0.584314 0.031373
0.380392 0.588235 0.031373
0.501961 0.596078 0.031373
0.615686 0.596078 0.031373
0.729412 0.600000 0.031373
0.854902 0.600000 0.043137
0.972549 0.607843 0.047059
0.043137 0.698039 0.031373
0.164706 0.701961 0.031373
0.274510 0.705882 0.031373
0.384314 0.709804 0.031373
0.505882 0.709804 0.031373
0.623529 0.713725 0.043137
0.745098 0.713725 0.039216
0.862745 0.721569 0.043137
0.984314 0.725490 0.050980
0.050980 0.815686 0.031373
0.164706 0.823529 0.031373
0.278431 0.823529 0.035294
0.392157 0.827451 0.043137
0.505882 0.831373 0.039216
0.627451 0.827451 0.047059
0.745098 0.835294 0.047059
0.870588 0.839216 0.047059
0.984314 0.843137 0.047059
0.054902 0.937255 0.035294
0.172549 0.941176 0.043137
0.282353 0.945098 0.039216
0.392157 0.945098 0.047059
0.517647 0.949020 0.047059
0.631373 0.952941 0.043137
0.752941 0.952941 0.054902
0.874510 0.952941 0.062745
0.984314 0.952941 0.058824
0.047059 0.031373 0.090196
0.137255 0.031373 0.090196
0.250980 0.031373 0.101961
0.360784 0.031373 0.101961
0.478431 0.031373 0.109804
0.596078 0.031373 0.109804
0.705882 0.031373 0.121569
0.831373 0.031373 0.121569
0.949020 0.031373 0.121569
0.047059 0.121569 0.094118
0.133333 0.125490 0.094118
0.254902 0.133333 0.109804
0.364706 0.133333 0.113725
0.482353 0.133333 0.117647
0.596078 0.141176 0.121569
0.717647 0.141176 0.117647
0.835294 0.145098 0.125490
0.952941 0.152941 0.133333
0.043137 0.239216 0.101961
0.141176 0.243137 0.113725
0.250980 0.247059 0.113725
0.368627 0.250980 0.113725
0.482353 0.250980 0.113725
0.600000 0.250980 0.121569
0.713725 0.250980 0.125490
0.835294 0.262745 0.129412
0.956863 0.262745 0.137255
0.043137 0.352941 0.113725
0.145098 0.360784 0.113725
0.262745 0.356863 0.117647
0.372549 0.360784 0.117647
0.490196 0.356863 0.121569
0.603922 0.368627 0.133333
0.729412 0.368627 0.137255
0.843137 0.368627 0.133333
0.960784 0.376471 0.133333
0.043137 0.470588 0.117647
0.152941 0.470588 0.121569
0.262745 0.470588 0.121569
0.380392 0.474510 0.129412
0.498039 0.478431 0.133333
0.607843 0.478431 0.129412
0.737255 0.486275 0.133333
0.850980 0.486275 0.145098
0.968627 0.486275 0.145098
0.039216 0.576471 0.125490
0.152941 0.588235 0.133333
0.266667 0.588235 0.129412
0.376471 0.592157 0.137255
0.501961 0.596078 0.137255
0.615686 0.596078 0.141176
0.729412 0.600000 0.141176
0.858824 0.603922 0.149020
0.972549 0.607843 0.145098
0.039216 0.698039 0.133333
0.156863 0.701961 0.137255
0.274510 0.705882 0.137255
0.392157 0.705882 0.141176
0.505882 0.705882 0.145098
0.619608 0.717647 0.145098
0.737255 0.717647 0.145098
0.858824 0.725490 0.145098
0.980392 0.725490 0.160784
0.058824 0.819608 0.137255
0.164706 0.823529 0.141176
0.278431 0.819608 0.145098
0.396078 0.827451 0.145098
0.509804 0.831373 0.145098
0.623529 0.831373 0.145098
0.752941 0.839216 0.160784
0.870588 0.839216 0.156863
0.984314 0.839216 0.152941
0.054902 0.937255 0.145098
0.172549 0.941176 0.145098
0.282353 0.945098 0.145098
0.400000 0.941176 0.145098
0.521569 0.952941 0.160784
0.631373 0.952941 0.156863
0.752941 0.952941 0.160784
0.874510 0.952941 0.164706
0.984314 0.952941 0.160784
0.047059 0.031373 0.192157
0.137255 0.031373 0.196078
0.250980 0.031373 0.207843
0.364706 0.031373 0.207843
0.478431 0.031373 0.211765
0.592157 0.031373 0.215686
0.701961 0.031373 0.215686
0.831373 0.031373 0.231373
0.945098 0.031373 0.227451
0.047059 0.121569 0.203922
0.133333 0.129412 0.203922
0.254902 0.133333 0.211765
0.364706 0.133333 0.215686
0.482353 0.133333 0.215686
0.596078 0.137255 0.227451
0.717647 0.137255 0.223529
0.835294 0.145098 0.231373
0.960784 0.149020 0.235294
0.043137 0.243137 0.215686
0.145098 0.243137 0.215686
0.254902 0.247059 0.211765
0.368627 0.247059 0.223529
0.482353 0.250980 0.231373
0.600000 0.247059 0.227451
0.725490 0.258824 0.235294
0.843137 0.258824 0.231373
0.956863 0.262745 0.235294
0.043137 0.352941 0.211765
0.145098 0.360784 0.219608
0.258824 0.356863 0.227451
0.368627 0.360784 0.223529
0.494118 0.368627 0.235294
0.603922 0.368627 0.235294
0.729412 0.368627 0.235294
0.847059 0.372549 0.247059
0.960784 0.376471 0.243137
0.043137 0.470588 0.223529
0.145098 0.470588 0.223529
0.262745 0.478431 0.231373
0.380392 0.474510 0.235294
0.498039 0.478431 0.235294
0.615686 0.486275 0.247059
0.729412 0.486275 0.250980
0.850980 0.486275 0.247059
0.968627 0.494118 0.250980
0.039216 0.580392 0.231373
0.156863 0.588235 0.235294
0.266667 0.588235 0.231373
0.384314 0.592157 0.250980
0.501961 0.592157 0.247059
0.615686 0.596078 0.243137
0.741176 0.600000 0.250980
0.858824 0.603922 0.254902
0.972549 0.607843 0.258824
0.043137 0.705882 0.239216
0.164706 0.705882 0.250980
0.270588 0.709804 0.247059
0.388235 0.709804 0.243137
0.505882 0.713725 0.250980
0.627451 0.713725 0.250980
0.745098 0.721569 0.258824
0.862745 0.729412 0.258824
0.984314 0.725490 0.262745
0.050980 0.823529 0.247059
0.160784 0.823529 0.250980
0.278431 0.827451 0.250980
0.396078 0.827451 0.250980
0.521569 0.831373 0.258824
0.631373 0.839216 0.262745
0.745098 0.843137 0.262745
0.866667 0.843137 0.258824
0.980392 0.843137 0.258824
0.062745 0.941176 0.250980
0.172549 0.941176 0.250980
0.282353 0.941176 0.254902
0.400000 0.941176 0.258824
0.521569 0.952941 0.262745
0.631373 0.952941 0.258824
0.749020 0.952941 0.262745
0.874510 0.952941 0.270588
0.984314 0.952941 0.266667
0.043137 0.031373 0.305882
0.133333 0.031373 0.313725
0.247059 0.031373 0.313725
0.356863 0.031373 0.313725
0.474510 0.031373 0.313725
0.592157 0.031373 0.325490
0.701961 0.031373 0.325490
0.831373 0.031373 0.333333
0.945098 0.031373 0.329412
0.043137 0.129412 0.313725
0.137255 0.129412 0.313725
0.258824 0.133333 0.313725
0.368627 0.133333 0.321569
0.482353 0.133333 0.321569
0.592157 0.141176 0.325490
0.717647 0.145098 0.337255
0.831373 0.149020 0.333333
0.956863 0.149020 0.345098
0.043137 0.239216 0.317647
0.145098 0.243137 0.321569
0.254902 0.243137 0.321569
0.368627 0.247059 0.321569
0.486275 0.254902 0.337255
0.596078 0.250980 0.329412
0.725490 0.258824 0.345098
0.847059 0.258824 0.341176
0.960784 0.258824 0.345098
0.043137 0.352941 0.317647
0.149020 0.360784 0.329412
0.258824 0.356863 0.329412
0.368627 0.360784 0.329412
0.494118 0.368627 0.345098
0.607843 0.368627 0.349020
0.729412 0.368627 0.345098
0.847059 0.372549 0.345098
0.968627 0.372549 0.345098
0.043137 0.466667 0.325490
0.149020 0.470588 0.325490
0.262745 0.478431 0.337255
0.380392 0.478431 0.349020
0.494118 0.482353 0.345098
0.619608 0.486275 0.345098
0.733333 0.486275 0.352941
0.850980 0.486275 0.349020
0.972549 0.494118 0.356863
0.047059 0.584314 0.341176
0.156863 0.588235 0.345098
0.270588 0.588235 0.341176
0.384314 0.592157 0.349020
0.505882 0.592157 0.349020
0.611765 0.600000 0.345098
0.749020 0.600000 0.364706
0.862745 0.603922 0.364706
0.976471 0.607843 0.360784
0.043137 0.701961 0.349020
0.164706 0.705882 0.349020
0.270588 0.709804 0.349020
0.388235 0.709804 0.345098
0.509804 0.717647 0.364706
0.631373 0.717647 0.364706
0.745098 0.721569 0.360784
0.870588 0.721569 0.368627
0.984314 0.725490 0.364706
0.054902 0.823529 0.349020
0.164706 0.823529 0.352941
0.282353 0.827451 0.360784
0.392157 0.831373 0.356863
0.513725 0.835294 0.360784
0.631373 0.839216 0.368627
0.752941 0.839216 0.364706
0.866667 0.839216 0.368627
0.984314 0.847059 0.368627
0.054902 0.945098 0.360784
0.168627 0.941176 0.356863
0.278431 0.945098 0.364706
0.403922 0.952941 0.368627
0.525490 0.952941 0.364706
0.635294 0.952941 0.368627
0.752941 0.952941 0.372549
0.870588 0.952941 0.368627
0.984314 0.952941 0.368627
0.043137 0.031373 0.415686
0.133333 0.031373 0.411765
0.250980 0.031373 0.419608
0.364706 0.031373 0.427451
0.474510 0.031373 0.423529
0.596078 0.031373 0.431373
0.713725 0.031373 0.435294
0.835294 0.031373 0.431373
0.949020 0.031373 0.439216
0.043137 0.129412 0.419608
0.141176 0.129412 0.427451
0.250980 0.133333 0.427451
0.368627 0.133333 0.431373
0.482353 0.145098 0.431373
0.592157 0.141176 0.431373
0.717647 0.145098 0.447059
0.835294 0.149020 0.447059
0.956863 0.149020 0.443137
0.043137 0.243137 0.427451
0.141176 0.243137 0.431373
0.258824 0.247059 0.431373
0.368627 0.247059 0.431373
0.486275 0.250980 0.447059
0.607843 0.258824 0.447059
0.721569 0.262745 0.443137
0.839216 0.258824 0.450980
0.960784 0.262745 0.450980
0.043137 0.356863 0.427451
0.152941 0.356863 0.431373
0.262745 0.356863 0.439216
0.376471 0.368627 0.447059
0.498039 0.368627 0.443137
0.603922 0.368627 0.450980
0.729412 0.372549 0.450980
0.850980 0.372549 0.454902
0.968627 0.372549 0.450980
0.043137 0.466667 0.431373
0.152941 0.474510 0.439216
0.262745 0.478431 0.450980
0.380392 0.478431 0.450980
0.498039 0.486275 0.450980
0.619608 0.486275 0.454902
0.733333 0.486275 0.458824
0.854902 0.486275 0.458824
0.976471 0.498039 0.462745
0.043137 0.588235 0.443137
0.156863 0.588235 0.443137
0.262745 0.592157 0.443137
0.384314 0.592157 0.458824
0.509804 0.596078 0.458824
0.615686 0.603922 0.458824
0.741176 0.603922 0.466667
0.854902 0.607843 0.462745
0.976471 0.607843 0.458824
0.050980 0.698039 0.450980
0.164706 0.705882 0.458824
0.274510 0.709804 0.454902
0.388235 0.705882 0.450980
0.513725 0.717647 0.466667
0.627451 0.721569 0.462745
0.741176 0.725490 0.458824
0.870588 0.721569 0.478431
0.984314 0.725490 0.474510
0.054902 0.819608 0.454902
0.164706 0.823529 0.458824
0.282353 0.827451 0.462745
0.396078 0.835294 0.462745
0.517647 0.835294 0.458824
0.631373 0.839216 0.478431
0.752941 0.839216 0.474510
0.870588 0.839216 0.470588
0.984314 0.843137 0.482353
0.058824 0.945098 0.462745
0.168627 0.941176 0.458824
0.282353 0.949020 0.470588
0.403922 0.952941 0.478431
0.517647 0.952941 0.474510
0.635294 0.952941 0.470588
0.752941 0.952941 0.482353
0.878431 0.952941 0.478431
0.984314 0.952941 0.486275
0.043137 0.031373 0.533333
0.133333 0.031373 0.529412
0.250980 0.031373 0.525490
0.364706 0.031373 0.537255
0.482353 0.031373 0.533333
0.596078 0.031373 0.537255
0.713725 0.031373 0.541176
0.835294 0.031373 0.545098
0.949020 0.031373 0.541176
0.043137 0.125490 0.533333
0.141176 0.129412 0.537255
0.250980 0.133333 0.537255
0.364706 0.133333 0.537255
0.486275 0.141176 0.549020
0.600000 0.145098 0.545098
0.717647 0.145098 0.541176
0.839216 0.152941 0.545098
0.956863 0.149020 0.549020
0.043137 0.243137 0.533333
0.137255 0.243137 0.537255
0.258824 0.247059 0.545098
0.368627 0.250980 0.541176
0.490196 0.254902 0.541176
0.607843 0.258824 0.552941
0.721569 0.262745 0.549020
0.843137 0.258824 0.552941
0.960784 0.262745 0.556863
0.039216 0.360784 0.541176
0.145098 0.360784 0.541176
0.254902 0.360784 0.541176
0.384314 0.364706 0.552941
0.498039 0.368627 0.549020
0.603922 0.368627 0.552941
0.729412 0.372549 0.564706
0.843137 0.376471 0.560784
0.964706 0.372549 0.556863
0.039216 0.466667 0.541176
0.156863 0.474510 0.549020
0.270588 0.478431 0.549020
0.380392 0.478431 0.552941
0.501961 0.486275 0.564706
0.615686 0.486275 0.560784
0.729412 0.490196 0.556863
0.858824 0.490196 0.568627
0.976471 0.498039 0.576471
0.043137 0.588235 0.549020
0.160784 0.588235 0.556863
0.270588 0.592157 0.556863
0.380392 0.596078 0.556863
0.505882 0.600000 0.564706
0.623529 0.607843 0.568627
0.745098 0.603922 0.572549
0.858824 0.607843 0.576471
0.980392 0.611765 0.576471
0.050980 0.705882 0.556863
0.160784 0.709804 0.564706
0.274510 0.709804 0.560784
0.400000 0.717647 0.568627
0.513725 0.717647 0.572549
0.627451 0.717647 0.576471
0.745098 0.725490 0.576471
0.866667 0.725490 0.576471
0.980392 0.729412 0.572549
0.054902 0.819608 0.560784
0.172549 0.827451 0.560784
0.282353 0.827451 0.568627
0.396078 0.831373 0.576471
0.521569 0.835294 0.576471
0.631373 0.843137 0.576471
0.752941 0.839216 0.580392
0.870588 0.839216 0.576471
0.984314 0.843137 0.588235
0.062745 0.937255 0.576471
0.172549 0.941176 0.572549
0.290196 0.952941 0.576471
0.407843 0.952941 0.576471
0.521569 0.952941 0.580392
0.635294 0.952941 0.576471
0.756863 0.952941 0.588235
0.878431 0.952941 0.592157
0.984314 0.952941 0.592157
0.039216 0.031373 0.639216
0.125490 0.031373 0.635294
0.250980 0.031373 0.635294
0.364706 0.031373 0.650980
0.482353 0.031373 0.650980
0.596078 0.031373 0.650980
0.717647 0.031373 0.658824
0.831373 0.031373 0.654902
0.945098 0.031373 0.658824
0.039216 0.133333 0.643137
0.141176 0.129412 0.650980
0.250980 0.133333 0.647059
0.368627 0.133333 0.643137
0.486275 0.141176 0.658824
0.600000 0.145098 0.654902
0.721569 0.145098 0.658824
0.839216 0.149020 0.658824
0.960784 0.149020 0.662745
0.039216 0.243137 0.647059
0.137255 0.243137 0.650980
0.258824 0.247059 0.650980
0.368627 0.254902 0.654902
0.490196 0.250980 0.658824
0.607843 0.258824 0.662745
0.721569 0.262745 0.662745
0.843137 0.262745 0.658824
0.960784 0.262745 0.658824
0.039216 0.360784 0.650980
0.149020 0.360784 0.650980
0.262745 0.364706 0.658824
0.380392 0.368627 0.662745
0.494118 0.368627 0.662745
0.611765 0.368627 0.658824
0.733333 0.372549 0.666667
0.847059 0.376471 0.666667
0.968627 0.376471 0.674510
0.039216 0.470588 0.654902
0.149020 0.474510 0.658824
0.266667 0.478431 0.662745
0.376471 0.482353 0.658824
0.509804 0.482353 0.666667
0.615686 0.486275 0.666667
0.729412 0.490196 0.670588
0.854902 0.490196 0.678431
0.972549 0.498039 0.682353
0.043137 0.588235 0.666667
0.160784 0.588235 0.662745
0.270588 0.596078 0.662745
0.392157 0.600000 0.666667
0.505882 0.596078 0.678431
0.623529 0.603922 0.678431
0.745098 0.603922 0.674510
0.858824 0.607843 0.682353
0.984314 0.611765 0.682353
0.050980 0.705882 0.662745
0.164706 0.709804 0.666667
0.274510 0.705882 0.674510
0.396078 0.717647 0.678431
0.509804 0.721569 0.674510
0.627451 0.717647 0.682353
0.749020 0.725490 0.682353
0.866667 0.725490 0.686275
0.980392 0.725490 0.694118
0.050980 0.823529 0.674510
0.168627 0.827451 0.674510
0.282353 0.831373 0.682353
0.400000 0.831373 0.682353
0.521569 0.835294 0.682353
0.631373 0.843137 0.686275
0.752941 0.839216 0.694118
0.870588 0.847059 0.694118
0.984314 0.850980 0.694118
0.066667 0.937255 0.678431
0.172549 0.941176 0.678431
0.298039 0.949020 0.682353
0.407843 0.952941 0.686275
0.521569 0.952941 0.694118
0.635294 0.952941 0.694118
0.752941 0.952941 0.690196
0.886275 0.952941 0.701961
0.984314 0.952941 0.701961
0.039216 0.031373 0.745098
0.125490 0.031373 0.752941
0.247059 0.031373 0.752941
0.356863 0.031373 0.752941
0.478431 0.031373 0.756863
0.596078 0.031373 0.756863
0.717647 0.031373 0.768627
0.831373 0.031373 0.768627
0.956863 0.035294 0.768627
0.039216 0.133333 0.756863
0.137255 0.133333 0.752941
0.247059 0.137255 0.752941
0.372549 0.141176 0.756863
0.486275 0.141176 0.768627
0.600000 0.145098 0.768627
0.721569 0.152941 0.768627
0.839216 0.149020 0.772549
0.952941 0.152941 0.768627
0.039216 0.243137 0.752941
0.145098 0.247059 0.760784
0.262745 0.250980 0.768627
0.372549 0.254902 0.768627
0.498039 0.258824 0.768627
0.603922 0.262745 0.772549
0.725490 0.262745 0.768627
0.847059 0.262745 0.780392
0.968627 0.266667 0.780392
0.039216 0.356863 0.764706
0.149020 0.356863 0.760784
0.262745 0.368627 0.776471
0.380392 0.368627 0.772549
0.494118 0.368627 0.768627
0.619608 0.368627 0.780392
0.733333 0.372549 0.780392
0.847059 0.372549 0.780392
0.976471 0.380392 0.784314
0.039216 0.474510 0.772549
0.156863 0.482353 0.772549
0.266667 0.478431 0.768627
0.384314 0.486275 0.780392
0.501961 0.482353 0.780392
0.615686 0.486275 0.780392
0.741176 0.490196 0.780392
0.858824 0.498039 0.788235
0.972549 0.498039 0.784314
0.047059 0.588235 0.772549
0.164706 0.592157 0.776471
0.270588 0.592157 0.780392
0.392157 0.596078 0.780392
0.509804 0.603922 0.788235
0.627451 0.603922 0.784314
0.745098 0.603922 0.780392
0.858824 0.603922 0.792157
0.984314 0.607843 0.796078
0.054902 0.705882 0.780392
0.164706 0.705882 0.780392
0.286275 0.717647 0.788235
0.396078 0.717647 0.784314
0.517647 0.717647 0.780392
0.631373 0.717647 0.792157
0.749020 0.725490 0.796078
0.866667 0.725490 0.792157
0.984314 0.729412 0.800000
0.050980 0.823529 0.780392
0.168627 0.827451 0.780392
0.282353 0.831373 0.788235
0.400000 0.831373 0.792157
0.517647 0.839216 0.796078
0.631373 0.839216 0.800000
0.752941 0.839216 0.796078
0.874510 0.850980 0.803922
0.984314 0.850980 0.807843
0.058824 0.941176 0.784314
0.172549 0.949020 0.792157
0.294118 0.952941 0.796078
0.403922 0.952941 0.800000
0.521569 0.952941 0.796078
0.635294 0.952941 0.800000
0.752941 0.952941 0.803922
0.878431 0.952941 0.811765
0.984314 0.952941 0.815686
0.039216 0.031373 0.858824
0.133333 0.031373 0.854902
0.247059 0.031373 0.866667
0.364706 0.031373 0.866667
0.478431 0.031373 0.870588
0.600000 0.031373 0.874510
0.717647 0.031373 0.878431
0.831373 0.031373 0.874510
0.956863 0.035294 0.878431
0.039216 0.129412 0.866667
0.137255 0.133333 0.862745
0.250980 0.137255 0.870588
0.368627 0.145098 0.874510
0.482353 0.145098 0.878431
0.603922 0.145098 0.874510
0.721569 0.152941 0.878431
0.843137 0.149020 0.890196
0.960784 0.156863 0.890196
0.039216 0.243137 0.866667
0.141176 0.250980 0.878431
0.258824 0.254902 0.878431
0.368627 0.254902 0.874510
0.498039 0.258824 0.878431
0.603922 0.258824 0.890196
0.725490 0.258824 0.886275
0.843137 0.262745 0.890196
0.968627 0.266667 0.898039
0.039216 0.356863 0.874510
0.152941 0.364706 0.874510
0.266667 0.368627 0.886275
0.380392 0.364706 0.890196
0.494118 0.368627 0.886275
0.615686 0.372549 0.890196
0.729412 0.372549 0.894118
0.850980 0.376471 0.894118
0.976471 0.380392 0.901961
0.043137 0.474510 0.882353
0.156863 0.478431 0.890196
0.270588 0.478431 0.886275
0.384314 0.486275 0.898039
0.505882 0.482353 0.894118
0.619608 0.486275 0.890196
0.749020 0.494118 0.901961
0.862745 0.494118 0.905882
0.976471 0.498039 0.901961
0.039216 0.588235 0.890196
0.160784 0.592157 0.890196
0.270588 0.600000 0.894118
0.396078 0.596078 0.898039
0.513725 0.603922 0.898039
0.627451 0.603922 0.901961
0.741176 0.607843 0.901961
0.866667 0.607843 0.905882
0.984314 0.615686 0.909804
0.054902 0.705882 0.890196
0.164706 0.705882 0.894118
0.286275 0.717647 0.898039
0.396078 0.717647 0.901961
0.517647 0.717647 0.901961
0.627451 0.725490 0.905882
0.749020 0.725490 0.905882
0.874510 0.729412 0.905882
0.984314 0.733333 0.917647
0.058824 0.827451 0.894118
0.176471 0.831373 0.901961
0.286275 0.831373 0.905882
0.403922 0.835294 0.905882
0.517647 0.839216 0.905882
0.635294 0.835294 0.909804
0.752941 0.843137 0.917647
0.878431 0.850980 0.917647
0.984314 0.850980 0.917647
0.066667 0.945098 0.905882
0.176471 0.952941 0.905882
0.294118 0.952941 0.905882
0.403922 0.952941 0.909804
0.529412 0.952941 0.917647
0.639216 0.952941 0.913725
0.756863 0.952941 0.917647
0.886275 0.952941 0.917647
0.984314 0.952941 0.917647
