assets/preview/luts/premium.cube
TITLE "Premium"
LUT_3D_SIZE 5
DOMAIN_MIN 0.0 0.0 0.0
DOMAIN_MAX 1.0 1.0 1.0
0.047059 0.031373 0.031373
0.243137 0.031373 0.031373
0.470588 0.031373 0.031373
0.705882 0.031373 0.031373
0.945098 0.031373 0.031373
0.047059 0.235294 0.031373
0.258824 0.243137 0.031373
0.490196 0.247059 0.031373
0.713725 0.254902 0.031373
0.956863 0.262745 0.031373
0.043137 0.470588 0.031373
0.262745 0.470588 0.031373
0.494118 0.474510 0.031373
0.733333 0.486275 0.031373
0.968627 0.486275 0.031373
0.043137 0.698039 0.031373
0.274510 0.705882 0.031373
0.505882 0.709804 0.031373
0.745098 0.713725 0.039216
0.984314 0.725490 0.050980
0.054902 0.937255 0.035294
0.282353 0.945098 0.039216
0.517647 0.949020 0.047059
0.752941 0.952941 0.054902
0.984314 0.952941 0.058824
0.047059 0.031373 0.192157
0.250980 0.031373 0.207843
0.478431 0.031373 0.211765
0.701961 0.031373 0.215686
0.945098 0.031373 0.227451
0.043137 0.243137 0.215686
0.254902 0.247059 0.211765
0.482353 0.250980 0.231373
0.725490 0.258824 0.235294
0.956863 0.262745 0.235294
0.043137 0.470588 0.223529
0.262745 0.478431 0.231373
0.498039 0.478431 0.235294
0.729412 0.486275 0.250980
0.968627 0.494118 0.250980
0.043137 0.705882 0.239216
0.270588 0.709804 0.247059
0.505882 0.713725 0.250980
0.745098 0.721569 0.258824
0.984314 0.725490 0.262745
0.062745 0.941176 0.250980
0.282353 0.941176 0.254902
0.521569 0.952941 0.262745
0.749020 0.952941 0.262745
0.984314 0.952941 0.266667
0.043137 0.031373 0.415686
0.250980 0.031373 0.419608
0.474510 0.031373 0.423529
0.713725 0.031373 0.435294
0.949020 0.031373 0.439216
0.043137 0.243137 0.427451
0.258824 0.247059 0.431373
0.486275 0.250980 0.447059
0.721569 0.262745 0.443137
0.960784 0.262745 0.450980
0.043137 0.466667 0.431373
0.262745 0.478431 0.450980
0.498039 0.486275 0.450980
0.733333 0.486275 0.458824
0.976471 0.498039 0.462745
0.050980 0.698039 0.450980
0.274510 0.709804 0.454902
0.513725 0.717647 0.466667
0.741176 0.725490 0.458824
0.984314 0.725490 0.474510
0.058824 0.945098 0.462745
0.282353 0.949020 0.470588
0.517647 0.952941 0.474510
0.752941 0.952941 0.482353
0.984314 0.952941 0.486275
0.039216 0.031373 0.639216
0.250980 0.031373 0.635294
0.482353 0.031373 0.650980
0.717647 0.031373 0.658824
0.945098 0.031373 0.658824
0.039216 0.243137 0.647059
0.258824 0.247059 0.650980
0.490196 0.250980 0.658824
0.721569 0.262745 0.662745
0.960784 0.262745 0.658824
0.039216 0.470588 0.654902
0.266667 0.478431 0.662745
0.509804 0.482353 0.666667
0.729412 0.490196 0.670588
0.972549 0.498039 0.682353
0.050980 0.705882 0.662745
0.274510 0.705882 0.674510
0.509804 0.721569 0.674510
0.749020 0.725490 0.682353
0.980392 0.725490 0.694118
0.066667 0.937255 0.678431
0.298039 0.949020 0.682353
0.521569 0.952941 0.694118
0.752941 0.952941 0.690196
0.984314 0.952941 0.701961
0.039216 0.031373 0.858824
0.247059 0.031373 0.866667
0.478431 0.031373 0.870588
0.717647 0.031373 0.878431
0.956863 0.035294 0.878431
0.039216 0.243137 0.866667
0.258824 0.254902 0.878431
0.498039 0.258824 0.878431
0.725490 0.258824 0.886275
0.968627 0.266667 0.898039
0.043137 0.474510 0.882353
0.270588 0.478431 0.886275
0.505882 0.482353 0.894118
0.749020 0.494118 0.901961
0.976471 0.498039 0.901961
0.054902 0.705882 0.890196
0.286275 0.717647 0.898039
0.517647 0.717647 0.901961
0.749020 0.725490 0.905882
0.984314 0.733333 0.917647
0.066667 0.945098 0.905882
0.294118 0.952941 0.905882
0.529412 0.952941 0.917647
0.756863 0.952941 0.917647
0.984314 0.952941 0.917647
