assets/preview/luts/teal_orange.cube
TITLE "Cinematic Teal & Orange"
LUT_3D_SIZE 33
DOMAIN_MIN 0.0 0.0 0.0
DOMAIN_MAX 1.0 1.0 1.0
0.000000 0.000000 0.057626
0.012000 0.000000 0.056983
0.051669 0.000000 0.055268
0.091337 0.000000 0.053553
0.131005 0.000000 0.051838
0.170674 0.000000 0.050124
0.210342 0.000000 0.048409
0.250011 0.000000 0.046694
0.289679 0.000000 0.044979
0.329348 0.000000 0.043264
0.369016 0.000000 0.041549
0.408685 0.000000 0.039834
0.448353 0.000000 0.038120
0.488021 0.000000 0.036405
0.527690 0.000000 0.034690
0.567358 0.000000 0.032975
0.607027 0.000000 0.031260
0.646695 0.000000 0.029545
0.686364 0.000000 0.027830
0.726032 0.000000 0.026116
0.765701 0.000000 0.024401
0.805369 0.000000 0.022686
0.845037 0.000000 0.020971
0.884706 0.000000 0.019256
0.924374 0.000000 0.017541
0.964043 0.000000 0.015826
1.000000 0.000000 0.014112
1.000000 0.000000 0.012397
1.000000 0.000000 0.010682
1.000000 0.000000 0.008967
1.000000 0.000000 0.007847
1.000000 0.000000 0.007847
1.000000 0.000000 0.007847
0.000000 0.032338 0.052361
0.008187 0.031850 0.051694
0.047855 0.030396 0.049980
0.087524 0.028942 0.048265
0.127192 0.027488 0.046550
0.166860 0.026034 0.044835
0.206529 0.024580 0.043120
0.246197 0.023126 0.041405
0.285866 0.021672 0.039690
0.325534 0.020218 0.037976
0.365203 0.018764 0.036261
0.404871 0.017310 0.034546
0.444540 0.015856 0.032831
0.484208 0.014402 0.031116
0.523876 0.012948 0.029401
0.563545 0.011494 0.027686
0.603213 0.010040 0.025972
0.642882 0.008586 0.024257
0.682550 0.007132 0.022542
0.722219 0.005678 0.020827
0.761887 0.004224 0.019112
0.801556 0.002770 0.017397
0.841224 0.001316 0.015682
0.880892 0.000000 0.013968
0.920561 0.000000 0.012253
0.960229 0.000000 0.010538
0.999898 0.000000 0.008823
1.000000 0.000000 0.007108
1.000000 0.000000 0.005393
1.000000 0.000000 0.003678
1.000000 0.000000 0.002558
1.000000 0.000000 0.002558
1.000000 0.000000 0.002558
0.000000 0.065377 0.047096
0.004373 0.064866 0.046406
0.044042 0.063412 0.044691
0.083710 0.061958 0.042976
0.123378 0.060504 0.041261
0.163047 0.059050 0.039546
0.202715 0.057596 0.037831
0.242384 0.056142 0.036117
0.282052 0.054688 0.034402
0.321721 0.053234 0.032687
0.361389 0.051780 0.030972
0.401058 0.050326 0.029257
0.440726 0.048872 0.027542
0.480394 0.047418 0.025827
0.520063 0.045964 0.024113
0.559731 0.044510 0.022398
0.599400 0.043056 0.020683
0.639068 0.041602 0.018968
0.678737 0.040148 0.017253
0.718405 0.038694 0.015538
0.758074 0.037240 0.013823
0.797742 0.035786 0.012109
0.837410 0.034332 0.010394
0.877079 0.032878 0.008679
0.916747 0.031424 0.006964
0.956416 0.029970 0.005249
0.996084 0.028516 0.003534
1.000000 0.027063 0.001819
1.000000 0.025609 0.000105
1.000000 0.024155 0.000000
1.000000 0.023205 0.000000
1.000000 0.023205 0.000000
1.000000 0.023205 0.000000
0.000000 0.098417 0.041831
0.000559 0.097882 0.041117
0.040228 0.096428 0.039402
0.079896 0.094974 0.037687
0.119565 0.093520 0.035973
0.159233 0.092066 0.034258
0.198902 0.090612 0.032543
0.238570 0.089158 0.030828
0.278239 0.087704 0.029113
0.317907 0.086250 0.027398
0.357575 0.084796 0.025683
0.397244 0.083342 0.023969
0.436912 0.081888 0.022254
0.476581 0.080434 0.020539
0.516249 0.078980 0.018824
0.555918 0.077526 0.017109
0.595586 0.076072 0.015394
0.635255 0.074618 0.013679
0.674923 0.073164 0.011965
0.714592 0.071710 0.010250
0.754260 0.070256 0.008535
0.793928 0.068802 0.006820
0.833597 0.067348 0.005105
0.873265 0.065894 0.003390
0.912934 0.064440 0.001675
0.952602 0.062986 0.000000
0.992271 0.061532 0.000000
1.000000 0.060078 0.000000
1.000000 0.058624 0.000000
1.000000 0.057170 0.000000
1.000000 0.056221 0.000000
1.000000 0.056221 0.000000
1.000000 0.056221 0.000000
0.000000 0.131457 0.036566
0.000000 0.130897 0.035828
0.036414 0.129443 0.034114
0.076083 0.127990 0.032399
0.115751 0.126536 0.030684
0.155420 0.125082 0.028969
0.195088 0.123628 0.027254
0.234757 0.122174 0.025539
0.274425 0.120720 0.023824
0.314093 0.119266 0.022110
0.353762 0.117812 0.020395
0.393430 0.116358 0.018680
0.433099 0.114904 0.016965
0.472767 0.113450 0.015250
0.512436 0.111996 0.013535
0.552104 0.110542 0.011820
0.591773 0.109088 0.010106
0.631441 0.107634 0.008391
0.671109 0.106180 0.006676
0.710778 0.104726 0.004961
0.750446 0.103272 0.003246
0.790115 0.101818 0.001531
0.829783 0.100364 0.000000
0.869452 0.098910 0.000000
0.909120 0.097456 0.000000
0.948789 0.096002 0.000000
0.988457 0.094548 0.000000
1.000000 0.093094 0.000000
1.000000 0.091640 0.000000
1.000000 0.090186 0.000000
1.000000 0.089237 0.000000
1.000000 0.089237 0.000000
1.000000 0.089237 0.000000
0.000000 0.164497 0.031301
0.000000 0.163913 0.030540
0.032601 0.162459 0.028825
0.072269 0.161005 0.027110
0.111938 0.159551 0.025395
0.151606 0.158097 0.023680
0.191275 0.156644 0.021965
0.230943 0.155190 0.020251
0.270611 0.153736 0.018536
0.310280 0.152282 0.016821
0.349948 0.150828 0.015106
0.389617 0.149374 0.013391
0.429285 0.147920 0.011676
0.468954 0.146466 0.009961
0.508622 0.145012 0.008247
0.548291 0.143558 0.006532
0.587959 0.142104 0.004817
0.627627 0.140650 0.003102
0.667296 0.139196 0.001387
0.706964 0.137742 0.000000
0.746633 0.136288 0.000000
0.786301 0.134834 0.000000
0.825970 0.133380 0.000000
0.865638 0.131926 0.000000
0.905307 0.130472 0.000000
0.944975 0.129018 0.000000
0.984643 0.127564 0.000000
1.000000 0.126110 0.000000
1.000000 0.124656 0.000000
1.000000 0.123202 0.000000
1.000000 0.122253 0.000000
1.000000 0.122253 0.000000
1.000000 0.122253 0.000000
0.000000 0.197536 0.026036
0.000000 0.196929 0.025251
0.028787 0.195475 0.023536
0.068456 0.194021 0.021821
0.108124 0.192567 0.020106
0.147793 0.191113 0.018392
0.187461 0.189659 0.016677
0.227129 0.188205 0.014962
0.266798 0.186752 0.013247
0.306466 0.185298 0.011532
0.346135 0.183844 0.009817
0.385803 0.182390 0.008102
0.425472 0.180936 0.006388
0.465140 0.179482 0.004673
0.504809 0.178028 0.002958
0.544477 0.176574 0.001243
0.584145 0.175120 0.000000
0.623814 0.173666 0.000000
0.663482 0.172212 0.000000
0.703151 0.170758 0.000000
0.742819 0.169304 0.000000
0.782488 0.167850 0.000000
0.822156 0.166396 0.000000
0.861825 0.164942 0.000000
0.901493 0.163488 0.000000
0.941161 0.162034 0.000000
0.980830 0.160580 0.000000
1.000000 0.159126 0.000000
1.000000 0.157672 0.000000
1.000000 0.156218 0.000000
1.000000 0.155269 0.000000
1.000000 0.155269 0.000000
1.000000 0.155269 0.000000
0.000000 0.230576 0.020771
0.000000 0.229945 0.019962
0.024974 0.228491 0.018248
0.064642 0.227037 0.016533
0.104311 0.225583 0.014818
0.143979 0.224129 0.013103
0.183647 0.222675 0.011388
0.223316 0.221221 0.009673
0.262984 0.219767 0.007958
0.302653 0.218313 0.006244
0.342321 0.216860 0.004529
0.381990 0.215406 0.002814
0.421658 0.213952 0.001099
0.461327 0.212498 0.000000
0.500995 0.211044 0.000000
0.540663 0.209590 0.000000
0.580332 0.208136 0.000000
0.620000 0.206682 0.000000
0.659669 0.205228 0.000000
0.699337 0.203774 0.000000
0.739006 0.202320 0.000000
0.778674 0.200866 0.000000
0.818343 0.199412 0.000000
0.858011 0.197958 0.000000
0.897679 0.196504 0.000000
0.937348 0.195050 0.000000
0.977016 0.193596 0.000000
1.000000 0.192142 0.000000
1.000000 0.190688 0.000000
1.000000 0.189234 0.000000
1.000000 0.188285 0.000000
1.000000 0.188285 0.000000
1.000000 0.188285 0.000000
0.000000 0.263616 0.015506
0.000000 0.262961 0.014674
0.021160 0.261507 0.012959
0.060828 0.260053 0.011244
0.100497 0.258599 0.009529
0.140165 0.257145 0.007814
0.179834 0.255691 0.006099
0.219502 0.254237 0.004385
0.259171 0.252783 0.002670
0.298839 0.251329 0.000955
0.338508 0.249875 0.000000
0.378176 0.248421 0.000000
0.417845 0.246968 0.000000
0.457513 0.245514 0.000000
0.497181 0.244060 0.000000
0.536850 0.242606 0.000000
0.576518 0.241152 0.000000
0.616187 0.239698 0.000000
0.655855 0.238244 0.000000
0.695524 0.236790 0.000000
0.735192 0.235336 0.000000
0.774861 0.233882 0.000000
0.814529 0.232428 0.000000
0.854197 0.230974 0.000000
0.893866 0.229520 0.000000
0.933534 0.228066 0.000000
0.973203 0.226612 0.000000
1.000000 0.225158 0.000000
1.000000 0.223704 0.000000
1.000000 0.222250 0.000000
1.000000 0.221301 0.000000
1.000000 0.221301 0.000000
1.000000 0.221301 0.000000
0.000000 0.296655 0.010241
0.000000 0.295977 0.009385
0.017346 0.294523 0.007670
0.057015 0.293069 0.005955
0.096683 0.291615 0.004240
0.136352 0.290161 0.002526
0.176020 0.288707 0.000811
0.215689 0.287253 0.000000
0.255357 0.285799 0.000000
0.295026 0.284345 0.000000
0.334694 0.282891 0.000000
0.374362 0.281437 0.000000
0.414031 0.279983 0.000000
0.453699 0.278529 0.000000
0.493368 0.277076 0.000000
0.533036 0.275622 0.000000
0.572705 0.274168 0.000000
0.612373 0.272714 0.000000
0.652042 0.271260 0.000000
0.691710 0.269806 0.000000
0.731378 0.268352 0.000000
0.771047 0.266898 0.000000
0.810715 0.265444 0.000000
0.850384 0.263990 0.000000
0.890052 0.262536 0.000000
0.929721 0.261082 0.000000
0.969389 0.259628 0.000000
1.000000 0.258174 0.000000
1.000000 0.256720 0.000000
1.000000 0.255266 0.000000
1.000000 0.254316 0.000000
1.000000 0.254316 0.000000
1.000000 0.254316 0.000000
0.000000 0.329695 0.004977
0.000000 0.328993 0.004096
0.013533 0.327539 0.002381
0.053201 0.326085 0.000667
0.092870 0.324631 0.000000
0.132538 0.323177 0.000000
0.172207 0.321723 0.000000
0.211875 0.320269 0.000000
0.251544 0.318815 0.000000
0.291212 0.317361 0.000000
0.330880 0.315907 0.000000
0.370549 0.314453 0.000000
0.410217 0.312999 0.000000
0.449886 0.311545 0.000000
0.489554 0.310091 0.000000
0.529223 0.308637 0.000000
0.568891 0.307184 0.000000
0.608560 0.305730 0.000000
0.648228 0.304276 0.000000
0.687896 0.302822 0.000000
0.727565 0.301368 0.000000
0.767233 0.299914 0.000000
0.806902 0.298460 0.000000
0.846570 0.297006 0.000000
0.886239 0.295552 0.000000
0.925907 0.294098 0.000000
0.965576 0.292644 0.000000
1.000000 0.291190 0.000000
1.000000 0.289736 0.000000
1.000000 0.288282 0.000000
1.000000 0.287332 0.000000
1.000000 0.287332 0.000000
1.000000 0.287332 0.000000
0.000000 0.362735 0.000000
0.000000 0.362009 0.000000
0.009719 0.360555 0.000000
0.049388 0.359101 0.000000
0.089056 0.357647 0.000000
0.128725 0.356193 0.000000
0.168393 0.354739 0.000000
0.208062 0.353285 0.000000
0.247730 0.351831 0.000000
0.287398 0.350377 0.000000
0.327067 0.348923 0.000000
0.366735 0.347469 0.000000
0.406404 0.346015 0.000000
0.446072 0.344561 0.000000
0.485741 0.343107 0.000000
0.525409 0.341653 0.000000
0.565078 0.340199 0.000000
0.604746 0.338745 0.000000
0.644414 0.337292 0.000000
0.684083 0.335838 0.000000
0.723751 0.334384 0.000000
0.763420 0.332930 0.000000
0.803088 0.331476 0.000000
0.842757 0.330022 0.000000
0.882425 0.328568 0.000000
0.922094 0.327114 0.000000
0.961762 0.325660 0.000000
1.000000 0.324206 0.000000
1.000000 0.322752 0.000000
1.000000 0.321298 0.000000
1.000000 0.320348 0.000000
1.000000 0.320348 0.000000
1.000000 0.320348 0.000000
0.000000 0.395774 0.000000
0.000000 0.395025 0.000000
0.005906 0.393571 0.000000
0.045574 0.392117 0.000000
0.085243 0.390663 0.000000
0.124911 0.389209 0.000000
0.164580 0.387755 0.000000
0.204248 0.386301 0.000000
0.243916 0.384847 0.000000
0.283585 0.383393 0.000000
0.323253 0.381939 0.000000
0.362922 0.380485 0.000000
0.402590 0.379031 0.000000
0.442259 0.377577 0.000000
0.481927 0.376123 0.000000
0.521596 0.374669 0.000000
0.561264 0.373215 0.000000
0.600932 0.371761 0.000000
0.640601 0.370307 0.000000
0.680269 0.368853 0.000000
0.719938 0.367399 0.000000
0.759606 0.365946 0.000000
0.799275 0.364492 0.000000
0.838943 0.363038 0.000000
0.878612 0.361584 0.000000
0.918280 0.360130 0.000000
0.957948 0.358676 0.000000
0.997617 0.357222 0.000000
1.000000 0.355768 0.000000
1.000000 0.354314 0.000000
1.000000 0.353364 0.000000
1.000000 0.353364 0.000000
1.000000 0.353364 0.000000
0.000000 0.428814 0.000000
0.000000 0.428041 0.000000
0.002092 0.426587 0.000000
0.041761 0.425133 0.000000
0.081429 0.423679 0.000000
0.121098 0.422225 0.000000
0.160766 0.420771 0.000000
0.200434 0.419317 0.000000
0.240103 0.417863 0.000000
0.279771 0.416409 0.000000
0.319440 0.414955 0.000000
0.359108 0.413501 0.000000
0.398777 0.412047 0.000000
0.438445 0.410593 0.000000
0.478114 0.409139 0.000000
0.517782 0.407685 0.000000
0.557450 0.406231 0.000000
0.597119 0.404777 0.000000
0.636787 0.403323 0.000000
0.676456 0.401869 0.000000
0.716124 0.400415 0.000000
0.755793 0.398961 0.000000
0.795461 0.397507 0.000000
0.835130 0.396054 0.000000
0.874798 0.394600 0.000000
0.914466 0.393146 0.000000
0.954135 0.391692 0.000000
0.993803 0.390238 0.000000
1.000000 0.388784 0.000000
1.000000 0.387342 0.000000
1.000000 0.386474 0.000000
1.000000 0.386474 0.000000
1.000000 0.386474 0.000000
0.000000 0.461854 0.000000
0.000000 0.461057 0.000000
0.000000 0.459603 0.000000
0.037947 0.458149 0.000000
0.077615 0.456695 0.000000
0.117284 0.455241 0.000000
0.156952 0.453787 0.000000
0.196621 0.452333 0.000000
0.236289 0.450879 0.000000
0.275958 0.449425 0.000000
0.315626 0.447971 0.000000
0.355295 0.446517 0.000000
0.394963 0.445063 0.000000
0.434631 0.443609 0.000000
0.474300 0.442155 0.000000
0.513968 0.440701 0.000000
0.553637 0.439247 0.000000
0.593305 0.437793 0.000000
0.632974 0.436339 0.000000
0.672642 0.434885 0.000000
0.712311 0.433431 0.000000
0.751979 0.431977 0.000000
0.791648 0.430523 0.000000
0.831316 0.429069 0.000000
0.870984 0.427615 0.000000
0.910653 0.426162 0.000000
0.950352 0.424729 0.000000
0.990172 0.423384 0.000000
1.000000 0.422038 0.000000
1.000000 0.420692 0.000000
1.000000 0.419867 0.000000
1.000000 0.419867 0.000000
1.000000 0.419867 0.000000
0.000000 0.494893 0.000000
0.000000 0.494073 0.000000
0.000000 0.492619 0.000000
0.034133 0.491165 0.000000
0.073802 0.489711 0.000000
0.113470 0.488257 0.000000
0.153139 0.486803 0.000000
0.192807 0.485349 0.000000
0.232476 0.483895 0.000000
0.272144 0.482441 0.000000
0.311813 0.480987 0.000000
0.351481 0.479533 0.000000
0.391149 0.478079 0.000000
0.430818 0.476625 0.000000
0.470486 0.475171 0.000000
0.510155 0.473717 0.000000
0.549823 0.472263 0.000000
0.589492 0.470809 0.000000
0.629160 0.469355 0.000000
0.668829 0.467901 0.000000
0.708497 0.466447 0.000000
0.748165 0.464993 0.000000
0.787834 0.463539 0.000000
0.827546 0.462116 0.000000
0.867366 0.460770 0.000000
0.907186 0.459425 0.000000
0.947006 0.458079 0.000000
0.986826 0.456733 0.000000
1.000000 0.455387 0.000000
1.000000 0.454042 0.000000
1.000000 0.453259 0.000000
1.000000 0.453259 0.000000
1.000000 0.453259 0.000000
0.000000 0.527933 0.000000
0.000000 0.527089 0.000000
0.000000 0.525635 0.000000
0.030320 0.524181 0.000000
0.069988 0.522727 0.000000
0.109657 0.521273 0.000000
0.149325 0.519819 0.000000
0.188994 0.518365 0.000000
0.228662 0.516911 0.000000
0.268331 0.515457 0.000000
0.307999 0.514003 0.000000
0.347667 0.512549 0.000000
0.387336 0.511095 0.000000
0.427004 0.509641 0.000000
0.466673 0.508187 0.000000
0.506341 0.506733 0.000000
0.546010 0.505279 0.000000
0.585678 0.503825 0.000000
0.625347 0.502371 0.000000
0.665015 0.500917 0.000000
0.704739 0.499503 0.000000
0.744560 0.498157 0.000000
0.784380 0.496812 0.000000
0.824200 0.495466 0.000000
0.864020 0.494120 0.000000
0.903840 0.492774 0.000000
0.943660 0.491429 0.000000
0.983480 0.490083 0.000000
1.000000 0.488737 0.000000
1.000000 0.487391 0.000000
1.000000 0.486651 0.000000
1.000000 0.486651 0.000000
1.000000 0.486651 0.000000
0.000000 0.560973 0.000000
0.000000 0.560104 0.000000
0.000000 0.558650 0.000000
0.026506 0.557197 0.000000
0.066175 0.555743 0.000000
0.105843 0.554289 0.000000
0.145512 0.552835 0.000000
0.185180 0.551381 0.000000
0.224849 0.549927 0.000000
0.264517 0.548473 0.000000
0.304185 0.547019 0.000000
0.343854 0.545565 0.000000
0.383522 0.544111 0.000000
0.423191 0.542657 0.000000
0.462859 0.541203 0.000000
0.502528 0.539749 0.000000
0.542196 0.538295 0.000000
0.581933 0.536890 0.000000
0.621753 0.535544 0.000000
0.661574 0.534199 0.000000
0.701394 0.532853 0.000000
0.741214 0.531507 0.000000
0.781034 0.530161 0.000000
0.820854 0.528816 0.000000
0.860674 0.527470 0.000000
0.900494 0.526124 0.000000
0.940315 0.524778 0.000000
0.980135 0.523433 0.000000
1.000000 0.522087 0.000000
1.000000 0.520741 0.000000
1.000000 0.520044 0.000000
1.000000 0.520044 0.000000
1.000000 0.520044 0.000000
0.000000 0.594012 0.000000
0.000000 0.593120 0.000000
0.000000 0.591666 0.000000
0.022693 0.590212 0.000000
0.062361 0.588758 0.000000
0.102030 0.587305 0.000000
0.141698 0.585851 0.000000
0.181367 0.584397 0.000000
0.221035 0.582943 0.000000
0.260703 0.581489 0.000000
0.300372 0.580035 0.000000
0.340040 0.578581 0.000000
0.379709 0.577127 0.000000
0.419377 0.575673 0.000000
0.459127 0.574277 0.000000
0.498947 0.572931 0.000000
0.538767 0.571585 0.000000
0.578588 0.570240 0.000000
0.618408 0.568894 0.000000
0.658228 0.567548 0.000000
0.698048 0.566202 0.000000
0.737868 0.564857 0.000000
0.777688 0.563511 0.000000
0.817508 0.562165 0.000000
0.857329 0.560819 0.000000
0.897149 0.559474 0.000000
0.936969 0.558128 0.000000
0.976789 0.556782 0.000000
1.000000 0.555436 0.000000
1.000000 0.554091 0.000000
1.000000 0.553436 0.000000
1.000000 0.553436 0.000000
1.000000 0.553436 0.000000
0.000000 0.627052 0.000000
0.000000 0.626136 0.000000
0.000000 0.624682 0.000000
0.018879 0.623228 0.000000
0.058548 0.621774 0.000000
0.098216 0.620320 0.000000
0.137884 0.618866 0.000000
0.177553 0.617413 0.000000
0.217221 0.615959 0.000000
0.256890 0.614505 0.000000
0.296558 0.613051 0.000000
0.336321 0.611664 0.000000
0.376141 0.610318 0.000000
0.415961 0.608972 0.000000
0.455781 0.607627 0.000000
0.495602 0.606281 0.000000
0.535422 0.604935 0.000000
0.575242 0.603589 0.000000
0.615062 0.602244 0.000000
0.654882 0.600898 0.000000
0.694702 0.599552 0.000000
0.734522 0.598206 0.000000
0.774342 0.596861 0.000000
0.814163 0.595515 0.000000
0.853983 0.594169 0.000000
0.893803 0.592823 0.000000
0.933623 0.591478 0.000000
0.973443 0.590132 0.000000
1.000000 0.588786 0.000000
1.000000 0.587440 0.000000
1.000000 0.586829 0.000000
1.000000 0.586829 0.000000
1.000000 0.586829 0.000000
0.000000 0.660092 0.000000
0.000000 0.659152 0.000000
0.000000 0.657698 0.000000
0.015066 0.656244 0.000000
0.054734 0.654790 0.000000
0.094402 0.653336 0.000000
0.134071 0.651882 0.000000
0.173739 0.650428 0.000000
0.213515 0.649051 0.000000
0.253335 0.647705 0.000000
0.293155 0.646359 0.000000
0.332975 0.645014 0.000000
0.372795 0.643668 0.000000
0.412615 0.642322 0.000000
0.452436 0.640976 0.000000
0.492256 0.639631 0.000000
0.532076 0.638285 0.000000
0.571896 0.636939 0.000000
0.611716 0.635593 0.000000
0.651536 0.634247 0.000000
0.691356 0.632902 0.000000
0.731177 0.631556 0.000000
0.770997 0.630210 0.000000
0.810817 0.628864 0.000000
0.850637 0.627519 0.000000
0.890457 0.626173 0.000000
0.930277 0.624827 0.000000
0.970097 0.623481 0.000000
1.000000 0.622136 0.000000
1.000000 0.620790 0.000000
1.000000 0.620221 0.000000
1.000000 0.620221 0.000000
1.000000 0.620221 0.000000
0.000000 0.693131 0.000000
0.000000 0.692168 0.000000
0.000000 0.690714 0.000000
0.011252 0.689260 0.000000
0.050920 0.687806 0.000000
0.090709 0.686438 0.000000
0.130529 0.685092 0.000000
0.170349 0.683746 0.000000
0.210169 0.682400 0.000000
0.249989 0.681055 0.000000
0.289809 0.679709 0.000000
0.329629 0.678363 0.000000
0.369450 0.677017 0.000000
0.409270 0.675672 0.000000
0.449090 0.674326 0.000000
0.488910 0.672980 0.000000
0.528730 0.671634 0.000000
0.568550 0.670289 0.000000
0.608370 0.668943 0.000000
0.648191 0.667597 0.000000
0.688011 0.666251 0.000000
0.727831 0.664906 0.000000
0.767651 0.663560 0.000000
0.807471 0.662214 0.000000
0.847291 0.660868 0.000000
0.887111 0.659523 0.000000
0.926932 0.658177 0.000000
0.966752 0.656831 0.000000
1.000000 0.655485 0.000000
1.000000 0.654140 0.000000
1.000000 0.653613 0.000000
1.000000 0.653613 0.000000
1.000000 0.653613 0.000000
0.000000 0.726171 0.000000
0.000000 0.725184 0.000000
0.000000 0.723825 0.000000
0.007723 0.722479 0.000000
0.047543 0.721133 0.000000
0.087363 0.719787 0.000000
0.127183 0.718442 0.000000
0.167003 0.717096 0.000000
0.206823 0.715750 0.000000
0.246643 0.714404 0.000000
0.286464 0.713059 0.000000
0.326284 0.711713 0.000000
0.366104 0.710367 0.000000
0.405924 0.709021 0.000000
0.445744 0.707676 0.000000
0.485564 0.706330 0.000000
0.525384 0.704984 0.000000
0.565205 0.703638 0.000000
0.605025 0.702293 0.000000
0.644845 0.700947 0.000000
0.684665 0.699601 0.000000
0.724485 0.698255 0.000000
0.764305 0.696910 0.000000
0.804125 0.695564 0.000000
0.843946 0.694218 0.000000
0.883766 0.692872 0.000000
0.923586 0.691527 0.000000
0.963406 0.690181 0.000000
1.000000 0.688835 0.000000
1.000000 0.687489 0.000000
1.000000 0.687006 0.000000
1.000000 0.687006 0.000000
1.000000 0.687006 0.000000
0.000000 0.759439 0.000000
0.000000 0.758520 0.000000
0.000000 0.757174 0.000000
0.004377 0.755829 0.000000
0.044197 0.754483 0.000000
0.084017 0.753137 0.000000
0.123837 0.751791 0.000000
0.163657 0.750445 0.000000
0.203478 0.749100 0.000000
0.243298 0.747754 0.000000
0.283118 0.746408 0.000000
0.322938 0.745062 0.000000
0.362758 0.743717 0.000000
0.402578 0.742371 0.000000
0.442398 0.741025 0.000000
0.482219 0.739679 0.000000
0.522039 0.738334 0.000000
0.561859 0.736988 0.000000
0.601679 0.735642 0.000000
0.641499 0.734296 0.000000
0.681319 0.732951 0.000000
0.721139 0.731605 0.000000
0.760959 0.730259 0.000000
0.800780 0.728913 0.000000
0.840600 0.727568 0.000000
0.880420 0.726222 0.000000
0.920240 0.724876 0.000000
0.960060 0.723530 0.000000
0.999880 0.722185 0.000000
1.000000 0.720839 0.000000
1.000000 0.720398 0.000000
1.000000 0.720398 0.000000
1.000000 0.720398 0.000000
0.000000 0.792789 0.000000
0.000000 0.791870 0.000000
0.000000 0.790524 0.000000
0.001031 0.789178 0.000000
0.040851 0.787832 0.000000
0.080671 0.786487 0.000000
0.120492 0.785141 0.000000
0.160312 0.783795 0.000000
0.200132 0.782449 0.000000
0.239952 0.781104 0.000000
0.279772 0.779758 0.000000
0.319592 0.778412 0.000000
0.359412 0.777066 0.000000
0.399232 0.775721 0.000000
0.439053 0.774375 0.000000
0.478873 0.773029 0.000000
0.518693 0.771683 0.000000
0.558513 0.770338 0.000000
0.598333 0.768992 0.000000
0.638153 0.767646 0.000000
0.677973 0.766300 0.000000
0.717794 0.764955 0.000000
0.757614 0.763609 0.000000
0.797434 0.762263 0.000000
0.837254 0.760917 0.000000
0.877074 0.759572 0.000000
0.916894 0.758226 0.000000
0.956714 0.756880 0.000000
0.996535 0.755534 0.000000
1.000000 0.754189 0.000000
1.000000 0.753791 0.000000
1.000000 0.753791 0.000000
1.000000 0.753791 0.000000
0.000000 0.826139 0.000000
0.000000 0.825219 0.000000
0.000000 0.823874 0.000000
0.000000 0.822528 0.000000
0.037506 0.821182 0.000000
0.077326 0.819836 0.000000
0.117146 0.818491 0.000000
0.156966 0.817145 0.000000
0.196786 0.815799 0.000000
0.236606 0.814453 0.000000
0.276426 0.813108 0.000000
0.316246 0.811762 0.000000
0.356067 0.810416 0.000000
0.395887 0.809070 0.000000
0.435707 0.807725 0.000000
0.475527 0.806379 0.000000
0.515347 0.805033 0.000000
0.555167 0.803687 0.000000
0.594987 0.802341 0.000000
0.634808 0.800996 0.000000
0.674628 0.799650 0.000000
0.714448 0.798304 0.000000
0.754268 0.796958 0.000000
0.794088 0.795613 0.000000
0.833908 0.794267 0.000000
0.873728 0.792921 0.000000
0.913549 0.791575 0.000000
0.953369 0.790230 0.000000
0.993189 0.788884 0.000000
1.000000 0.787538 0.000000
1.000000 0.787183 0.000000
1.000000 0.787183 0.000000
1.000000 0.787183 0.000000
0.000000 0.859488 0.000000
0.000000 0.858569 0.000000
0.000000 0.857223 0.000000
0.000000 0.855877 0.000000
0.034160 0.854532 0.000000
0.073980 0.853186 0.000000
0.113800 0.851840 0.000000
0.153620 0.850494 0.000000
0.193440 0.849149 0.000000
0.233260 0.847803 0.000000
0.273081 0.846457 0.000000
0.312901 0.845111 0.000000
0.352721 0.843766 0.000000
0.392541 0.842420 0.000000
0.432361 0.841074 0.000000
0.472181 0.839728 0.000000
0.512001 0.838383 0.000000
0.551822 0.837037 0.000000
0.591642 0.835691 0.000000
0.631462 0.834345 0.000000
0.671282 0.833000 0.000000
0.711102 0.831654 0.000000
0.750922 0.830308 0.000000
0.790742 0.828962 0.000000
0.830563 0.827617 0.000000
0.870383 0.826271 0.000000
0.910203 0.824925 0.000000
