assets/preview/luts/teal_orange.cube
TITLE "Cinematic Teal & Orange"
LUT_3D_SIZE 5
DOMAIN_MIN 0.0 0.0 0.0
DOMAIN_MAX 1.0 1.0 1.0
0.000000 0.000000 0.057626
0.289679 0.000000 0.044979
0.607027 0.000000 0.031260
0.924374 0.000000 0.017541
1.000000 0.000000 0.007847
0.000000 0.263616 0.015506
0.259171 0.252783 0.002670
0.576518 0.241152 0.000000
0.893866 0.229520 0.000000
1.000000 0.221301 0.000000
0.000000 0.527933 0.000000
0.228662 0.516911 0.000000
0.546010 0.505279 0.000000
0.864020 0.494120 0.000000
1.000000 0.486651 0.000000
0.000000 0.792789 0.000000
0.200132 0.782449 0.000000
0.518693 0.771683 0.000000
0.837254 0.760917 0.000000
1.000000 0.753791 0.000000
0.000000 1.000000 0.000000
0.173952 1.000000 0.000000
0.492638 1.000000 0.000000
0.811323 1.000000 0.000000
1.000000 1.000000 0.000000
0.000000 0.000000 0.343589
0.286701 0.000000 0.330924
0.604049 0.000000 0.317205
0.921396 0.000000 0.303486
1.000000 0.000000 0.293792
0.000000 0.260133 0.301470
0.256193 0.249282 0.288615
0.573540 0.237650 0.274896
0.890888 0.226018 0.261177
1.000000 0.217799 0.251483
0.000000 0.524450 0.259351
0.225684 0.513409 0.246306
0.543032 0.501777 0.232587
0.861407 0.490879 0.219012
1.000000 0.483444 0.209610
0.000000 0.789548 0.217337
0.197519 0.779208 0.204324
0.516080 0.768442 0.190776
0.834641 0.757676 0.177227
1.000000 0.750583 0.168167
0.000000 1.000000 0.176056
0.171377 1.000000 0.163163
0.490063 1.000000 0.149739
0.808748 1.000000 0.136314
1.000000 1.000000 0.127684
0.000000 0.000000 0.615143
0.283873 0.000000 0.602460
0.601221 0.000000 0.588742
0.918568 0.000000 0.575023
1.000000 0.000000 0.565328
0.000000 0.256825 0.573024
0.253365 0.245957 0.560151
0.570712 0.234325 0.546432
0.888060 0.222693 0.532713
1.000000 0.214474 0.523019
0.000000 0.521143 0.530905
0.222856 0.510084 0.517842
0.540365 0.498568 0.504146
0.858926 0.487802 0.490597
1.000000 0.480398 0.481227
0.000000 0.786470 0.488921
0.195038 0.776131 0.475909
0.513599 0.765365 0.462360
0.832160 0.754599 0.448811
1.000000 0.747537 0.439784
0.000000 1.000000 0.447676
0.168932 1.000000 0.434783
0.487617 1.000000 0.421359
0.806303 1.000000 0.407934
1.000000 1.000000 0.399337
0.000000 0.000000 0.880428
0.281111 0.000000 0.867728
0.598458 0.000000 0.854009
0.915806 0.000000 0.840290
1.000000 0.000000 0.830596
0.000000 0.253594 0.838308
0.250602 0.242708 0.825418
0.567950 0.231077 0.811699
0.885297 0.219445 0.797981
1.000000 0.211226 0.788286
0.000000 0.517911 0.796189
0.220094 0.506836 0.783109
0.537942 0.495561 0.769460
0.856503 0.484795 0.755911
1.000000 0.477422 0.746572
0.000000 0.783464 0.754236
0.192614 0.773124 0.741224
0.511176 0.762358 0.727675
0.829737 0.751592 0.714126
1.000000 0.744562 0.705129
0.000000 1.000000 0.713026
0.166543 1.000000 0.700133
0.485228 1.000000 0.686708
0.803914 1.000000 0.673284
1.000000 1.000000 0.664717
0.000000 0.000000 1.000000
0.278391 0.000000 1.000000
0.595738 0.000000 1.000000
0.913086 0.000000 1.000000
1.000000 0.000000 1.000000
0.000000 0.250413 1.000000
0.247882 0.239510 1.000000
0.565230 0.227878 1.000000
0.882577 0.216247 1.000000
1.000000 0.208027 1.000000
0.000000 0.514730 1.000000
0.217374 0.503637 1.000000
0.535555 0.492601 1.000000
0.854116 0.481835 1.000000
1.000000 0.474493 1.000000
0.000000 0.780504 1.000000
0.190228 0.770164 1.000000
0.508789 0.759398 0.988903
0.827350 0.748632 0.975354
1.000000 0.741632 0.966388
0.000000 1.000000 0.974288
0.164190 1.000000 0.961395
0.482876 1.000000 0.947970
0.801561 1.000000 0.934546
1.000000 1.000000 0.926009
