assets/preview/luts/teal_orange.cube
TITLE "Cinematic Teal & Orange"
LUT_3D_SIZE 9
DOMAIN_MIN 0.0 0.0 0.0
DOMAIN_MAX 1.0 1.0 1.0
0.000000 0.000000 0.057626
0.131005 0.000000 0.051838
0.289679 0.000000 0.044979
0.448353 0.000000 0.038120
0.607027 0.000000 0.031260
0.765701 0.000000 0.024401
0.924374 0.000000 0.017541
1.000000 0.000000 0.010682
1.000000 0.000000 0.007847
0.000000 0.131457 0.036566
0.115751 0.126536 0.030684
0.274425 0.120720 0.023824
0.433099 0.114904 0.016965
0.591773 0.109088 0.010106
0.750446 0.103272 0.003246
0.909120 0.097456 0.000000
1.000000 0.091640 0.000000
1.000000 0.089237 0.000000
0.000000 0.263616 0.015506
0.100497 0.258599 0.009529
0.259171 0.252783 0.002670
0.417845 0.246968 0.000000
0.576518 0.241152 0.000000
0.735192 0.235336 0.000000
0.893866 0.229520 0.000000
1.000000 0.223704 0.000000
1.000000 0.221301 0.000000
0.000000 0.395774 0.000000
0.085243 0.390663 0.000000
0.243916 0.384847 0.000000
0.402590 0.379031 0.000000
0.561264 0.373215 0.000000
0.719938 0.367399 0.000000
0.878612 0.361584 0.000000
1.000000 0.355768 0.000000
1.000000 0.353364 0.000000
0.000000 0.527933 0.000000
0.069988 0.522727 0.000000
0.228662 0.516911 0.000000
0.387336 0.511095 0.000000
0.546010 0.505279 0.000000
0.704739 0.499503 0.000000
0.864020 0.494120 0.000000
1.000000 0.488737 0.000000
1.000000 0.486651 0.000000
0.000000 0.660092 0.000000
0.054734 0.654790 0.000000
0.213515 0.649051 0.000000
0.372795 0.643668 0.000000
0.532076 0.638285 0.000000
0.691356 0.632902 0.000000
0.850637 0.627519 0.000000
1.000000 0.622136 0.000000
1.000000 0.620221 0.000000
0.000000 0.792789 0.000000
0.040851 0.787832 0.000000
0.200132 0.782449 0.000000
0.359412 0.777066 0.000000
0.518693 0.771683 0.000000
0.677973 0.766300 0.000000
0.837254 0.760917 0.000000
0.996535 0.755534 0.000000
1.000000 0.753791 0.000000
0.000000 0.926188 0.000000
0.027468 0.921231 0.000000
0.186749 0.915848 0.000000
0.346029 0.910465 0.000000
0.505310 0.905082 0.000000
0.664590 0.899699 0.000000
0.823871 0.894316 0.000000
0.983152 0.888933 0.000000
1.000000 0.887360 0.000000
0.000000 1.000000 0.000000
0.014609 1.000000 0.000000
0.173952 1.000000 0.000000
0.333295 1.000000 0.000000
0.492638 1.000000 0.000000
0.651980 1.000000 0.000000
0.811323 1.000000 0.000000
0.970666 1.000000 0.000000
1.000000 1.000000 0.000000
0.000000 0.000000 0.203762
0.129484 0.000000 0.197965
0.288157 0.000000 0.191106
0.446831 0.000000 0.184246
0.605505 0.000000 0.177387
0.764179 0.000000 0.170527
0.922852 0.000000 0.163668
1.000000 0.000000 0.156809
1.000000 0.000000 0.153974
0.000000 0.129677 0.182702
0.114229 0.124746 0.176811
0.272903 0.118930 0.169951
0.431577 0.113114 0.163092
0.590251 0.107299 0.156232
0.748925 0.101483 0.149373
0.907598 0.095667 0.142513
1.000000 0.089851 0.135654
1.000000 0.087447 0.132819
0.000000 0.261836 0.161643
0.098975 0.256810 0.155656
0.257649 0.250994 0.148796
0.416323 0.245178 0.141937
0.574996 0.239362 0.135078
0.733670 0.233546 0.128218
0.892344 0.227731 0.121359
1.000000 0.221915 0.114499
1.000000 0.219511 0.111665
0.000000 0.393994 0.140583
0.083721 0.388874 0.134501
0.242395 0.383058 0.127642
0.401068 0.377242 0.120782
0.559742 0.371426 0.113923
0.718416 0.365610 0.107063
0.877090 0.359794 0.100204
1.000000 0.353978 0.093345
1.000000 0.351575 0.090510
0.000000 0.526153 0.119523
0.068466 0.520937 0.113347
0.227140 0.515121 0.106487
0.385814 0.509306 0.099628
0.544488 0.503490 0.092768
0.703404 0.497847 0.085943
0.862685 0.492464 0.079168
1.000000 0.487081 0.072394
1.000000 0.485012 0.069750
0.000000 0.658312 0.098464
0.053212 0.653001 0.092192
0.212180 0.647395 0.085374
0.371460 0.642012 0.078599
0.530741 0.636629 0.071825
0.690021 0.631246 0.065050
0.849302 0.625862 0.058276
1.000000 0.620479 0.051501
1.000000 0.618582 0.049029
0.000000 0.791133 0.077493
0.039516 0.786176 0.071255
0.198797 0.780793 0.064481
0.358077 0.775410 0.057706
0.517358 0.770027 0.050932
0.676638 0.764644 0.044158
0.835919 0.759261 0.037383
0.995199 0.753878 0.030609
1.000000 0.752152 0.028307
0.000000 0.924531 0.056601
0.026133 0.919575 0.050363
0.185414 0.914192 0.043588
0.344694 0.908809 0.036814
0.503975 0.903426 0.030039
0.663255 0.898043 0.023265
0.822536 0.892660 0.016491
0.981816 0.887277 0.009716
1.000000 0.885721 0.007586
0.000000 1.000000 0.036194
0.013293 1.000000 0.030013
0.172636 1.000000 0.023301
0.331979 1.000000 0.016589
0.491322 1.000000 0.009877
0.650664 1.000000 0.003165
0.810007 1.000000 0.000000
0.969350 1.000000 0.000000
1.000000 1.000000 0.000000
0.000000 0.000000 0.343589
0.128027 0.000000 0.337784
0.286701 0.000000 0.330924
0.445375 0.000000 0.324065
0.604049 0.000000 0.317205
0.762723 0.000000 0.310346
0.921396 0.000000 0.303486
1.000000 0.000000 0.296627
1.000000 0.000000 0.293792
0.000000 0.127974 0.322530
0.112773 0.123034 0.316629
0.271447 0.117218 0.309770
0.430121 0.111402 0.302910
0.588795 0.105586 0.296051
0.747468 0.099771 0.289191
0.906142 0.093955 0.282332
1.000000 0.088139 0.275473
1.000000 0.085735 0.272638
0.000000 0.260133 0.301470
0.097519 0.255098 0.295474
0.256193 0.249282 0.288615
0.414867 0.243466 0.281756
0.573540 0.237650 0.274896
0.732214 0.231834 0.268037
0.890888 0.226018 0.261177
1.000000 0.220203 0.254318
1.000000 0.217799 0.251483
0.000000 0.392291 0.280411
0.082265 0.387161 0.274320
0.240938 0.381346 0.267460
0.399612 0.375530 0.260601
0.558286 0.369714 0.253741
0.716960 0.363898 0.246882
0.875634 0.358082 0.240023
1.000000 0.352266 0.233163
1.000000 0.349874 0.230332
0.000000 0.524450 0.259351
0.067010 0.519225 0.253165
0.225684 0.513409 0.246306
0.384358 0.507593 0.239446
0.543032 0.501777 0.232587
0.702127 0.496262 0.225786
0.861407 0.490879 0.219012
1.000000 0.485496 0.212237
1.000000 0.483444 0.209610
0.000000 0.656609 0.238291
0.051756 0.651289 0.232010
0.210902 0.645810 0.225217
0.370183 0.640427 0.218443
0.529463 0.635044 0.211668
0.688744 0.629661 0.204894
0.848024 0.624278 0.198119
1.000000 0.618895 0.191345
1.000000 0.617014 0.188889
0.000000 0.789548 0.217337
0.038239 0.784591 0.211099
0.197519 0.779208 0.204324
0.356800 0.773825 0.197550
0.516080 0.768442 0.190776
0.675361 0.763059 0.184001
0.834641 0.757676 0.177227
0.993922 0.752293 0.170452
1.000000 0.750583 0.168167
0.000000 0.922947 0.196444
0.024856 0.917990 0.190206
0.184136 0.912607 0.183432
0.343417 0.907224 0.176657
0.502697 0.901841 0.169883
0.661978 0.896458 0.163108
0.821258 0.891075 0.156334
0.980539 0.885692 0.149560
1.000000 0.884153 0.147445
0.000000 1.000000 0.176056
0.012034 1.000000 0.169875
0.171377 1.000000 0.163163
0.330720 1.000000 0.156451
0.490063 1.000000 0.149739
0.649405 1.000000 0.143026
0.808748 1.000000 0.136314
0.968091 1.000000 0.129602
1.000000 1.000000 0.127684
0.000000 0.000000 0.480379
0.126603 0.000000 0.474564
0.285277 0.000000 0.467704
0.443951 0.000000 0.460845
0.602624 0.000000 0.453986
0.761298 0.000000 0.447126
0.919972 0.000000 0.440267
1.000000 0.000000 0.433407
1.000000 0.000000 0.430573
0.000000 0.126308 0.459319
0.111349 0.121359 0.453409
0.270023 0.115543 0.446550
0.428696 0.109727 0.439691
0.587370 0.103911 0.432831
0.746044 0.098096 0.425972
0.904718 0.092280 0.419112
1.000000 0.086464 0.412253
1.000000 0.084060 0.409418
0.000000 0.258466 0.438259
0.096094 0.253423 0.432255
0.254768 0.247607 0.425395
0.413442 0.241791 0.418536
0.572116 0.235975 0.411676
0.730790 0.230159 0.404817
0.889463 0.224343 0.397958
1.000000 0.218528 0.391098
1.000000 0.216124 0.388263
0.000000 0.390625 0.417200
0.080840 0.385486 0.411100
0.239514 0.379671 0.404241
0.398188 0.373855 0.397381
0.556862 0.368039 0.390522
0.715535 0.362223 0.383662
0.874209 0.356407 0.376803
1.000000 0.350591 0.369943
1.000000 0.348340 0.367152
0.000000 0.522784 0.396140
0.065586 0.517550 0.389945
0.224260 0.511734 0.383086
0.382933 0.505918 0.376226
0.541607 0.500103 0.369367
0.700877 0.494712 0.362591
0.860158 0.489329 0.355817
1.000000 0.483946 0.349042
1.000000 0.481910 0.346431
0.000000 0.654943 0.375080
0.050372 0.649643 0.368796
0.209652 0.644260 0.362022
0.368933 0.638877 0.355247
0.528214 0.633494 0.348473
0.687494 0.628110 0.341698
0.846775 0.622727 0.334924
1.000000 0.617344 0.328150
1.000000 0.615479 0.325709
0.000000 0.787998 0.354141
0.036989 0.783041 0.347904
0.196269 0.777658 0.341129
0.355550 0.772275 0.334355
0.514831 0.766892 0.327580
0.674111 0.761509 0.320806
0.833392 0.756126 0.314031
0.992672 0.750743 0.307257
1.000000 0.749049 0.304988
0.000000 0.921396 0.333249
0.023606 0.916440 0.327011
0.182886 0.911057 0.320237
0.342167 0.905674 0.313462
0.501448 0.900291 0.306688
0.660728 0.894908 0.299913
0.820009 0.889525 0.293139
0.979289 0.884142 0.286364
1.000000 0.882619 0.284266
0.000000 1.000000 0.312879
0.010802 1.000000 0.306698
0.170145 1.000000 0.299986
0.329488 1.000000 0.293273
0.488831 1.000000 0.286561
0.648173 1.000000 0.279849
0.807516 1.000000 0.273137
0.966859 1.000000 0.266425
1.000000 1.000000 0.264523
0.000000 0.000000 0.615143
0.125200 0.000000 0.609320
0.283873 0.000000 0.602460
0.442547 0.000000 0.595601
0.601221 0.000000 0.588742
0.759895 0.000000 0.581882
0.918568 0.000000 0.575023
1.000000 0.000000 0.568163
1.000000 0.000000 0.565328
0.000000 0.124666 0.594084
0.109945 0.119709 0.588165
0.268619 0.113893 0.581306
0.427293 0.108077 0.574446
0.585967 0.102261 0.567587
0.744640 0.096445 0.560728
0.903314 0.090630 0.553868
1.000000 0.084814 0.547009
1.000000 0.082410 0.544174
0.000000 0.256825 0.573024
0.094691 0.251773 0.567011
0.253365 0.245957 0.560151
0.412039 0.240141 0.553292
0.570712 0.234325 0.546432
0.729386 0.228509 0.539573
0.888060 0.222693 0.532713
1.000000 0.216877 0.525854
1.000000 0.214474 0.523019
0.000000 0.388984 0.551964
0.079437 0.383836 0.545856
0.238111 0.378020 0.538996
0.396784 0.372205 0.532137
0.555458 0.366389 0.525278
0.714132 0.360573 0.518418
0.872806 0.354757 0.511559
1.000000 0.349020 0.504715
1.000000 0.346828 0.501948
0.000000 0.521143 0.530905
0.064182 0.515900 0.524701
0.222856 0.510084 0.517842
0.381530 0.504268 0.510982
0.540365 0.498568 0.504146
0.699646 0.493185 0.497371
0.858926 0.487802 0.490597
1.000000 0.482419 0.483822
1.000000 0.480398 0.481227
0.000000 0.653301 0.509845
0.049141 0.648115 0.503576
0.208421 0.642732 0.496802
0.367702 0.637349 0.490027
0.526982 0.631966 0.483253
0.686263 0.626583 0.476479
0.845543 0.621200 0.469704
1.000000 0.615817 0.462930
1.000000 0.613968 0.460505
0.000000 0.786470 0.488921
0.035758 0.781514 0.482684
0.195038 0.776131 0.475909
0.354319 0.770748 0.469135
0.513599 0.765365 0.462360
0.672880 0.759982 0.455586
0.832160 0.754599 0.448811
0.991441 0.749216 0.442037
1.000000 0.747537 0.439784
0.000000 0.919869 0.468029
0.022375 0.914912 0.461791
0.181655 0.909529 0.455017
0.340936 0.904146 0.448242
0.500216 0.898763 0.441468
0.659497 0.893380 0.434693
0.818777 0.887997 0.427919
0.978058 0.882614 0.421144
1.000000 0.881107 0.419062
0.000000 1.000000 0.447676
0.009589 1.000000 0.441496
0.168932 1.000000 0.434783
0.328274 1.000000 0.428071
0.487617 1.000000 0.421359
0.646960 1.000000 0.414647
0.806303 1.000000 0.407934
0.965645 1.000000 0.401222
1.000000 1.000000 0.399337
0.000000 0.000000 0.748391
0.123812 0.000000 0.742559
0.282486 0.000000 0.735700
0.441159 0.000000 0.728840
0.599833 0.000000 0.721981
0.758507 0.000000 0.715121
0.917181 0.000000 0.708262
1.000000 0.000000 0.701402
1.000000 0.000000 0.698568
0.000000 0.123043 0.727332
0.108558 0.118077 0.721404
0.267232 0.112261 0.714545
0.425905 0.106446 0.707686
0.584579 0.100630 0.700826
0.743253 0.094814 0.693967
0.901927 0.088998 0.687107
1.000000 0.083182 0.680248
1.000000 0.080779 0.677413
0.000000 0.255202 0.706272
0.093303 0.250141 0.700250
0.251977 0.244325 0.693390
0.410651 0.238509 0.686531
0.569325 0.232693 0.679671
0.727999 0.226878 0.672812
0.886672 0.221062 0.665953
1.000000 0.215246 0.659093
1.000000 0.212842 0.656258
0.000000 0.387361 0.685212
0.078049 0.382205 0.679095
0.236723 0.376389 0.672236
0.395397 0.370573 0.665376
0.554070 0.364757 0.658517
0.712744 0.358941 0.651657
0.871418 0.353125 0.644798
1.000000 0.347510 0.637978
1.000000 0.345334 0.635227
0.000000 0.519520 0.664152
0.062795 0.514268 0.657940
0.221469 0.508453 0.651081
0.380142 0.502637 0.644222
0.539148 0.497057 0.637409
0.698428 0.491674 0.630634
0.857709 0.486291 0.623860
1.000000 0.480908 0.617085
1.000000 0.478903 0.614505
0.000000 0.651678 0.643093
0.047923 0.646605 0.636839
0.207204 0.641222 0.630065
0.366484 0.635839 0.623290
0.525765 0.630456 0.616516
0.685045 0.625073 0.609741
0.844326 0.619690 0.602967
1.000000 0.614307 0.596193
1.000000 0.612473 0.593784
0.000000 0.784960 0.622184
0.034540 0.780004 0.615947
0.193821 0.774621 0.609172
0.353101 0.769238 0.602398
0.512382 0.763855 0.595623
0.671662 0.758472 0.588849
0.830943 0.753089 0.582074
0.990224 0.747706 0.575300
1.000000 0.746043 0.573062
0.000000 0.918359 0.601292
0.021157 0.913402 0.595054
0.180438 0.908019 0.588280
0.339718 0.902636 0.581505
0.498999 0.897253 0.574731
0.658279 0.891870 0.567956
0.817560 0.886487 0.561182
0.976841 0.881104 0.554407
1.000000 0.879612 0.552341
0.000000 1.000000 0.580957
0.008389 1.000000 0.574776
0.167732 1.000000 0.568064
0.327074 1.000000 0.561352
0.486417 1.000000 0.554639
0.645760 1.000000 0.547927
0.805103 1.000000 0.541215
0.964445 1.000000 0.534503
1.000000 1.000000 0.532633
0.000000 0.000000 0.880428
0.122437 0.000000 0.874587
0.281111 0.000000 0.867728
0.439784 0.000000 0.860868
0.598458 0.000000 0.854009
0.757132 0.000000 0.847149
0.915806 0.000000 0.840290
1.000000 0.000000 0.833430
1.000000 0.000000 0.830596
0.000000 0.121435 0.859368
0.107183 0.116461 0.853432
0.265857 0.110645 0.846573
0.424530 0.104829 0.839714
0.583204 0.099013 0.832854
0.741878 0.093197 0.825995
0.900552 0.087381 0.819135
1.000000 0.081565 0.812276
1.000000 0.079162 0.809441
0.000000 0.253594 0.838308
0.091928 0.248524 0.832278
0.250602 0.242708 0.825418
0.409276 0.236892 0.818559
0.567950 0.231077 0.811699
0.726624 0.225261 0.804840
0.885297 0.219445 0.797981
1.000000 0.213629 0.791121
1.000000 0.211226 0.788286
0.000000 0.385753 0.817249
0.076674 0.380588 0.811123
0.235348 0.374772 0.804264
0.394022 0.368956 0.797404
0.552695 0.363140 0.790545
0.711369 0.357324 0.783685
0.870043 0.351509 0.776826
1.000000 0.346013 0.770029
1.000000 0.343853 0.767294
0.000000 0.517911 0.796189
0.061420 0.512652 0.789968
0.220094 0.506836 0.783109
0.378767 0.501020 0.776249
0.537942 0.495561 0.769460
0.697222 0.490178 0.762686
0.856503 0.484795 0.755911
1.000000 0.479412 0.749137
1.000000 0.477422 0.746572
0.000000 0.650070 0.775129
0.046717 0.645109 0.768891
0.205997 0.639726 0.762116
0.365278 0.634343 0.755342
0.524559 0.628960 0.748568
0.683839 0.623577 0.741793
0.843120 0.618194 0.735019
1.000000 0.612811 0.728244
1.000000 0.610992 0.725851
0.000000 0.783464 0.754236
0.033334 0.778507 0.747998
0.192614 0.773124 0.741224
0.351895 0.767741 0.734449
0.511176 0.762358 0.727675
0.670456 0.756975 0.720900
0.829737 0.751592 0.714126
0.989017 0.746209 0.707352
1.000000 0.744562 0.705129
0.000000 0.916862 0.733343
0.019951 0.911906 0.727106
0.179231 0.906523 0.720331
0.338512 0.901140 0.713557
0.497793 0.895757 0.706782
0.657073 0.890374 0.700008
0.816354 0.884991 0.693233
0.975634 0.879608 0.686459
1.000000 0.878131 0.684408
0.000000 1.000000 0.713026
0.007200 1.000000 0.706845
0.166543 1.000000 0.700133
0.325885 1.000000 0.693421
0.485228 1.000000 0.686708
0.644571 1.000000 0.679996
0.803914 1.000000 0.673284
0.963256 1.000000 0.666572
1.000000 1.000000 0.664717
0.000000 0.000000 1.000000
0.121072 0.000000 1.000000
0.279746 0.000000 0.998749
0.438420 0.000000 0.991889
0.597094 0.000000 0.985030
0.755768 0.000000 0.978170
0.914441 0.000000 0.971311
1.000000 0.000000 0.964451
1.000000 0.000000 0.961617
0.000000 0.119839 0.990398
0.105818 0.114856 0.984453
0.264492 0.109040 0.977594
0.423166 0.103224 0.970735
0.581840 0.097409 0.963875
0.740513 0.091593 0.957016
0.899187 0.085777 0.950156
1.000000 0.079961 0.943297
1.000000 0.077557 0.940462
0.000000 0.251998 0.969338
0.090564 0.246920 0.963299
0.249238 0.241104 0.956439
0.407911 0.235288 0.949580
0.566585 0.229472 0.942720
0.725259 0.223656 0.935861
0.883933 0.217840 0.929002
1.000000 0.212025 0.922142
1.000000 0.209621 0.919307
0.000000 0.384157 0.948278
0.075310 0.378983 0.942144
0.233983 0.373168 0.935285
0.392657 0.367352 0.928425
0.551331 0.361536 0.921566
0.710005 0.355720 0.914706
0.868689 0.349911 0.907848
1.000000 0.344528 0.901074
1.000000 0.342383 0.898353
0.000000 0.516315 0.927219
0.060055 0.511047 0.920989
0.218729 0.505231 0.914130
0.377464 0.499459 0.907279
0.536744 0.494076 0.900505
0.696025 0.488693 0.893730
0.855306 0.483310 0.886956
1.000000 0.477927 0.880181
1.000000 0.475953 0.877632
0.000000 0.648580 0.906173
0.045520 0.643624 0.899935
0.204800 0.638241 0.893161
0.364081 0.632858 0.886386
0.523361 0.627475 0.879612
0.682642 0.622092 0.872838
0.841923 0.616709 0.866063
1.000000 0.611325 0.859289
1.000000 0.609522 0.856910
0.000000 0.781979 0.885281
0.032137 0.777022 0.879043
0.191417 0.771639 0.872268
0.350698 0.766256 0.865494
0.509978 0.760873 0.858719
0.669259 0.755490 0.851945
0.828540 0.750107 0.845171
0.987820 0.744724 0.838396
1.000000 0.743092 0.836189
0.000000 0.915377 0.864388
0.018754 0.910421 0.858150
0.178034 0.905038 0.851376
0.337315 0.899655 0.844601
0.496595 0.894272 0.837827
0.655876 0.888889 0.831052
0.815157 0.883506 0.824278
0.974437 0.878123 0.817503
1.000000 0.876662 0.815467
0.000000 1.000000 0.844087
0.006020 1.000000 0.837907
0.165363 1.000000 0.831194
0.324705 1.000000 0.824482
0.484048 1.000000 0.817770
0.643391 1.000000 0.811058
0.802734 1.000000 0.804345
0.962076 1.000000 0.797633
1.000000 1.000000 0.795794
0.000000 0.000000 1.000000
0.119717 0.000000 1.000000
0.278391 0.000000 1.000000
0.437064 0.000000 1.000000
0.595738 0.000000 1.000000
0.754412 0.000000 1.000000
0.913086 0.000000 1.000000
1.000000 0.000000 1.000000
1.000000 0.000000 1.000000
0.000000 0.118254 1.000000
0.104463 0.113262 1.000000
0.263136 0.107446 1.000000
0.421810 0.101630 1.000000
0.580484 0.095815 1.000000
0.739158 0.089999 1.000000
0.897832 0.084183 1.000000
1.000000 0.078367 1.000000
1.000000 0.075964 1.000000
0.000000 0.250413 1.000000
0.089208 0.245326 1.000000
0.247882 0.239510 1.000000
0.406556 0.233694 1.000000
0.565230 0.227878 1.000000
0.723903 0.222062 1.000000
0.882577 0.216247 1.000000
1.000000 0.210431 1.000000
1.000000 0.208027 1.000000
0.000000 0.382571 1.000000
0.073954 0.377390 1.000000
0.232628 0.371574 1.000000
0.391302 0.365758 1.000000
0.549975 0.359942 1.000000
0.708649 0.354126 1.000000
0.867499 0.348436 1.000000
1.000000 0.343053 1.000000
1.000000 0.340923 1.000000
0.000000 0.514730 1.000000
0.058700 0.509453 1.000000
0.217374 0.503637 1.000000
0.376275 0.497984 1.000000
0.535555 0.492601 1.000000
0.694836 0.487218 1.000000
0.854116 0.481835 1.000000
1.000000 0.476452 1.000000
1.000000 0.474493 1.000000
0.000000 0.647105 1.000000
0.044330 0.642148 1.000000
0.203611 0.636765 1.000000
0.362892 0.631382 1.000000
0.522172 0.625999 1.000000
0.681453 0.620616 1.000000
0.840733 0.615233 0.996247
1.000000 0.609850 0.989472
1.000000 0.608062 0.987109
0.000000 0.780504 1.000000
0.030947 0.775547 1.000000
0.190228 0.770164 1.000000
0.349509 0.764781 0.995677
0.508789 0.759398 0.988903
0.668070 0.754015 0.982128
0.827350 0.748632 0.975354
0.986631 0.743249 0.968580
1.000000 0.741632 0.966388
0.000000 0.913902 0.994571
0.017564 0.908946 0.988334
0.176845 0.903563 0.981559
0.336126 0.898179 0.974785
0.495406 0.892796 0.968010
0.654687 0.887413 0.961236
0.813967 0.882030 0.954461
0.973248 0.876647 0.947687
1.000000 0.875202 0.945666
0.000000 1.000000 0.974288
0.004848 1.000000 0.968107
0.164190 1.000000 0.961395
0.323533 1.000000 0.954683
0.482876 1.000000 0.947970
0.642219 1.000000 0.941258
0.801561 1.000000 0.934546
0.960904 1.000000 0.927834
1.000000 1.000000 0.926009
