assets/preview/luts/vibrant_pop.cube
TITLE "Vibrant Pop"
LUT_3D_SIZE 33
DOMAIN_MIN 0.0 0.0 0.0
DOMAIN_MAX 1.0 1.0 1.0
0.000001 0.000001 0.000001
0.000001 0.000001 0.000001
0.000001 0.000001 0.000001
0.026732 0.000001 0.000001
0.073289 0.000001 0.000001
0.120188 0.000001 0.000001
0.167403 0.000001 0.000001
0.214903 0.000001 0.000001
0.262660 0.000001 0.000001
0.310646 0.000001 0.000001
0.358832 0.000001 0.000001
0.407190 0.000001 0.000001
0.455691 0.000001 0.000001
0.504306 0.000001 0.000001
0.553006 0.000001 0.000001
0.601764 0.000001 0.000001
0.650551 0.000001 0.000001
0.699337 0.000001 0.000001
0.748095 0.000001 0.000001
0.796796 0.000001 0.000001
0.845411 0.000001 0.000001
0.893912 0.000001 0.000001
0.942270 0.000001 0.000001
0.990456 0.000001 0.000001
1.000000 0.000001 0.000001
1.000000 0.000001 0.000001
1.000000 0.000001 0.000001
1.000000 0.000001 0.000001
1.000000 0.000001 0.000001
1.000000 0.000001 0.000001
1.000000 0.000001 0.000001
1.000000 0.000001 0.000001
1.000000 0.000001 0.000001
0.000001 0.000001 0.000001
0.000001 0.000001 0.000001
0.000001 0.000001 0.000001
0.026732 0.000001 0.000001
0.073289 0.000001 0.000001
0.120188 0.000001 0.000001
0.167403 0.000001 0.000001
0.214903 0.000001 0.000001
0.262660 0.000001 0.000001
0.310646 0.000001 0.000001
0.358832 0.000001 0.000001
0.407190 0.000001 0.000001
0.455691 0.000001 0.000001
0.504306 0.000001 0.000001
0.553006 0.000001 0.000001
0.601764 0.000001 0.000001
0.650551 0.000001 0.000001
0.699337 0.000001 0.000001
0.748095 0.000001 0.000001
0.796796 0.000001 0.000001
0.845411 0.000001 0.000001
0.893912 0.000001 0.000001
0.942270 0.000001 0.000001
0.990456 0.000001 0.000001
1.000000 0.000001 0.000001
1.000000 0.000001 0.000001
1.000000 0.000001 0.000001
1.000000 0.000001 0.000001
1.000000 0.000001 0.000001
1.000000 0.000001 0.000001
1.000000 0.000001 0.000001
1.000000 0.000001 0.000001
1.000000 0.000001 0.000001
0.000001 0.000001 0.000001
0.000001 0.000001 0.000001
0.000001 0.000001 0.000001
0.026732 0.000001 0.000001
0.073289 0.000001 0.000001
0.120188 0.000001 0.000001
0.167403 0.000001 0.000001
0.214903 0.000001 0.000001
0.262660 0.000001 0.000001
0.310646 0.000001 0.000001
0.358832 0.000001 0.000001
0.407190 0.000001 0.000001
0.455691 0.000001 0.000001
0.504306 0.000001 0.000001
0.553006 0.000001 0.000001
0.601764 0.000001 0.000001
0.650551 0.000001 0.000001
0.699337 0.000001 0.000001
0.748095 0.000001 0.000001
0.796796 0.000001 0.000001
0.845411 0.000001 0.000001
0.893912 0.000001 0.000001
0.942270 0.000001 0.000001
0.990456 0.000001 0.000001
1.000000 0.000001 0.000001
1.000000 0.000001 0.000001
1.000000 0.000001 0.000001
1.000000 0.000001 0.000001
1.000000 0.000001 0.000001
1.000000 0.000001 0.000001
1.000000 0.000001 0.000001
1.000000 0.000001 0.000001
1.000000 0.000001 0.000001
0.000001 0.023046 0.000001
0.000001 0.023046 0.000001
0.000001 0.023046 0.000001
0.021486 0.021486 0.000001
0.068043 0.018770 0.000001
0.114942 0.016034 0.000001
0.162157 0.013280 0.000001
0.209657 0.010509 0.000001
0.257414 0.007724 0.000001
0.305400 0.004924 0.000001
0.353586 0.002113 0.000001
0.401944 0.000001 0.000001
0.450445 0.000001 0.000001
0.499060 0.000001 0.000001
0.547761 0.000001 0.000001
0.596518 0.000001 0.000001
0.645305 0.000001 0.000001
0.694092 0.000001 0.000001
0.742850 0.000001 0.000001
0.791550 0.000001 0.000001
0.840165 0.000001 0.000001
0.888666 0.000001 0.000001
0.937024 0.000001 0.000001
0.985210 0.000001 0.000001
1.000000 0.000001 0.000001
1.000000 0.000001 0.000001
1.000000 0.000001 0.000001
1.000000 0.000001 0.000001
1.000000 0.000001 0.000001
1.000000 0.000001 0.000001
1.000000 0.000001 0.000001
1.000000 0.000001 0.000001
1.000000 0.000001 0.000001
0.000001 0.063182 0.000001
0.000001 0.063182 0.000001
0.000001 0.063182 0.000001
0.012350 0.061622 0.000001
0.058907 0.058907 0.000001
0.105806 0.056171 0.000001
0.153020 0.053417 0.000001
0.200521 0.050646 0.000001
0.248278 0.047860 0.000001
0.296264 0.045061 0.000001
0.344450 0.042250 0.000001
0.392808 0.039429 0.000001
0.441309 0.036600 0.000001
0.489924 0.033764 0.000001
0.538624 0.030923 0.000001
0.587382 0.028079 0.000001
0.636169 0.025233 0.000001
0.684955 0.022387 0.000001
0.733713 0.019543 0.000001
0.782414 0.016702 0.000001
0.831029 0.013866 0.000001
0.879530 0.011037 0.000001
0.927888 0.008216 0.000001
0.976074 0.005405 0.000001
1.000000 0.002606 0.000001
1.000000 0.000001 0.000001
1.000000 0.000001 0.000001
1.000000 0.000001 0.000001
1.000000 0.000001 0.000001
1.000000 0.000001 0.000001
1.000000 0.000001 0.000001
1.000000 0.000001 0.000001
1.000000 0.000001 0.000001
0.000001 0.103614 0.000001
0.000001 0.103614 0.000001
0.000001 0.103614 0.000001
0.003146 0.102054 0.000001
0.049703 0.099339 0.000001
0.096603 0.096603 0.000001
0.143817 0.093849 0.000001
0.191317 0.091078 0.000001
0.239074 0.088292 0.000001
0.287060 0.085493 0.000001
0.335247 0.082682 0.000001
0.383604 0.079861 0.000001
0.432105 0.077032 0.000001
0.480720 0.074196 0.000001
0.529421 0.071355 0.000001
0.578179 0.068511 0.000001
0.626965 0.065665 0.000001
0.675752 0.062819 0.000001
0.724510 0.059975 0.000001
0.773211 0.057134 0.000001
0.821826 0.054298 0.000001
0.870326 0.051469 0.000001
0.918684 0.048648 0.000001
0.966870 0.045837 0.000001
1.000000 0.043038 0.000001
1.000000 0.040252 0.000001
1.000000 0.037481 0.000001
1.000000 0.034727 0.000001
1.000000 0.031991 0.000001
1.000000 0.029275 0.000001
1.000000 0.027716 0.000001
1.000000 0.027716 0.000001
1.000000 0.027716 0.000001
0.000001 0.144317 0.000001
0.000001 0.144317 0.000001
0.000001 0.144317 0.000001
0.000001 0.142758 0.000001
0.040438 0.140042 0.000001
0.087337 0.137306 0.000001
0.134552 0.134552 0.000001
0.182052 0.131781 0.000001
0.229809 0.128995 0.000001
0.277795 0.126196 0.000001
0.325981 0.123385 0.000001
0.374339 0.120564 0.000001
0.422840 0.117735 0.000001
0.471455 0.114899 0.000001
0.520156 0.112058 0.000001
0.568914 0.109214 0.000001
0.617700 0.106368 0.000001
0.666487 0.103522 0.000001
0.715245 0.100678 0.000001
0.763945 0.097837 0.000001
0.812560 0.095001 0.000001
0.861061 0.092172 0.000001
0.909419 0.089351 0.000001
0.957605 0.086540 0.000001
1.000000 0.083741 0.000001
1.000000 0.080955 0.000001
1.000000 0.078184 0.000001
1.000000 0.075430 0.000001
1.000000 0.072694 0.000001
1.000000 0.069978 0.000001
1.000000 0.068419 0.000001
1.000000 0.068419 0.000001
1.000000 0.068419 0.000001
0.000001 0.185266 0.000001
0.000001 0.185266 0.000001
0.000001 0.185266 0.000001
0.000001 0.183707 0.000001
0.031116 0.180991 0.000001
0.078016 0.178255 0.000001
0.125230 0.175501 0.000001
0.172730 0.172730 0.000001
0.220488 0.169945 0.000001
0.268474 0.167145 0.000001
0.316660 0.164334 0.000001
0.365018 0.161514 0.000001
0.413518 0.158684 0.000001
0.462133 0.155848 0.000001
0.510834 0.153008 0.000001
0.559592 0.150163 0.000001
0.608379 0.147317 0.000001
0.657165 0.144471 0.000001
0.705923 0.141627 0.000001
0.754624 0.138786 0.000001
0.803239 0.135950 0.000001
0.851740 0.133121 0.000001
0.900097 0.130300 0.000001
0.948284 0.127489 0.000001
0.996270 0.124690 0.000001
1.000000 0.121904 0.000001
1.000000 0.119133 0.000001
1.000000 0.116379 0.000001
1.000000 0.113643 0.000001
1.000000 0.110928 0.000001
1.000000 0.109368 0.000001
1.000000 0.109368 0.000001
1.000000 0.109368 0.000001
0.000001 0.226438 0.000001
0.000001 0.226438 0.000001
0.000001 0.226438 0.000001
0.000001 0.224878 0.000001
0.021745 0.222163 0.000001
0.068644 0.219427 0.000001
0.115858 0.216673 0.000001
0.163359 0.213902 0.000001
0.211116 0.211116 0.000001
0.259102 0.208317 0.000001
0.307288 0.205506 0.000001
0.355646 0.202685 0.000001
0.404147 0.199856 0.000001
0.452762 0.197020 0.000001
0.501462 0.194179 0.000001
0.550220 0.191335 0.000001
0.599007 0.188489 0.000001
0.647793 0.185643 0.000001
0.696551 0.182799 0.000001
0.745252 0.179958 0.000001
0.793867 0.177122 0.000001
0.842368 0.174293 0.000001
0.890726 0.171472 0.000001
0.938912 0.168661 0.000001
0.986898 0.165862 0.000001
1.000000 0.163076 0.000001
1.000000 0.160305 0.000001
1.000000 0.157551 0.000001
1.000000 0.154815 0.000001
1.000000 0.152099 0.000001
1.000000 0.150540 0.000001
1.000000 0.150540 0.000001
1.000000 0.150540 0.000001
0.000001 0.267806 0.000001
0.000001 0.267806 0.000001
0.000001 0.267806 0.000001
0.000001 0.266247 0.000001
0.012328 0.263531 0.000001
0.059228 0.260795 0.000001
0.106442 0.258041 0.000001
0.153942 0.255270 0.000001
0.201699 0.252484 0.000001
0.249685 0.249685 0.000001
0.297871 0.246874 0.000001
0.346229 0.244053 0.000001
0.394730 0.241224 0.000001
0.443345 0.238388 0.000001
0.492046 0.235547 0.000001
0.540804 0.232703 0.000001
0.589590 0.229857 0.000001
0.638377 0.227011 0.000001
0.687135 0.224167 0.000001
0.735835 0.221326 0.000001
0.784450 0.218490 0.000001
0.832951 0.215661 0.000001
0.881309 0.212840 0.000001
0.929495 0.210029 0.000001
0.977481 0.207230 0.000001
1.000000 0.204444 0.000001
1.000000 0.201673 0.000001
1.000000 0.198919 0.000001
1.000000 0.196183 0.000001
1.000000 0.193468 0.000001
1.000000 0.191908 0.000001
1.000000 0.191908 0.000001
1.000000 0.191908 0.000001
0.000001 0.309348 0.000001
0.000001 0.309348 0.000001
0.000001 0.309348 0.000001
0.000001 0.307788 0.000001
0.002872 0.305072 0.000001
0.049772 0.302336 0.000001
0.096986 0.299582 0.000001
0.144486 0.296811 0.000001
0.192243 0.294026 0.000001
0.240229 0.291226 0.000001
0.288415 0.288415 0.000001
0.336773 0.285595 0.000001
0.385274 0.282765 0.000001
0.433889 0.279929 0.000001
0.482590 0.277089 0.000001
0.531348 0.274244 0.000001
0.580134 0.271398 0.000001
0.628921 0.268552 0.000001
0.677679 0.265708 0.000001
0.726379 0.262867 0.000001
0.774994 0.260031 0.000001
0.823495 0.257202 0.000001
0.871853 0.254381 0.000001
0.920039 0.251570 0.000001
0.968025 0.248771 0.000001
1.000000 0.245985 0.000001
1.000000 0.243215 0.000001
1.000000 0.240460 0.000001
1.000000 0.237725 0.000001
1.000000 0.235009 0.000001
1.000000 0.233449 0.000001
1.000000 0.233449 0.000001
1.000000 0.233449 0.000001
0.000001 0.351036 0.000001
0.000001 0.351036 0.000001
0.000001 0.351036 0.000001
0.000001 0.349477 0.000001
0.000001 0.346761 0.000001
0.040282 0.344025 0.000001
0.087496 0.341271 0.000001
0.134996 0.338500 0.000001
0.182754 0.335715 0.000001
0.230740 0.332915 0.000001
0.278926 0.330104 0.000001
0.327284 0.327284 0.000001
0.375784 0.324454 0.000001
0.424399 0.321618 0.000001
0.473100 0.318778 0.000001
0.521858 0.315933 0.000001
0.570645 0.313087 0.000001
0.619431 0.310241 0.000001
0.668189 0.307397 0.000001
0.716890 0.304556 0.000001
0.765505 0.301720 0.000001
0.814006 0.298891 0.000001
0.862363 0.296070 0.000001
0.910549 0.293259 0.000001
0.958535 0.290460 0.000001
1.000000 0.287674 0.000001
1.000000 0.284903 0.000001
1.000000 0.282149 0.000001
1.000000 0.279413 0.000001
1.000000 0.276698 0.000001
1.000000 0.275138 0.000001
1.000000 0.275138 0.000001
1.000000 0.275138 0.000001
0.000001 0.392849 0.000001
0.000001 0.392849 0.000001
0.000001 0.392849 0.000001
0.000001 0.391289 0.000001
0.000001 0.388573 0.000001
0.030764 0.385838 0.000001
0.077978 0.383083 0.000001
0.125478 0.380313 0.000001
0.173236 0.377527 0.000001
0.221222 0.374727 0.000001
0.269408 0.371917 0.000001
0.317766 0.369096 0.000001
0.366266 0.366266 0.000001
0.414882 0.363431 0.000001
0.463582 0.360590 0.000001
0.512340 0.357745 0.000001
0.561127 0.354900 0.000001
0.609913 0.352054 0.000001
0.658671 0.349209 0.000001
0.707372 0.346369 0.000001
0.755987 0.343533 0.000001
0.804488 0.340703 0.000001
0.852846 0.337882 0.000001
0.901032 0.335072 0.000001
0.949018 0.332272 0.000001
0.996775 0.329487 0.000001
1.000000 0.326716 0.000001
1.000000 0.323961 0.000001
1.000000 0.321226 0.000001
1.000000 0.318510 0.000001
1.000000 0.316950 0.000001
1.000000 0.316950 0.000001
1.000000 0.316950 0.000001
0.000001 0.434759 0.000001
0.000001 0.434759 0.000001
0.000001 0.434759 0.000001
0.000001 0.433200 0.000001
0.000001 0.430484 0.000001
0.021224 0.427748 0.000001
0.068438 0.424994 0.000001
0.115938 0.422223 0.000001
0.163696 0.419437 0.000001
0.211682 0.416638 0.000001
0.259868 0.413827 0.000001
0.308226 0.411006 0.000001
0.356726 0.408177 0.000001
0.405341 0.405341 0.000001
0.454042 0.402500 0.000001
0.502800 0.399656 0.000001
0.551587 0.396810 0.000001
0.600373 0.393964 0.000001
0.649131 0.391120 0.000001
0.697832 0.388279 0.000001
0.746447 0.385443 0.000001
0.794948 0.382614 0.000001
0.843305 0.379793 0.000001
0.891492 0.376982 0.000001
0.939478 0.374183 0.000001
0.987235 0.371397 0.000001
1.000000 0.368626 0.000001
1.000000 0.365872 0.000001
1.000000 0.363136 0.000001
1.000000 0.360421 0.000001
1.000000 0.358861 0.000001
1.000000 0.358861 0.000001
1.000000 0.358861 0.000001
0.000001 0.476744 0.000001
0.000001 0.476744 0.000001
0.000001 0.476744 0.000001
0.000001 0.475185 0.000001
0.000001 0.472469 0.000001
0.011667 0.469733 0.000001
0.058881 0.466979 0.000001
0.106381 0.464208 0.000001
0.154139 0.461422 0.000001
0.202125 0.458623 0.000001
0.250311 0.455812 0.000001
0.298669 0.452991 0.000001
0.347169 0.450162 0.000001
0.395784 0.447326 0.000001
0.444485 0.444485 0.000001
0.493243 0.441641 0.000001
0.542030 0.438795 0.000001
0.590816 0.435949 0.000001
0.639574 0.433105 0.000001
0.688275 0.430264 0.000001
0.736890 0.427428 0.000001
0.785391 0.424599 0.000001
0.833748 0.421778 0.000001
0.881935 0.418967 0.000001
0.929921 0.416168 0.000001
0.977678 0.413382 0.000001
1.000000 0.410611 0.000001
1.000000 0.407857 0.000001
1.000000 0.405121 0.000001
1.000000 0.402405 0.000001
1.000000 0.400846 0.000001
1.000000 0.400846 0.000001
1.000000 0.400846 0.000001
0.000001 0.518778 0.000001
0.000001 0.518778 0.000001
0.000001 0.518778 0.000001
0.000001 0.517219 0.000001
0.000001 0.514503 0.000001
0.002099 0.511767 0.000001
0.049313 0.509013 0.000001
0.096813 0.506242 0.000001
0.144571 0.503456 0.000001
0.192557 0.500657 0.000001
0.240743 0.497846 0.000001
0.289101 0.495025 0.000001
0.337601 0.492196 0.000001
0.386216 0.489360 0.000001
0.434917 0.486519 0.000001
0.483675 0.483675 0.000001
0.532462 0.480829 0.000001
0.581248 0.477983 0.000001
0.630006 0.475139 0.000001
0.678707 0.472298 0.000001
0.727322 0.469462 0.000001
0.775822 0.466633 0.000001
0.824180 0.463812 0.000001
0.872366 0.461001 0.000001
0.920352 0.458202 0.000001
0.968110 0.455416 0.000001
1.000000 0.452645 0.000001
1.000000 0.449891 0.000001
1.000000 0.447155 0.000001
1.000000 0.444439 0.000001
1.000000 0.442880 0.000001
1.000000 0.442880 0.000001
1.000000 0.442880 0.000001
0.000001 0.560837 0.000001
0.000001 0.560837 0.000001
0.000001 0.560837 0.000001
0.000001 0.559277 0.000001
0.000001 0.556562 0.000001
0.000001 0.553826 0.000001
0.039739 0.551072 0.000001
0.087239 0.548301 0.000001
0.134997 0.545515 0.000001
0.182983 0.542716 0.000001
0.231169 0.539905 0.000001
0.279527 0.537084 0.000001
0.328027 0.534255 0.000001
0.376642 0.531419 0.000001
0.425343 0.528578 0.000001
0.474101 0.525734 0.000001
0.522888 0.522888 0.000001
0.571674 0.520042 0.000001
0.620432 0.517198 0.000001
0.669133 0.514357 0.000001
0.717748 0.511521 0.000001
0.766249 0.508692 0.000001
0.814606 0.505871 0.000001
0.862793 0.503060 0.000001
0.910779 0.500261 0.000001
0.958536 0.497475 0.000001
1.000000 0.494704 0.000001
1.000000 0.491950 0.000001
1.000000 0.489214 0.000001
1.000000 0.486498 0.000001
1.000000 0.484939 0.000001
1.000000 0.484939 0.000001
1.000000 0.484939 0.000001
0.000001 0.602895 0.000001
0.000001 0.602895 0.000001
0.000001 0.602895 0.000001
0.000001 0.601336 0.000001
0.000001 0.598620 0.000001
0.000001 0.595884 0.000001
0.030165 0.593130 0.000001
0.077666 0.590359 0.000001
0.125423 0.587574 0.000001
0.173409 0.584774 0.000001
0.221595 0.581963 0.000001
0.269953 0.579143 0.000001
0.318454 0.576313 0.000001
0.367069 0.573477 0.000001
0.415769 0.570636 0.000001
0.464527 0.567792 0.000001
0.513314 0.564946 0.000001
0.562100 0.562100 0.000001
0.610858 0.559256 0.000001
0.659559 0.556415 0.000001
0.708174 0.553579 0.000001
0.756675 0.550750 0.000001
0.805033 0.547929 0.000001
0.853219 0.545118 0.000001
0.901205 0.542319 0.000001
0.948962 0.539533 0.000001
0.996462 0.536762 0.000001
1.000000 0.534008 0.000001
1.000000 0.531272 0.000001
1.000000 0.528557 0.000001
1.000000 0.526997 0.000001
1.000000 0.526997 0.000001
1.000000 0.526997 0.000001
0.000001 0.644929 0.000001
0.000001 0.644929 0.000001
0.000001 0.644929 0.000001
0.000001 0.643370 0.000001
0.000001 0.640654 0.000001
0.000001 0.637918 0.000001
0.020597 0.635164 0.000001
0.068097 0.632393 0.000001
0.115855 0.629608 0.000001
0.163841 0.626808 0.000001
0.212027 0.623997 0.000001
0.260385 0.621177 0.000001
0.308885 0.618347 0.000001
0.357500 0.615511 0.000001
0.406201 0.612670 0.000001
0.454959 0.609826 0.000001
0.503746 0.606980 0.000001
0.552532 0.604134 0.000001
0.601290 0.601290 0.000001
0.649991 0.598449 0.000001
0.698606 0.595613 0.000001
0.747107 0.592784 0.000001
0.795464 0.589963 0.000001
0.843651 0.587152 0.000001
0.891637 0.584353 0.000001
0.939394 0.581567 0.000001
0.986894 0.578796 0.000001
1.000000 0.576042 0.000001
1.000000 0.573306 0.000001
1.000000 0.570591 0.000001
1.000000 0.569031 0.000001
1.000000 0.569031 0.000001
1.000000 0.569031 0.000001
0.000001 0.686914 0.000001
0.000001 0.686914 0.000001
0.000001 0.686914 0.000001
0.000001 0.685355 0.000001
0.000001 0.682639 0.000001
0.000001 0.679903 0.000001
0.011040 0.677149 0.000001
0.058540 0.674378 0.000001
0.106298 0.671592 0.000001
0.154284 0.668793 0.000001
0.202470 0.665982 0.000001
0.250828 0.663161 0.000001
0.299328 0.660332 0.000001
0.347943 0.657496 0.000001
0.396644 0.654655 0.000001
0.445402 0.651811 0.000001
0.494189 0.648965 0.000001
0.542975 0.646119 0.000001
0.591733 0.643275 0.000001
0.640434 0.640434 0.000001
0.689049 0.637598 0.000001
0.737550 0.634769 0.000001
0.785907 0.631948 0.000001
0.834094 0.629137 0.000001
0.882080 0.626338 0.000001
0.929837 0.623552 0.000001
0.977337 0.620781 0.000001
1.000000 0.618027 0.000001
1.000000 0.615291 0.000001
1.000000 0.612575 0.000001
1.000000 0.611016 0.000001
1.000000 0.611016 0.000001
1.000000 0.611016 0.000001
0.000001 0.728825 0.000001
0.000001 0.728825 0.000001
0.000001 0.728825 0.000001
0.000001 0.727266 0.000001
0.000001 0.724550 0.000001
0.000001 0.721814 0.000001
0.001500 0.719060 0.000001
0.049000 0.716289 0.000001
0.096758 0.713503 0.000001
0.144744 0.710704 0.000001
0.192930 0.707893 0.000001
0.241288 0.705072 0.000001
0.289788 0.702243 0.000001
0.338403 0.699407 0.000001
0.387104 0.696566 0.000001
0.435862 0.693722 0.000001
0.484649 0.690876 0.000001
0.533435 0.688030 0.000001
0.582193 0.685186 0.000001
0.630894 0.682345 0.000001
0.679509 0.679509 0.000001
0.728010 0.676680 0.000001
0.776367 0.673859 0.000001
0.824553 0.671048 0.000001
0.872540 0.668249 0.000001
0.920297 0.665463 0.000001
0.967797 0.662692 0.000001
1.000000 0.659938 0.000001
1.000000 0.657202 0.000001
1.000000 0.654486 0.000001
1.000000 0.652927 0.000001
1.000000 0.652927 0.000001
1.000000 0.652927 0.000001
0.000001 0.770637 0.000001
0.000001 0.770637 0.000001
0.000001 0.770637 0.000001
0.000001 0.769078 0.000001
0.000001 0.766362 0.000001
0.000001 0.763626 0.000001
0.000001 0.760872 0.000001
0.039483 0.758101 0.000001
0.087240 0.755315 0.000001
0.135226 0.752516 0.000001
0.183412 0.749705 0.000001
0.231770 0.746884 0.000001
0.280271 0.744055 0.000001
0.328886 0.741219 0.000001
0.377586 0.738378 0.000001
0.426344 0.735534 0.000001
0.475131 0.732688 0.000001
0.523917 0.729842 0.000001
0.572675 0.726998 0.000001
0.621376 0.724157 0.000001
0.669991 0.721321 0.000001
0.718492 0.718492 0.000001
0.766850 0.715671 0.000001
0.815036 0.712860 0.000001
0.863022 0.710061 0.000001
0.910779 0.707275 0.000001
0.958279 0.704504 0.000001
1.000000 0.701750 0.000001
1.000000 0.699014 0.000001
1.000000 0.696298 0.000001
1.000000 0.694739 0.000001
1.000000 0.694739 0.000001
1.000000 0.694739 0.000001
0.000001 0.812326 0.000001
0.000001 0.812326 0.000001
0.000001 0.812326 0.000001
0.000001 0.810767 0.000001
0.000001 0.808051 0.000001
0.000001 0.805315 0.000001
0.000001 0.802561 0.000001
0.029993 0.799790 0.000001
0.077750 0.797004 0.000001
0.125736 0.794205 0.000001
0.173923 0.791394 0.000001
0.222280 0.788573 0.000001
0.270781 0.785744 0.000001
0.319396 0.782908 0.000001
0.368097 0.780067 0.000001
0.416855 0.777223 0.000001
0.465641 0.774377 0.000001
0.514428 0.771531 0.000001
0.563186 0.768687 0.000001
0.611887 0.765846 0.000001
0.660502 0.763010 0.000001
0.709002 0.760181 0.000001
0.757360 0.757360 0.000001
0.805546 0.754549 0.000001
0.853532 0.751750 0.000001
0.901290 0.748964 0.000001
0.948790 0.746193 0.000001
0.996004 0.743439 0.000001
1.000000 0.740703 0.000001
1.000000 0.737987 0.000001
1.000000 0.736428 0.000001
1.000000 0.736428 0.000001
1.000000 0.736428 0.000001
0.000001 0.853867 0.000001
0.000001 0.853867 0.000001
0.000001 0.853867 0.000001
0.000001 0.852308 0.000001
0.000001 0.849592 0.000001
0.000001 0.846856 0.000001
0.000001 0.844102 0.000001
0.020537 0.841331 0.000001
0.068294 0.838545 0.000001
0.116280 0.835746 0.000001
0.164467 0.832935 0.000001
0.212824 0.830114 0.000001
0.261325 0.827285 0.000001
0.309940 0.824449 0.000001
0.358641 0.821608 0.000001
0.407399 0.818764 0.000001
0.456185 0.815918 0.000001
0.504972 0.813072 0.000001
0.553730 0.810228 0.000001
0.602431 0.807387 0.000001
0.651046 0.804551 0.000001
0.699546 0.801722 0.000001
0.747904 0.798901 0.000001
0.796090 0.796090 0.000001
0.844076 0.793291 0.000001
0.891834 0.790505 0.000001
0.939334 0.787734 0.000001
0.986548 0.784980 0.000001
1.000000 0.782244 0.000001
1.000000 0.779528 0.000001
1.000000 0.777969 0.000001
1.000000 0.777969 0.000001
1.000000 0.777969 0.000001
0.000001 0.895236 0.000001
0.000001 0.895236 0.000001
0.000001 0.895236 0.000001
0.000001 0.893676 0.000001
0.000001 0.890961 0.000001
0.000001 0.888225 0.000001
0.000001 0.885471 0.000001
0.011120 0.882700 0.000001
0.058878 0.879914 0.000001
0.106864 0.877115 0.000001
0.155050 0.874304 0.000001
0.203408 0.871483 0.000001
0.251908 0.868654 0.000001
0.300523 0.865818 0.000001
0.349224 0.862977 0.000001
0.397982 0.860133 0.000001
0.446769 0.857287 0.000001
0.495555 0.854441 0.000001
0.544313 0.851597 0.000001
0.593014 0.848756 0.000001
0.641629 0.845920 0.000001
0.690130 0.843090 0.000001
0.738487 0.840270 0.000001
0.786673 0.837459 0.000001
0.834659 0.834659 0.000001
0.882417 0.831874 0.000001
0.929917 0.829103 0.000001
0.977131 0.826349 0.000001
1.000000 0.823613 0.000001
1.000000 0.820897 0.000001
1.000000 0.819338 0.000001
1.000000 0.819338 0.000001
1.000000 0.819338 0.000001
0.000001 0.936407 0.000001
0.000001 0.936407 0.000001
0.000001 0.936407 0.000001
0.000001 0.934848 0.000001
0.000001 0.932132 0.000001
0.000001 0.929396 0.000001
0.000001 0.926642 0.000001
0.001748 0.923871 0.000001
0.049506 0.921085 0.000001
0.097492 0.918286 0.000001
0.145678 0.915475 0.000001
0.194036 0.912654 0.000001
0.242536 0.909825 0.000001
0.291151 0.906989 0.000001
0.339852 0.904148 0.000001
0.388610 0.901304 0.000001
0.437397 0.898458 0.000001
0.486183 0.895612 0.000001
0.534941 0.892768 0.000001
0.583642 0.889927 0.000001
0.632257 0.887091 0.000001
0.680758 0.884262 0.000001
0.729115 0.881441 0.000001
0.777302 0.878630 0.000001
0.825288 0.875831 0.000001
0.873045 0.873045 0.000001
0.920545 0.870274 0.000001
0.967759 0.867520 0.000001
1.000000 0.864784 0.000001
1.000000 0.862068 0.000001
1.000000 0.860509 0.000001
1.000000 0.860509 0.000001
1.000000 0.860509 0.000001
0.000001 0.977357 0.000001
0.000001 0.977357 0.000001
0.000001 0.977357 0.000001
0.000001 0.975797 0.000001
0.000001 0.973082 0.000001
0.000001 0.970346 0.000001
0.000001 0.967591 0.000001
0.000001 0.964821 0.000001
0.040184 0.962035 0.000001
0.088170 0.959236 0.000001
0.136357 0.956425 0.000001
0.184714 0.953604 0.000001
0.233215 0.950775 0.000001
0.281830 0.947939 0.000001
0.330531 0.945098 0.000001
0.379289 0.942254 0.000001
0.428075 0.939408 0.000001
0.476862 0.936562 0.000001
0.525620 0.933717 0.000001
0.574321 0.930877 0.000001
0.622936 0.928041 0.000001
0.671436 0.925211 0.000001
0.719794 0.922391 0.000001
0.767980 0.919580 0.000001
0.815966 0.916780 0.000001
0.863724 0.913995 0.000001
0.911224 0.911224 0.000001
