assets/preview/luts/vibrant_pop.cube
TITLE "Vibrant Pop"
LUT_3D_SIZE 9
DOMAIN_MIN 0.0 0.0 0.0
DOMAIN_MAX 1.0 1.0 1.0
0.000001 0.000001 0.000001
0.073289 0.000001 0.000001
0.262660 0.000001 0.000001
0.455691 0.000001 0.000001
0.650551 0.000001 0.000001
0.845411 0.000001 0.000001
1.000000 0.000001 0.000001
1.000000 0.000001 0.000001
1.000000 0.000001 0.000001
0.000001 0.063182 0.000001
0.058907 0.058907 0.000001
0.248278 0.047860 0.000001
0.441309 0.036600 0.000001
0.636169 0.025233 0.000001
0.831029 0.013866 0.000001
1.000000 0.002606 0.000001
1.000000 0.000001 0.000001
1.000000 0.000001 0.000001
0.000001 0.226438 0.000001
0.021745 0.222163 0.000001
0.211116 0.211116 0.000001
0.404147 0.199856 0.000001
0.599007 0.188489 0.000001
0.793867 0.177122 0.000001
0.986898 0.165862 0.000001
1.000000 0.154815 0.000001
1.000000 0.150540 0.000001
0.000001 0.392849 0.000001
0.000001 0.388573 0.000001
0.173236 0.377527 0.000001
0.366266 0.366266 0.000001
0.561127 0.354900 0.000001
0.755987 0.343533 0.000001
0.949018 0.332272 0.000001
1.000000 0.321226 0.000001
1.000000 0.316950 0.000001
0.000001 0.560837 0.000001
0.000001 0.556562 0.000001
0.134997 0.545515 0.000001
0.328027 0.534255 0.000001
0.522888 0.522888 0.000001
0.717748 0.511521 0.000001
0.910779 0.500261 0.000001
1.000000 0.489214 0.000001
1.000000 0.484939 0.000001
0.000001 0.728825 0.000001
0.000001 0.724550 0.000001
0.096758 0.713503 0.000001
0.289788 0.702243 0.000001
0.484649 0.690876 0.000001
0.679509 0.679509 0.000001
0.872540 0.668249 0.000001
1.000000 0.657202 0.000001
1.000000 0.652927 0.000001
0.000001 0.895236 0.000001
0.000001 0.890961 0.000001
0.058878 0.879914 0.000001
0.251908 0.868654 0.000001
0.446769 0.857287 0.000001
0.641629 0.845920 0.000001
0.834659 0.834659 0.000001
1.000000 0.823613 0.000001
1.000000 0.819338 0.000001
0.000001 1.000000 0.000001
0.000001 1.000000 0.000001
0.021716 1.000000 0.000001
0.214746 1.000000 0.000001
0.409607 1.000000 0.000001
0.604467 1.000000 0.000001
0.797498 0.997916 0.000001
0.986869 0.986869 0.000001
1.000000 0.982594 0.000001
0.000001 1.000000 0.000001
0.000001 1.000000 0.000001
0.007334 1.000000 0.000001
0.200364 1.000000 0.000001
0.395225 1.000000 0.000001
0.590085 1.000000 0.000001
0.783115 1.000000 0.000001
0.972487 1.000000 0.000001
1.000000 1.000000 0.000001
0.000001 0.000001 0.074620
0.071837 0.000001 0.070428
0.261208 0.000001 0.059598
0.454239 0.000001 0.048559
0.649099 0.000001 0.037415
0.843959 0.000001 0.026270
1.000000 0.000001 0.015231
1.000000 0.000001 0.004401
1.000000 0.000001 0.000210
0.000001 0.061730 0.060520
0.057455 0.057455 0.056328
0.246826 0.046408 0.045498
0.439857 0.035148 0.034459
0.634717 0.023781 0.023315
0.829577 0.012414 0.012170
1.000000 0.001154 0.001131
1.000000 0.000001 0.000001
1.000000 0.000001 0.000001
0.000001 0.224986 0.024086
0.020293 0.220711 0.019895
0.209664 0.209664 0.009065
0.402695 0.198404 0.000001
0.597555 0.187037 0.000001
0.792415 0.175670 0.000001
0.985446 0.164410 0.000001
1.000000 0.153363 0.000001
1.000000 0.149088 0.000001
0.000001 0.391397 0.000001
0.000001 0.387122 0.000001
0.171784 0.376075 0.000001
0.364815 0.364815 0.000001
0.559675 0.353448 0.000001
0.754535 0.342081 0.000001
0.947566 0.330821 0.000001
1.000000 0.319774 0.000001
1.000000 0.315499 0.000001
0.000001 0.559385 0.000001
0.000001 0.555110 0.000001
0.133545 0.544063 0.000001
0.326575 0.532803 0.000001
0.521436 0.521436 0.000001
0.716296 0.510069 0.000001
0.909327 0.498809 0.000001
1.000000 0.487762 0.000001
1.000000 0.483487 0.000001
0.000001 0.727373 0.000001
0.000001 0.723098 0.000001
0.095306 0.712051 0.000001
0.288336 0.700791 0.000001
0.483197 0.689424 0.000001
0.678057 0.678057 0.000001
0.871088 0.666797 0.000001
1.000000 0.655750 0.000001
1.000000 0.651475 0.000001
0.000001 0.893784 0.000001
0.000001 0.889509 0.000001
0.057426 0.878462 0.000001
0.250456 0.867202 0.000001
0.445317 0.855835 0.000001
0.640177 0.844468 0.000001
0.833208 0.833208 0.000001
1.000000 0.822161 0.000001
1.000000 0.817886 0.000001
0.000001 1.000000 0.000001
0.000001 1.000000 0.000001
0.020264 1.000000 0.000001
0.213294 1.000000 0.000001
0.408155 1.000000 0.000001
0.603015 1.000000 0.000001
0.796046 0.996464 0.000001
0.985417 0.985417 0.000001
1.000000 0.981142 0.000001
0.000001 1.000000 0.000001
0.000001 1.000000 0.000001
0.005882 1.000000 0.000001
0.198912 1.000000 0.000001
0.393773 1.000000 0.000001
0.588633 1.000000 0.000001
0.781664 1.000000 0.000001
0.971035 1.000000 0.000001
1.000000 1.000000 0.000001
0.000001 0.000001 0.267430
0.068085 0.000001 0.263238
0.257457 0.000001 0.252408
0.450487 0.000001 0.241369
0.645347 0.000001 0.230225
0.840208 0.000001 0.219081
1.000000 0.000001 0.208041
1.000000 0.000001 0.197211
1.000000 0.000001 0.193020
0.000001 0.057978 0.253330
0.053703 0.053703 0.249138
0.243074 0.042656 0.238308
0.436105 0.031396 0.227269
0.630965 0.020029 0.216125
0.825826 0.008662 0.204981
1.000000 0.000001 0.193941
1.000000 0.000001 0.183111
1.000000 0.000001 0.178920
0.000001 0.221234 0.216897
0.016541 0.216959 0.212705
0.205912 0.205912 0.201875
0.398943 0.194652 0.190836
0.593803 0.183285 0.179692
0.788664 0.171918 0.168547
0.981694 0.160658 0.157508
1.000000 0.149611 0.146678
1.000000 0.145336 0.142487
0.000001 0.387645 0.179759
0.000001 0.383370 0.175568
0.168032 0.372323 0.164738
0.361063 0.361063 0.153698
0.555923 0.349696 0.142554
0.750784 0.338329 0.131410
0.943814 0.327069 0.120371
1.000000 0.316022 0.109541
1.000000 0.311747 0.105349
0.000001 0.555633 0.142270
0.000001 0.551358 0.138078
0.129793 0.540311 0.127248
0.322824 0.529051 0.116209
0.517684 0.517684 0.105065
0.712545 0.506317 0.093921
0.905575 0.495057 0.082881
1.000000 0.484010 0.072051
1.000000 0.479735 0.067860
0.000001 0.723622 0.104781
0.000001 0.719346 0.100589
0.091554 0.708300 0.089759
0.284585 0.697039 0.078720
0.479445 0.685672 0.067576
0.674305 0.674305 0.056431
0.867336 0.663045 0.045392
1.000000 0.651999 0.034562
1.000000 0.647723 0.030371
0.000001 0.890032 0.067643
0.000001 0.885757 0.063452
0.053674 0.874710 0.052622
0.246705 0.863450 0.041582
0.441565 0.852083 0.030438
0.636425 0.840716 0.019294
0.829456 0.829456 0.008255
1.000000 0.818409 0.000001
1.000000 0.814134 0.000001
0.000001 1.000000 0.031210
0.000001 1.000000 0.027019
0.016512 1.000000 0.016188
0.209543 1.000000 0.005149
0.404403 1.000000 0.000001
0.599263 1.000000 0.000001
0.792294 0.992712 0.000001
0.981665 0.981665 0.000001
1.000000 0.977390 0.000001
0.000001 1.000000 0.017110
0.000001 1.000000 0.012918
0.002130 1.000000 0.002088
0.195161 1.000000 0.000001
0.390021 1.000000 0.000001
0.584881 1.000000 0.000001
0.777912 1.000000 0.000001
0.967283 1.000000 0.000001
1.000000 1.000000 0.000001
0.000001 0.000001 0.463966
0.064261 0.000001 0.459775
0.253632 0.000001 0.448944
0.446663 0.000001 0.437905
0.641523 0.000001 0.426761
0.836384 0.000001 0.415617
1.000000 0.000001 0.404578
1.000000 0.000001 0.393747
1.000000 0.000001 0.389556
0.000001 0.054154 0.449866
0.049879 0.049879 0.445675
0.239250 0.038832 0.434844
0.432281 0.027572 0.423805
0.627141 0.016205 0.412661
0.822002 0.004838 0.401517
1.000000 0.000001 0.390477
1.000000 0.000001 0.379647
1.000000 0.000001 0.375456
0.000001 0.217410 0.413433
0.012717 0.213135 0.409241
0.202088 0.202088 0.398411
0.395119 0.190828 0.387372
0.589979 0.179461 0.376228
0.784840 0.168094 0.365084
0.977870 0.156834 0.354044
1.000000 0.145787 0.343214
1.000000 0.141512 0.339023
0.000001 0.383821 0.376295
0.000001 0.379546 0.372104
0.164208 0.368499 0.361274
0.357239 0.357239 0.350234
0.552099 0.345872 0.339090
0.746960 0.334505 0.327946
0.939990 0.323245 0.316907
1.000000 0.312198 0.306077
1.000000 0.307923 0.301885
0.000001 0.551809 0.338806
0.000001 0.547534 0.334615
0.125969 0.536487 0.323784
0.319000 0.525227 0.312745
0.513860 0.513860 0.301601
0.708721 0.502493 0.290457
0.901751 0.491233 0.279418
1.000000 0.480186 0.268587
1.000000 0.475911 0.264396
0.000001 0.719798 0.301317
0.000001 0.715522 0.297125
0.087730 0.704476 0.286295
0.280761 0.693215 0.275256
0.475621 0.681848 0.264112
0.670481 0.670481 0.252968
0.863512 0.659221 0.241928
1.000000 0.648175 0.231098
1.000000 0.643899 0.226907
0.000001 0.886208 0.264179
0.000001 0.881933 0.259988
0.049850 0.870886 0.249158
0.242881 0.859626 0.238118
0.437741 0.848259 0.226974
0.632601 0.836892 0.215830
0.825632 0.825632 0.204791
1.000000 0.814585 0.193961
1.000000 0.810310 0.189769
0.000001 1.000000 0.227746
0.000001 1.000000 0.223555
0.012688 1.000000 0.212725
0.205719 1.000000 0.201685
0.400579 1.000000 0.190541
0.595439 1.000000 0.179397
0.788470 0.988888 0.168358
0.977841 0.977841 0.157527
1.000000 0.973566 0.153336
0.000001 1.000000 0.213646
0.000001 1.000000 0.209455
0.000001 1.000000 0.198624
0.191337 1.000000 0.187585
0.386197 1.000000 0.176441
0.581057 1.000000 0.165297
0.774088 1.000000 0.154258
0.963459 1.000000 0.143427
1.000000 1.000000 0.139236
0.000001 0.000001 0.662365
0.060401 0.000001 0.658174
0.249772 0.000001 0.647343
0.442803 0.000001 0.636304
0.637663 0.000001 0.625160
0.832524 0.000001 0.614016
1.000000 0.000001 0.602977
1.000000 0.000001 0.592146
1.000000 0.000001 0.587955
0.000001 0.050294 0.648265
0.046019 0.046019 0.644074
0.235390 0.034972 0.633243
0.428421 0.023712 0.622204
0.623281 0.012345 0.611060
0.818141 0.000978 0.599916
1.000000 0.000001 0.588876
1.000000 0.000001 0.578046
1.000000 0.000001 0.573855
0.000001 0.213550 0.611832
0.008857 0.209275 0.607640
0.198228 0.198228 0.596810
0.391259 0.186968 0.585771
0.586119 0.175601 0.574627
0.780980 0.164234 0.563483
0.974010 0.152974 0.552443
1.000000 0.141927 0.541613
1.000000 0.137652 0.537422
0.000001 0.379961 0.574694
0.000001 0.375686 0.570503
0.160348 0.364639 0.559673
0.353379 0.353379 0.548633
0.548239 0.342012 0.537489
0.743099 0.330645 0.526345
0.936130 0.319385 0.515306
1.000000 0.308338 0.504476
1.000000 0.304063 0.500284
0.000001 0.547949 0.537205
0.000001 0.543674 0.533014
0.122109 0.532627 0.522183
0.315140 0.521367 0.511144
0.510000 0.510000 0.500000
0.704860 0.498633 0.488856
0.897891 0.487373 0.477817
1.000000 0.476326 0.466986
1.000000 0.472051 0.462795
0.000001 0.715937 0.499716
0.000001 0.711662 0.495524
0.083870 0.700615 0.484694
0.276901 0.689355 0.473655
0.471761 0.677988 0.462511
0.666621 0.666621 0.451367
0.859652 0.655361 0.440327
1.000000 0.644314 0.429497
1.000000 0.640039 0.425306
0.000001 0.882348 0.462578
0.000001 0.878073 0.458387
0.045990 0.867026 0.447557
0.239020 0.855766 0.436517
0.433881 0.844399 0.425373
0.628741 0.833032 0.414229
0.821772 0.821772 0.403190
1.000000 0.810725 0.392360
1.000000 0.806450 0.388168
0.000001 1.000000 0.426145
0.000001 1.000000 0.421954
0.008828 1.000000 0.411124
0.201859 1.000000 0.400084
0.396719 1.000000 0.388940
0.591579 0.996288 0.377796
0.784610 0.985028 0.366757
0.973981 0.973981 0.355926
1.000000 0.969706 0.351735
0.000001 1.000000 0.412045
0.000001 1.000000 0.407854
0.000001 1.000000 0.397023
0.187476 1.000000 0.385984
0.382337 1.000000 0.374840
0.577197 1.000000 0.363696
0.770228 1.000000 0.352657
0.959599 1.000000 0.341826
1.000000 1.000000 0.337635
0.000001 0.000001 0.860764
0.056541 0.000001 0.856573
0.245912 0.000001 0.845742
0.438943 0.000001 0.834703
0.633803 0.000001 0.823559
0.828663 0.000001 0.812415
1.000000 0.000001 0.801376
1.000000 0.000001 0.790545
1.000000 0.000001 0.786354
0.000001 0.046434 0.846664
0.042159 0.042159 0.842473
0.231530 0.031112 0.831642
0.424561 0.019852 0.820603
0.619421 0.008485 0.809459
0.814281 0.000001 0.798315
1.000000 0.000001 0.787275
1.000000 0.000001 0.776445
1.000000 0.000001 0.772254
0.000001 0.209690 0.810231
0.004997 0.205415 0.806039
0.194368 0.194368 0.795209
0.387399 0.183108 0.784170
0.582259 0.171741 0.773026
0.777119 0.160374 0.761882
0.970150 0.149114 0.750842
1.000000 0.138067 0.740012
1.000000 0.133792 0.735821
0.000001 0.376101 0.773093
0.000001 0.371825 0.768902
0.156488 0.360779 0.758072
0.349519 0.349519 0.747032
0.544379 0.338152 0.735888
0.739239 0.326785 0.724744
0.932270 0.315524 0.713705
1.000000 0.304478 0.702875
1.000000 0.300202 0.698683
0.000001 0.544089 0.735604
0.000001 0.539814 0.731413
0.118249 0.528767 0.720582
0.311279 0.517507 0.709543
0.506140 0.506140 0.698399
0.701000 0.494773 0.687255
0.894031 0.483513 0.676216
1.000000 0.472466 0.665385
1.000000 0.468191 0.661194
0.000001 0.712077 0.698115
0.000001 0.707802 0.693923
0.080010 0.696755 0.683093
0.273040 0.685495 0.672054
0.467901 0.674128 0.660910
0.662761 0.662761 0.649766
0.855792 0.651501 0.638726
1.000000 0.640454 0.627896
1.000000 0.636179 0.623705
0.000001 0.878488 0.660977
0.000001 0.874213 0.656786
0.042130 0.863166 0.645956
0.235160 0.851906 0.634916
0.430021 0.840539 0.623772
0.624881 0.829172 0.612628
0.817912 0.817912 0.601589
1.000000 0.806865 0.590759
1.000000 0.802590 0.586567
0.000001 1.000000 0.624544
0.000001 1.000000 0.620353
0.004968 1.000000 0.609523
0.197998 1.000000 0.598483
0.392859 1.000000 0.587339
0.587719 0.992428 0.576195
0.780750 0.981168 0.565156
0.970121 0.970121 0.554325
1.000000 0.965846 0.550134
0.000001 1.000000 0.610444
0.000001 1.000000 0.606253
0.000001 1.000000 0.595422
0.183616 1.000000 0.584383
0.378477 1.000000 0.573239
0.573337 1.000000 0.562095
0.766368 1.000000 0.551056
0.955739 1.000000 0.540225
1.000000 1.000000 0.536034
0.000001 0.000001 1.000000
0.052717 0.000001 1.000000
0.242088 0.000001 1.000000
0.435119 0.000001 1.000000
0.629979 0.000001 1.000000
0.824839 0.000001 1.000000
1.000000 0.000001 0.997912
1.000000 0.000001 0.987082
1.000000 0.000001 0.982890
0.000001 0.042610 1.000000
0.038335 0.038335 1.000000
0.227706 0.027288 1.000000
0.420737 0.016028 1.000000
0.615597 0.004661 1.000000
0.810457 0.000001 0.994851
1.000000 0.000001 0.983812
1.000000 0.000001 0.972981
1.000000 0.000001 0.968790
0.000001 0.205866 1.000000
0.001173 0.201591 1.000000
0.190544 0.190544 0.991745
0.383575 0.179284 0.980706
0.578435 0.167917 0.969562
0.773295 0.156550 0.958418
0.966326 0.145290 0.947378
1.000000 0.134243 0.936548
1.000000 0.129968 0.932357
0.000001 0.372277 0.969629
0.000001 0.368001 0.965438
0.152664 0.356955 0.954608
0.345695 0.345695 0.943569
0.540555 0.334328 0.932424
0.735415 0.322961 0.921280
0.928446 0.311700 0.910241
1.000000 0.300654 0.899411
1.000000 0.296378 0.895219
0.000001 0.540265 0.932140
0.000001 0.535990 0.927949
0.114425 0.524943 0.917119
0.307455 0.513683 0.906079
0.502316 0.502316 0.894935
0.697176 0.490949 0.883791
0.890207 0.479689 0.872752
1.000000 0.468642 0.861922
1.000000 0.464367 0.857730
0.000001 0.708253 0.894651
0.000001 0.703978 0.890459
0.076186 0.692931 0.879629
0.269216 0.681671 0.868590
0.464077 0.670304 0.857446
0.658937 0.658937 0.846302
0.851968 0.647677 0.835262
1.000000 0.636630 0.824432
1.000000 0.632355 0.820241
0.000001 0.874664 0.857513
0.000001 0.870389 0.853322
0.038306 0.859342 0.842492
0.231336 0.848082 0.831453
0.426197 0.836715 0.820308
0.621057 0.825348 0.809164
0.814088 0.814088 0.798125
1.000000 0.803041 0.787295
1.000000 0.798766 0.783103
0.000001 1.000000 0.821080
0.000001 1.000000 0.816889
0.001144 1.000000 0.806059
0.194174 1.000000 0.795019
0.389035 0.999971 0.783875
0.583895 0.988604 0.772731
0.776926 0.977344 0.761692
0.966297 0.966297 0.750862
1.000000 0.962022 0.746670
0.000001 1.000000 0.806980
0.000001 1.000000 0.802789
0.000001 1.000000 0.791959
0.179792 1.000000 0.780919
0.374653 1.000000 0.769775
0.569513 1.000000 0.758631
0.762543 1.000000 0.747592
0.951915 1.000000 0.736762
1.000000 1.000000 0.732570
0.000001 0.000001 1.000000
0.048965 0.000001 1.000000
0.238336 0.000001 1.000000
0.431367 0.000001 1.000000
0.626227 0.000001 1.000000
0.821088 0.000001 1.000000
1.000000 0.000001 1.000000
1.000000 0.000001 1.000000
1.000000 0.000001 1.000000
0.000001 0.038858 1.000000
0.034583 0.034583 1.000000
0.223954 0.023536 1.000000
0.416985 0.012276 1.000000
0.611845 0.000909 1.000000
0.806706 0.000001 1.000000
0.999736 0.000001 1.000000
1.000000 0.000001 1.000000
1.000000 0.000001 1.000000
0.000001 0.202114 1.000000
0.000001 0.197839 1.000000
0.186792 0.186792 1.000000
0.379823 0.175532 1.000000
0.574683 0.164165 1.000000
0.769544 0.152798 1.000000
0.962574 0.141538 1.000000
1.000000 0.130491 1.000000
1.000000 0.126216 1.000000
0.000001 0.368525 1.000000
0.000001 0.364250 1.000000
0.148912 0.353203 1.000000
0.341943 0.341943 1.000000
0.536803 0.330576 1.000000
0.731664 0.319209 1.000000
0.924694 0.307949 1.000000
1.000000 0.296902 1.000000
1.000000 0.292627 1.000000
0.000001 0.536513 1.000000
0.000001 0.532238 1.000000
0.110673 0.521191 1.000000
0.303704 0.509931 1.000000
0.498564 0.498564 1.000000
0.693425 0.487197 1.000000
0.886455 0.475937 1.000000
1.000000 0.464890 1.000000
1.000000 0.460615 1.000000
0.000001 0.704501 1.000000
0.000001 0.700226 1.000000
0.072434 0.689179 1.000000
0.265465 0.677919 1.000000
0.460325 0.666552 1.000000
0.655185 0.655185 1.000000
0.848216 0.643925 1.000000
1.000000 0.632878 1.000000
1.000000 0.628603 1.000000
0.000001 0.870912 1.000000
0.000001 0.866637 1.000000
0.034554 0.855590 1.000000
0.227585 0.844330 1.000000
0.422445 0.832963 1.000000
0.617305 0.821596 1.000000
0.810336 0.810336 0.990935
0.999707 0.799289 0.980105
1.000000 0.795014 0.975914
0.000001 1.000000 1.000000
0.000001 1.000000 1.000000
0.000001 1.000000 0.998869
0.190423 1.000000 0.987830
0.385283 0.996219 0.976685
0.580143 0.984852 0.965541
0.773174 0.973592 0.954502
0.962545 0.962545 0.943672
1.000000 0.958270 0.939480
0.000001 1.000000 0.999790
0.000001 1.000000 0.995599
0.000001 1.000000 0.984769
0.176041 1.000000 0.973730
0.370901 1.000000 0.962585
0.565761 1.000000 0.951441
0.758792 1.000000 0.940402
0.948163 1.000000 0.929572
1.000000 1.000000 0.925380
0.000001 0.000001 1.000000
0.047513 0.000001 1.000000
0.236885 0.000001 1.000000
0.429915 0.000001 1.000000
0.624776 0.000001 1.000000
0.819636 0.000001 1.000000
1.000000 0.000001 1.000000
1.000000 0.000001 1.000000
1.000000 0.000001 1.000000
0.000001 0.037406 1.000000
0.033131 0.033131 1.000000
0.222502 0.022084 1.000000
0.415533 0.010824 1.000000
0.610393 0.000001 1.000000
0.805254 0.000001 1.000000
0.998284 0.000001 1.000000
1.000000 0.000001 1.000000
1.000000 0.000001 1.000000
0.000001 0.200662 1.000000
0.000001 0.196387 1.000000
0.185341 0.185341 1.000000
0.378371 0.174080 1.000000
0.573231 0.162713 1.000000
0.768092 0.151346 1.000000
0.961122 0.140086 1.000000
1.000000 0.129039 1.000000
1.000000 0.124764 1.000000
0.000001 0.367073 1.000000
0.000001 0.362798 1.000000
0.147460 0.351751 1.000000
0.340491 0.340491 1.000000
0.535351 0.329124 1.000000
0.730212 0.317757 1.000000
0.923242 0.306497 1.000000
1.000000 0.295450 1.000000
1.000000 0.291175 1.000000
0.000001 0.535061 1.000000
0.000001 0.530786 1.000000
0.109221 0.519739 1.000000
0.302252 0.508479 1.000000
0.497112 0.497112 1.000000
0.691973 0.485745 1.000000
0.885003 0.474485 1.000000
1.000000 0.463438 1.000000
1.000000 0.459163 1.000000
0.000001 0.703050 1.000000
0.000001 0.698774 1.000000
0.070982 0.687728 1.000000
0.264013 0.676467 1.000000
0.458873 0.665100 1.000000
0.653734 0.653734 1.000000
0.846764 0.642473 1.000000
1.000000 0.631427 1.000000
1.000000 0.627151 1.000000
0.000001 0.869460 1.000000
0.000001 0.865185 1.000000
0.033102 0.854138 1.000000
0.226133 0.842878 1.000000
0.420993 0.831511 1.000000
0.615853 0.820144 1.000000
0.808884 0.808884 1.000000
0.998255 0.797837 1.000000
1.000000 0.793562 1.000000
0.000001 1.000000 1.000000
0.000001 1.000000 1.000000
0.000001 1.000000 1.000000
0.188971 1.000000 1.000000
0.383831 0.994767 1.000000
0.578691 0.983400 1.000000
0.771722 0.972140 1.000000
0.961093 0.961093 1.000000
1.000000 0.956818 1.000000
0.000001 1.000000 1.000000
0.000001 1.000000 1.000000
0.000001 1.000000 1.000000
0.174589 1.000000 1.000000
0.369449 1.000000 1.000000
0.564309 1.000000 1.000000
0.757340 1.000000 1.000000
0.946711 1.000000 1.000000
1.000000 1.000000 1.000000
