assets/preview/luts/vibrant_pop.cube
TITLE "Vibrant Pop"
LUT_3D_SIZE 5
DOMAIN_MIN 0.0 0.0 0.0
DOMAIN_MAX 1.0 1.0 1.0
0.000001 0.000001 0.000001
0.262660 0.000001 0.000001
0.650551 0.000001 0.000001
1.000000 0.000001 0.000001
1.000000 0.000001 0.000001
0.000001 0.226438 0.000001
0.211116 0.211116 0.000001
0.599007 0.188489 0.000001
0.986898 0.165862 0.000001
1.000000 0.150540 0.000001
0.000001 0.560837 0.000001
0.134997 0.545515 0.000001
0.522888 0.522888 0.000001
0.910779 0.500261 0.000001
1.000000 0.484939 0.000001
0.000001 0.895236 0.000001
0.058878 0.879914 0.000001
0.446769 0.857287 0.000001
0.834659 0.834659 0.000001
1.000000 0.819338 0.000001
0.000001 1.000000 0.000001
0.007334 1.000000 0.000001
0.395225 1.000000 0.000001
0.783115 1.000000 0.000001
1.000000 1.000000 0.000001
0.000001 0.000001 0.267430
0.257457 0.000001 0.252408
0.645347 0.000001 0.230225
1.000000 0.000001 0.208041
1.000000 0.000001 0.193020
0.000001 0.221234 0.216897
0.205912 0.205912 0.201875
0.593803 0.183285 0.179692
0.981694 0.160658 0.157508
1.000000 0.145336 0.142487
0.000001 0.555633 0.142270
0.129793 0.540311 0.127248
0.517684 0.517684 0.105065
0.905575 0.495057 0.082881
1.000000 0.479735 0.067860
0.000001 0.890032 0.067643
0.053674 0.874710 0.052622
0.441565 0.852083 0.030438
0.829456 0.829456 0.008255
1.000000 0.814134 0.000001
0.000001 1.000000 0.017110
0.002130 1.000000 0.002088
0.390021 1.000000 0.000001
0.777912 1.000000 0.000001
1.000000 1.000000 0.000001
0.000001 0.000001 0.662365
0.249772 0.000001 0.647343
0.637663 0.000001 0.625160
1.000000 0.000001 0.602977
1.000000 0.000001 0.587955
0.000001 0.213550 0.611832
0.198228 0.198228 0.596810
0.586119 0.175601 0.574627
0.974010 0.152974 0.552443
1.000000 0.137652 0.537422
0.000001 0.547949 0.537205
0.122109 0.532627 0.522183
0.510000 0.510000 0.500000
0.897891 0.487373 0.477817
1.000000 0.472051 0.462795
0.000001 0.882348 0.462578
0.045990 0.867026 0.447557
0.433881 0.844399 0.425373
0.821772 0.821772 0.403190
1.000000 0.806450 0.388168
0.000001 1.000000 0.412045
0.000001 1.000000 0.397023
0.382337 1.000000 0.374840
0.770228 1.000000 0.352657
1.000000 1.000000 0.337635
0.000001 0.000001 1.000000
0.242088 0.000001 1.000000
0.629979 0.000001 1.000000
1.000000 0.000001 0.997912
1.000000 0.000001 0.982890
0.000001 0.205866 1.000000
0.190544 0.190544 0.991745
0.578435 0.167917 0.969562
0.966326 0.145290 0.947378
1.000000 0.129968 0.932357
0.000001 0.540265 0.932140
0.114425 0.524943 0.917119
0.502316 0.502316 0.894935
0.890207 0.479689 0.872752
1.000000 0.464367 0.857730
0.000001 0.874664 0.857513
0.038306 0.859342 0.842492
0.426197 0.836715 0.820308
0.814088 0.814088 0.798125
1.000000 0.798766 0.783103
0.000001 1.000000 0.806980
0.000001 1.000000 0.791959
0.374653 1.000000 0.769775
0.762543 1.000000 0.747592
1.000000 1.000000 0.732570
0.000001 0.000001 1.000000
0.236885 0.000001 1.000000
0.624776 0.000001 1.000000
1.000000 0.000001 1.000000
1.000000 0.000001 1.000000
0.000001 0.200662 1.000000
0.185341 0.185341 1.000000
0.573231 0.162713 1.000000
0.961122 0.140086 1.000000
1.000000 0.124764 1.000000
0.000001 0.535061 1.000000
0.109221 0.519739 1.000000
0.497112 0.497112 1.000000
0.885003 0.474485 1.000000
1.000000 0.459163 1.000000
0.000001 0.869460 1.000000
0.033102 0.854138 1.000000
0.420993 0.831511 1.000000
0.808884 0.808884 1.000000
1.000000 0.793562 1.000000
0.000001 1.000000 1.000000
0.000001 1.000000 1.000000
0.369449 1.000000 1.000000
0.757340 1.000000 1.000000
1.000000 1.000000 1.000000
