assets/preview/luts/warm_allpurpose.cube
TITLE "Warm All-Purpose"
LUT_3D_SIZE 9
DOMAIN_MIN 0.0 0.0 0.0
DOMAIN_MAX 1.0 1.0 1.0
0.000000 0.000000 0.000000
0.128237 0.000000 0.000000
0.271473 0.000000 0.000000
0.414867 0.000000 0.000000
0.558178 0.000000 0.000000
0.701051 0.000000 0.000000
0.843089 0.000000 0.000000
0.983877 0.000000 0.000000
1.000000 0.000000 0.000000
0.000000 0.111453 0.000000
0.122003 0.109401 0.000000
0.265238 0.107109 0.000000
0.408632 0.104815 0.000000
0.551943 0.102522 0.000000
0.694816 0.100236 0.000000
0.836854 0.097964 0.000000
0.977642 0.095711 0.000000
1.000000 0.094445 0.000000
0.000000 0.244970 0.000000
0.114534 0.242918 0.000000
0.257769 0.240626 0.000000
0.401163 0.238332 0.000000
0.544474 0.236039 0.000000
0.687347 0.233753 0.000000
0.829385 0.231480 0.000000
0.970173 0.229227 0.000000
1.000000 0.227962 0.000000
0.000000 0.379328 0.000000
0.107017 0.377276 0.000000
0.250252 0.374984 0.000000
0.393646 0.372690 0.000000
0.536958 0.370397 0.000000
0.679831 0.368111 0.000000
0.821869 0.365838 0.000000
0.962657 0.363586 0.000000
1.000000 0.362320 0.000000
0.000000 0.514102 0.000000
0.099478 0.512051 0.000000
0.242713 0.509759 0.000000
0.386107 0.507464 0.000000
0.529418 0.505171 0.000000
0.672291 0.502885 0.000000
0.814330 0.500613 0.000000
0.955117 0.498360 0.000000
1.000000 0.497094 0.000000
0.000000 0.648868 0.000000
0.091939 0.646817 0.000000
0.235174 0.644525 0.000000
0.378568 0.642231 0.000000
0.521879 0.639938 0.000000
0.664752 0.637652 0.000000
0.806791 0.635379 0.000000
0.947578 0.633126 0.000000
1.000000 0.631860 0.000000
0.000000 0.783201 0.000000
0.084424 0.781149 0.000000
0.227659 0.778857 0.000000
0.371053 0.776563 0.000000
0.514364 0.774270 0.000000
0.657238 0.771984 0.000000
0.799276 0.769711 0.000000
0.940063 0.767459 0.000000
1.000000 0.766193 0.000000
0.000000 0.916675 0.000000
0.076957 0.914623 0.000000
0.220192 0.912331 0.000000
0.363586 0.910037 0.000000
0.506898 0.907744 0.000000
0.649771 0.905458 0.000000
0.791809 0.903185 0.000000
0.932597 0.900933 0.000000
1.000000 0.899667 0.000000
0.000000 1.000000 0.000000
0.071021 1.000000 0.000000
0.214257 1.000000 0.000000
0.357651 1.000000 0.000000
0.500962 1.000000 0.000000
0.643835 1.000000 0.000000
0.785873 1.000000 0.000000
0.926661 1.000000 0.000000
1.000000 1.000000 0.000000
0.000000 0.000000 0.102861
0.127684 0.000000 0.100809
0.270920 0.000000 0.098518
0.414313 0.000000 0.096223
0.557625 0.000000 0.093930
0.700498 0.000000 0.091644
0.842536 0.000000 0.089372
0.983324 0.000000 0.087119
1.000000 0.000000 0.085853
0.000000 0.110900 0.096626
0.121450 0.108848 0.094575
0.264685 0.106556 0.092283
0.408079 0.104262 0.089988
0.551390 0.101969 0.087695
0.694263 0.099683 0.085409
0.836301 0.097410 0.083137
0.977089 0.095158 0.080884
1.000000 0.093892 0.079618
0.000000 0.244417 0.089157
0.113980 0.242365 0.087105
0.257216 0.240073 0.084814
0.400610 0.237779 0.082519
0.543921 0.235486 0.080226
0.686794 0.233200 0.077940
0.828832 0.230927 0.075668
0.969620 0.228674 0.073415
1.000000 0.227409 0.072149
0.000000 0.378775 0.081641
0.106464 0.376723 0.079589
0.249699 0.374431 0.077297
0.393093 0.372137 0.075003
0.536405 0.369844 0.072710
0.679278 0.367558 0.070424
0.821316 0.365285 0.068152
0.962104 0.363033 0.065899
1.000000 0.361767 0.064633
0.000000 0.513549 0.074102
0.098925 0.511497 0.072050
0.242160 0.509206 0.069758
0.385554 0.506911 0.067464
0.528865 0.504618 0.065171
0.671738 0.502332 0.062885
0.813777 0.500060 0.060612
0.954564 0.497807 0.058359
1.000000 0.496541 0.057094
0.000000 0.648315 0.066563
0.091386 0.646264 0.064511
0.234621 0.643972 0.062219
0.378015 0.641677 0.059925
0.521326 0.639384 0.057632
0.664199 0.637098 0.055346
0.806238 0.634826 0.053073
0.947025 0.632573 0.050820
1.000000 0.631307 0.049555
0.000000 0.782648 0.059048
0.083871 0.780596 0.056996
0.227106 0.778304 0.054704
0.370500 0.776010 0.052410
0.513811 0.773717 0.050117
0.656685 0.771431 0.047831
0.798723 0.769158 0.045558
0.939510 0.766906 0.043306
1.000000 0.765640 0.042040
0.000000 0.916122 0.051581
0.076404 0.914070 0.049529
0.219639 0.911778 0.047237
0.363033 0.909484 0.044943
0.506345 0.907191 0.042650
0.649218 0.904905 0.040364
0.791256 0.902632 0.038092
0.932044 0.900380 0.035839
1.000000 0.899114 0.034573
0.000000 1.000000 0.045645
0.070468 1.000000 0.043593
0.213704 1.000000 0.041302
0.357097 1.000000 0.039007
0.500409 1.000000 0.036714
0.643282 1.000000 0.034428
0.785320 1.000000 0.032156
0.926108 1.000000 0.029903
1.000000 1.000000 0.028637
0.000000 0.000000 0.236653
0.126965 0.000000 0.234601
0.270200 0.000000 0.232310
0.413594 0.000000 0.230015
0.556905 0.000000 0.227722
0.699779 0.000000 0.225436
0.841817 0.000000 0.223164
0.982604 0.000000 0.220911
1.000000 0.000000 0.219645
0.000000 0.110181 0.230418
0.120730 0.108129 0.228367
0.263965 0.105837 0.226075
0.407359 0.103543 0.223780
0.550671 0.101250 0.221487
0.693544 0.098964 0.219201
0.835582 0.096691 0.216929
0.976369 0.094438 0.214676
1.000000 0.093173 0.213410
0.000000 0.243697 0.222949
0.113261 0.241645 0.220897
0.256496 0.239354 0.218606
0.399890 0.237059 0.216311
0.543201 0.234766 0.214018
0.686075 0.232480 0.211732
0.828113 0.230208 0.209460
0.968900 0.227955 0.207207
1.000000 0.226689 0.205941
0.000000 0.378055 0.215433
0.105745 0.376003 0.213381
0.248980 0.373712 0.211090
0.392374 0.371417 0.208795
0.535685 0.369124 0.206502
0.678558 0.366838 0.204216
0.820597 0.364566 0.201944
0.961384 0.362313 0.199691
1.000000 0.361047 0.198425
0.000000 0.512830 0.207894
0.098205 0.510778 0.205842
0.241441 0.508486 0.203550
0.384834 0.506192 0.201256
0.528146 0.503899 0.198963
0.671019 0.501613 0.196677
0.813057 0.499340 0.194404
0.953845 0.497088 0.192151
1.000000 0.495822 0.190886
0.000000 0.647596 0.200355
0.090666 0.645544 0.198303
0.233901 0.643252 0.196011
0.377295 0.640958 0.193717
0.520607 0.638665 0.191424
0.663480 0.636379 0.189138
0.805518 0.634106 0.186865
0.946306 0.631854 0.184612
1.000000 0.630588 0.183347
0.000000 0.781928 0.192840
0.083152 0.779877 0.190788
0.226387 0.777585 0.188496
0.369781 0.775291 0.186202
0.513092 0.772998 0.183909
0.655965 0.770712 0.181623
0.798003 0.768439 0.179350
0.938791 0.766186 0.177098
1.000000 0.764920 0.175832
0.000000 0.915402 0.185373
0.075685 0.913351 0.183321
0.218920 0.911059 0.181030
0.362314 0.908764 0.178735
0.505625 0.906471 0.176442
0.648499 0.904185 0.174156
0.790537 0.901913 0.171884
0.931324 0.899660 0.169631
1.000000 0.898394 0.168365
0.000000 1.000000 0.179437
0.069749 1.000000 0.177385
0.212984 1.000000 0.175094
0.356378 1.000000 0.172799
0.499689 1.000000 0.170506
0.642563 1.000000 0.168220
0.784601 1.000000 0.165948
0.925388 1.000000 0.163695
1.000000 1.000000 0.162429
0.000000 0.000000 0.371915
0.126238 0.000000 0.369863
0.269473 0.000000 0.367572
0.412867 0.000000 0.365277
0.556178 0.000000 0.362984
0.699051 0.000000 0.360698
0.841090 0.000000 0.358426
0.981877 0.000000 0.356173
1.000000 0.000000 0.354907
0.000000 0.109453 0.365680
0.120003 0.107401 0.363629
0.263238 0.105110 0.361337
0.406632 0.102815 0.359043
0.549943 0.100522 0.356750
0.692816 0.098236 0.354464
0.834855 0.095964 0.352191
0.975642 0.093711 0.349938
1.000000 0.092445 0.348672
0.000000 0.242970 0.358211
0.112534 0.240918 0.356160
0.255769 0.238626 0.353868
0.399163 0.236332 0.351573
0.542474 0.234039 0.349280
0.685347 0.231753 0.346994
0.827386 0.229480 0.344722
0.968173 0.227228 0.342469
1.000000 0.225962 0.341203
0.000000 0.377328 0.350695
0.105018 0.375276 0.348643
0.248253 0.372984 0.346352
0.391647 0.370690 0.344057
0.534958 0.368397 0.341764
0.677831 0.366111 0.339478
0.819869 0.363838 0.337206
0.960657 0.361586 0.334953
1.000000 0.360320 0.333687
0.000000 0.512103 0.343156
0.097478 0.510051 0.341104
0.240713 0.507759 0.338812
0.384107 0.505465 0.336518
0.527419 0.503172 0.334225
0.670292 0.500886 0.331939
0.812330 0.498613 0.329666
0.953117 0.496360 0.327413
1.000000 0.495095 0.326148
0.000000 0.646869 0.335617
0.089939 0.644817 0.333565
0.233174 0.642525 0.331273
0.376568 0.640231 0.328979
0.519879 0.637938 0.326686
0.662753 0.635652 0.324400
0.804791 0.633379 0.322127
0.945578 0.631127 0.319874
1.000000 0.629861 0.318609
0.000000 0.781201 0.328102
0.082424 0.779149 0.326050
0.225659 0.776858 0.323758
0.369053 0.774563 0.321464
0.512365 0.772270 0.319171
0.655238 0.769984 0.316885
0.797276 0.767712 0.314612
0.938064 0.765459 0.312360
1.000000 0.764193 0.311094
0.000000 0.914675 0.320635
0.074958 0.912623 0.318583
0.218193 0.910331 0.316292
0.361587 0.908037 0.313997
0.504898 0.905744 0.311704
0.647771 0.903458 0.309418
0.789809 0.901186 0.307146
0.930597 0.898933 0.304893
1.000000 0.897667 0.303627
0.000000 1.000000 0.314699
0.069022 1.000000 0.312647
0.212257 1.000000 0.310356
0.355651 1.000000 0.308061
0.498962 1.000000 0.305768
0.641835 1.000000 0.303482
0.783874 1.000000 0.301210
0.924661 1.000000 0.298957
1.000000 1.000000 0.297691
0.000000 0.000000 0.508061
0.125506 0.000000 0.506009
0.268741 0.000000 0.503718
0.412135 0.000000 0.501423
0.555446 0.000000 0.499130
0.698319 0.000000 0.496844
0.840357 0.000000 0.494572
0.981145 0.000000 0.492319
1.000000 0.000000 0.491053
0.000000 0.108721 0.501826
0.119271 0.106669 0.499775
0.262506 0.104378 0.497483
0.405900 0.102083 0.495188
0.549211 0.099790 0.492895
0.692084 0.097504 0.490609
0.834123 0.095232 0.488337
0.974910 0.092979 0.486084
1.000000 0.091713 0.484818
0.000000 0.242238 0.494357
0.111802 0.240186 0.492305
0.255037 0.237894 0.490014
0.398431 0.235600 0.487719
0.541742 0.233307 0.485426
0.684615 0.231021 0.483140
0.826654 0.228748 0.480868
0.967441 0.226496 0.478615
1.000000 0.225230 0.477349
0.000000 0.376596 0.486841
0.104286 0.374544 0.484789
0.247521 0.372252 0.482497
0.390915 0.369958 0.480203
0.534226 0.367665 0.477910
0.677099 0.365379 0.475624
0.819137 0.363106 0.473352
0.959925 0.360854 0.471099
1.000000 0.359588 0.469833
0.000000 0.511371 0.479302
0.096746 0.509319 0.477250
0.239981 0.507027 0.474958
0.383375 0.504733 0.472664
0.526686 0.502440 0.470371
0.669560 0.500154 0.468085
0.811598 0.497881 0.465812
0.952385 0.495628 0.463559
1.000000 0.494363 0.462294
0.000000 0.646137 0.471763
0.089207 0.644085 0.469711
0.232442 0.641793 0.467419
0.375836 0.639499 0.465125
0.519147 0.637206 0.462832
0.662021 0.634920 0.460546
0.804059 0.632647 0.458273
0.944846 0.630395 0.456020
1.000000 0.629129 0.454755
0.000000 0.780469 0.464248
0.081692 0.778417 0.462196
0.224927 0.776126 0.459904
0.368321 0.773831 0.457610
0.511633 0.771538 0.455317
0.654506 0.769252 0.453031
0.796544 0.766980 0.450758
0.937332 0.764727 0.448506
1.000000 0.763461 0.447240
0.000000 0.913943 0.456781
0.074226 0.911891 0.454729
0.217461 0.909599 0.452437
0.360855 0.907305 0.450143
0.504166 0.905012 0.447850
0.647039 0.902726 0.445564
0.789077 0.900453 0.443292
0.929865 0.898201 0.441039
1.000000 0.896935 0.439773
0.000000 1.000000 0.450845
0.068290 1.000000 0.448793
0.211525 1.000000 0.446502
0.354919 1.000000 0.444207
0.498230 1.000000 0.441914
0.641103 1.000000 0.439628
0.783141 1.000000 0.437356
0.923929 1.000000 0.435103
1.000000 1.000000 0.433837
0.000000 0.000000 0.644631
0.124771 0.000000 0.642579
0.268006 0.000000 0.640288
0.411400 0.000000 0.637993
0.554712 0.000000 0.635700
0.697585 0.000000 0.633414
0.839623 0.000000 0.631142
0.980411 0.000000 0.628889
1.000000 0.000000 0.627623
0.000000 0.107987 0.638396
0.118537 0.105935 0.636345
0.261772 0.103643 0.634053
0.405166 0.101349 0.631758
0.548477 0.099056 0.629465
0.691350 0.096770 0.627179
0.833388 0.094497 0.624907
0.974176 0.092245 0.622654
1.000000 0.090979 0.621388
0.000000 0.241503 0.630927
0.111067 0.239452 0.628875
0.254303 0.237160 0.626584
0.397696 0.234866 0.624289
0.541008 0.232573 0.621996
0.683881 0.230287 0.619710
0.825919 0.228014 0.617438
0.966707 0.225761 0.615185
1.000000 0.224495 0.613919
0.000000 0.375862 0.623411
0.103551 0.373810 0.621359
0.246786 0.371518 0.619067
0.390180 0.369224 0.616773
0.533492 0.366931 0.614480
0.676365 0.364645 0.612194
0.818403 0.362372 0.609922
0.959190 0.360119 0.607669
1.000000 0.358854 0.606403
0.000000 0.510636 0.615872
0.096012 0.508584 0.613820
0.239247 0.506293 0.611528
0.382641 0.503998 0.609234
0.525952 0.501705 0.606941
0.668825 0.499419 0.604655
0.810864 0.497147 0.602382
0.951651 0.494894 0.600129
1.000000 0.493628 0.598864
0.000000 0.645402 0.608333
0.088473 0.643351 0.606281
0.231708 0.641059 0.603989
0.375102 0.638764 0.601695
0.518413 0.636471 0.599402
0.661286 0.634185 0.597116
0.803325 0.631913 0.594843
0.944112 0.629660 0.592590
1.000000 0.628394 0.591325
0.000000 0.779735 0.600818
0.080958 0.777683 0.598766
0.224193 0.775391 0.596474
0.367587 0.773097 0.594180
0.510898 0.770804 0.591887
0.653772 0.768518 0.589601
0.795810 0.766245 0.587328
0.936597 0.763993 0.585076
1.000000 0.762727 0.583810
0.000000 0.913209 0.593351
0.073491 0.911157 0.591299
0.216726 0.908865 0.589008
0.360120 0.906571 0.586713
0.503432 0.904278 0.584420
0.646305 0.901992 0.582134
0.788343 0.899719 0.579862
0.929130 0.897467 0.577609
1.000000 0.896201 0.576343
0.000000 1.000000 0.587415
0.067555 1.000000 0.585363
0.210790 1.000000 0.583072
0.354184 1.000000 0.580777
0.497496 1.000000 0.578484
0.640369 1.000000 0.576198
0.782407 1.000000 0.573926
0.923195 1.000000 0.571673
1.000000 1.000000 0.570407
0.000000 0.000000 0.781210
0.124037 0.000000 0.779158
0.267272 0.000000 0.776867
0.410666 0.000000 0.774572
0.553977 0.000000 0.772279
0.696851 0.000000 0.769993
0.838889 0.000000 0.767721
0.979676 0.000000 0.765468
1.000000 0.000000 0.764202
0.000000 0.107253 0.774975
0.117802 0.105201 0.772923
0.261037 0.102909 0.770632
0.404431 0.100615 0.768337
0.547743 0.098322 0.766044
0.690616 0.096036 0.763758
0.832654 0.093763 0.761486
0.973441 0.091510 0.759233
1.000000 0.090245 0.757967
0.000000 0.240769 0.767506
0.110333 0.238717 0.765454
0.253568 0.236426 0.763163
0.396962 0.234131 0.760868
0.540273 0.231838 0.758575
0.683147 0.229552 0.756289
0.825185 0.227280 0.754017
0.965972 0.225027 0.751764
1.000000 0.223761 0.750498
0.000000 0.375127 0.759990
0.102817 0.373075 0.757938
0.246052 0.370784 0.755646
0.389446 0.368489 0.753352
0.532757 0.366196 0.751059
0.675630 0.363910 0.748773
0.817669 0.361638 0.746500
0.958456 0.359385 0.744248
1.000000 0.358119 0.742982
0.000000 0.509902 0.752450
0.095277 0.507850 0.750399
0.238512 0.505558 0.748107
0.381906 0.503264 0.745813
0.525218 0.500971 0.743520
0.668091 0.498685 0.741234
0.810129 0.496412 0.738961
0.950917 0.494160 0.736708
1.000000 0.492894 0.735442
0.000000 0.644668 0.744911
0.087738 0.642616 0.742860
0.230973 0.640324 0.740568
0.374367 0.638030 0.738274
0.517679 0.635737 0.735981
0.660552 0.633451 0.733695
0.802590 0.631178 0.731422
0.943378 0.628926 0.729169
1.000000 0.627660 0.727903
0.000000 0.779000 0.737397
0.080224 0.776949 0.735345
0.223459 0.774657 0.733053
0.366853 0.772363 0.730759
0.510164 0.770070 0.728466
0.653037 0.767784 0.726180
0.795075 0.765511 0.723907
0.935863 0.763258 0.721655
1.000000 0.761992 0.720389
0.000000 0.912474 0.729930
0.072757 0.910423 0.727878
0.215992 0.908131 0.725586
0.359386 0.905836 0.723292
0.502697 0.903543 0.720999
0.645570 0.901257 0.718713
0.787609 0.898985 0.716440
0.928396 0.896732 0.714188
1.000000 0.895466 0.712922
0.000000 1.000000 0.723994
0.066821 1.000000 0.721942
0.210056 1.000000 0.719651
0.353450 1.000000 0.717356
0.496761 1.000000 0.715063
0.639635 1.000000 0.712777
0.781673 1.000000 0.710505
0.922460 1.000000 0.708252
1.000000 1.000000 0.706986
0.000000 0.000000 0.917403
0.123305 0.000000 0.915351
0.266540 0.000000 0.913059
0.409934 0.000000 0.910765
0.553245 0.000000 0.908472
0.696118 0.000000 0.906186
0.838156 0.000000 0.903913
0.978944 0.000000 0.901661
1.000000 0.000000 0.900395
0.000000 0.106520 0.911168
0.117070 0.104468 0.909116
0.260305 0.102177 0.906824
0.403699 0.099882 0.904530
0.547010 0.097589 0.902237
0.689883 0.095303 0.899951
0.831922 0.093031 0.897679
0.972709 0.090778 0.895426
1.000000 0.089512 0.894160
0.000000 0.240037 0.903699
0.109601 0.237985 0.901647
0.252836 0.235693 0.899355
0.396230 0.233399 0.897061
0.539541 0.231106 0.894768
0.682414 0.228820 0.892482
0.824453 0.226547 0.890209
0.965240 0.224295 0.887957
1.000000 0.223029 0.886691
0.000000 0.374395 0.896183
0.102085 0.372343 0.894131
0.245320 0.370051 0.891839
0.388714 0.367757 0.889545
0.532025 0.365464 0.887252
0.674898 0.363178 0.884966
0.816936 0.360905 0.882693
0.957724 0.358653 0.880441
1.000000 0.357387 0.879175
0.000000 0.509170 0.888643
0.094545 0.507118 0.886591
0.237780 0.504826 0.884300
0.381174 0.502532 0.882005
0.524485 0.500239 0.879712
0.667359 0.497953 0.877426
0.809397 0.495680 0.875154
0.950184 0.493427 0.872901
1.000000 0.492162 0.871635
0.000000 0.643936 0.881104
0.087006 0.641884 0.879052
0.230241 0.639592 0.876761
0.373635 0.637298 0.874466
0.516946 0.635005 0.872173
0.659820 0.632719 0.869887
0.801858 0.630446 0.867615
0.942645 0.628194 0.865362
1.000000 0.626928 0.864096
0.000000 0.778268 0.873590
0.079491 0.776216 0.871538
0.222726 0.773925 0.869246
0.366120 0.771630 0.866952
0.509432 0.769337 0.864659
0.652305 0.767051 0.862373
0.794343 0.764779 0.860100
0.935131 0.762526 0.857847
1.000000 0.761260 0.856582
0.000000 0.911742 0.866123
0.072025 0.909690 0.864071
0.215260 0.907398 0.861779
0.358654 0.905104 0.859485
0.501965 0.902811 0.857192
0.644838 0.900525 0.854906
0.786876 0.898253 0.852633
0.927664 0.896000 0.850381
1.000000 0.894734 0.849115
0.000000 1.000000 0.860187
0.066089 1.000000 0.858135
0.209324 1.000000 0.855843
0.352718 1.000000 0.853549
0.496029 1.000000 0.851256
0.638902 1.000000 0.848970
0.780940 1.000000 0.846697
0.921728 1.000000 0.844445
1.000000 1.000000 0.843179
0.000000 0.000000 1.000000
0.122577 0.000000 1.000000
0.265812 0.000000 1.000000
0.409206 0.000000 1.000000
0.552517 0.000000 1.000000
0.695390 0.000000 1.000000
0.837428 0.000000 1.000000
0.978216 0.000000 1.000000
1.000000 0.000000 1.000000
0.000000 0.105792 1.000000
0.116342 0.103740 1.000000
0.259577 0.101449 1.000000
0.402971 0.099154 1.000000
0.546282 0.096861 1.000000
0.689155 0.094575 1.000000
0.831193 0.092303 1.000000
0.971981 0.090050 1.000000
1.000000 0.088784 1.000000
0.000000 0.239309 1.000000
0.108873 0.237257 1.000000
0.252108 0.234965 1.000000
0.395502 0.232671 1.000000
0.538813 0.230378 1.000000
0.681686 0.228092 1.000000
0.823724 0.225819 1.000000
0.964512 0.223567 1.000000
1.000000 0.222301 1.000000
0.000000 0.373667 1.000000
0.101356 0.371615 1.000000
0.244592 0.369323 1.000000
0.387985 0.367029 1.000000
0.531297 0.364736 1.000000
0.674170 0.362450 1.000000
0.816208 0.360177 1.000000
0.956996 0.357925 1.000000
1.000000 0.356659 1.000000
0.000000 0.508441 1.000000
0.093817 0.506390 1.000000
0.237052 0.504098 1.000000
0.380446 0.501804 1.000000
0.523757 0.499511 1.000000
0.666631 0.497225 1.000000
0.808669 0.494952 1.000000
0.949456 0.492699 1.000000
1.000000 0.491433 1.000000
0.000000 0.643208 1.000000
0.086278 0.641156 1.000000
0.229513 0.638864 1.000000
0.372907 0.636570 1.000000
0.516218 0.634277 1.000000
0.659091 0.631991 1.000000
0.801130 0.629718 1.000000
0.941917 0.627465 1.000000
1.000000 0.626200 0.999519
0.000000 0.777540 1.000000
0.078763 0.775488 1.000000
0.221998 0.773196 1.000000
0.365392 0.770902 1.000000
0.508704 0.768609 1.000000
0.651577 0.766323 0.997795
0.793615 0.764050 0.995522
0.934402 0.761798 0.993270
1.000000 0.760532 0.992004
0.000000 0.911014 1.000000
0.071296 0.908962 0.999493
0.214532 0.906670 0.997202
0.357925 0.904376 0.994907
0.501237 0.902083 0.992614
0.644110 0.899797 0.990328
0.786148 0.897524 0.988056
0.926936 0.895272 0.985803
1.000000 0.894006 0.984537
0.000000 1.000000 0.995609
0.065361 1.000000 0.993558
0.208596 1.000000 0.991266
0.351990 1.000000 0.988971
0.495301 1.000000 0.986678
0.638174 1.000000 0.984392
0.780212 1.000000 0.982120
0.921000 1.000000 0.979867
1.000000 1.000000 0.978601
