assets/preview/luts/warm_allpurpose.cube
TITLE "Warm All-Purpose"
LUT_3D_SIZE 33
DOMAIN_MIN 0.0 0.0 0.0
DOMAIN_MAX 1.0 1.0 1.0
0.000000 0.000000 0.000000
0.020789 0.000000 0.000000
0.056647 0.000000 0.000000
0.092449 0.000000 0.000000
0.128237 0.000000 0.000000
0.164028 0.000000 0.000000
0.199830 0.000000 0.000000
0.235644 0.000000 0.000000
0.271473 0.000000 0.000000
0.307312 0.000000 0.000000
0.343161 0.000000 0.000000
0.379013 0.000000 0.000000
0.414867 0.000000 0.000000
0.450715 0.000000 0.000000
0.486553 0.000000 0.000000
0.522376 0.000000 0.000000
0.558178 0.000000 0.000000
0.593952 0.000000 0.000000
0.629693 0.000000 0.000000
0.665395 0.000000 0.000000
0.701051 0.000000 0.000000
0.736655 0.000000 0.000000
0.772200 0.000000 0.000000
0.807681 0.000000 0.000000
0.843089 0.000000 0.000000
0.878420 0.000000 0.000000
0.913666 0.000000 0.000000
0.948820 0.000000 0.000000
0.983877 0.000000 0.000000
1.000000 0.000000 0.000000
1.000000 0.000000 0.000000
1.000000 0.000000 0.000000
1.000000 0.000000 0.000000
0.000000 0.012124 0.000000
0.020110 0.011791 0.000000
0.055969 0.011217 0.000000
0.091771 0.010644 0.000000
0.127559 0.010072 0.000000
0.163350 0.009499 0.000000
0.199151 0.008926 0.000000
0.234966 0.008353 0.000000
0.270794 0.007780 0.000000
0.306634 0.007207 0.000000
0.342482 0.006633 0.000000
0.378335 0.006059 0.000000
0.414188 0.005486 0.000000
0.450037 0.004912 0.000000
0.485875 0.004339 0.000000
0.521698 0.003765 0.000000
0.557500 0.003193 0.000000
0.593274 0.002620 0.000000
0.629015 0.002048 0.000000
0.664717 0.001477 0.000000
0.700373 0.000907 0.000000
0.735977 0.000337 0.000000
0.771522 0.000000 0.000000
0.807002 0.000000 0.000000
0.842411 0.000000 0.000000
0.877742 0.000000 0.000000
0.912988 0.000000 0.000000
0.948142 0.000000 0.000000
0.983199 0.000000 0.000000
1.000000 0.000000 0.000000
1.000000 0.000000 0.000000
1.000000 0.000000 0.000000
1.000000 0.000000 0.000000
0.000000 0.045143 0.000000
0.018263 0.044811 0.000000
0.054121 0.044237 0.000000
0.089924 0.043664 0.000000
0.125712 0.043091 0.000000
0.161503 0.042519 0.000000
0.197304 0.041946 0.000000
0.233119 0.041373 0.000000
0.268947 0.040800 0.000000
0.304787 0.040226 0.000000
0.340635 0.039653 0.000000
0.376488 0.039079 0.000000
0.412341 0.038505 0.000000
0.448190 0.037932 0.000000
0.484028 0.037358 0.000000
0.519851 0.036785 0.000000
0.555653 0.036212 0.000000
0.591427 0.035640 0.000000
0.627168 0.035068 0.000000
0.662870 0.034497 0.000000
0.698526 0.033926 0.000000
0.734130 0.033357 0.000000
0.769675 0.032788 0.000000
0.805155 0.032220 0.000000
0.840564 0.031654 0.000000
0.875895 0.031088 0.000000
0.911140 0.030524 0.000000
0.946295 0.029962 0.000000
0.981351 0.029401 0.000000
1.000000 0.028842 0.000000
1.000000 0.028284 0.000000
1.000000 0.028135 0.000000
1.000000 0.028135 0.000000
0.000000 0.078255 0.000000
0.016411 0.077923 0.000000
0.052269 0.077349 0.000000
0.088072 0.076776 0.000000
0.123860 0.076203 0.000000
0.159651 0.075631 0.000000
0.195452 0.075058 0.000000
0.231267 0.074485 0.000000
0.267095 0.073912 0.000000
0.302935 0.073338 0.000000
0.338783 0.072765 0.000000
0.374636 0.072191 0.000000
0.410489 0.071617 0.000000
0.446337 0.071044 0.000000
0.482176 0.070470 0.000000
0.517999 0.069897 0.000000
0.553800 0.069324 0.000000
0.589575 0.068752 0.000000
0.625316 0.068180 0.000000
0.661017 0.067609 0.000000
0.696673 0.067038 0.000000
0.732277 0.066469 0.000000
0.767823 0.065900 0.000000
0.803303 0.065332 0.000000
0.838712 0.064766 0.000000
0.874042 0.064200 0.000000
0.909288 0.063636 0.000000
0.944443 0.063074 0.000000
0.979499 0.062513 0.000000
1.000000 0.061954 0.000000
1.000000 0.061396 0.000000
1.000000 0.061247 0.000000
1.000000 0.061247 0.000000
0.000000 0.111453 0.000000
0.014554 0.111120 0.000000
0.050412 0.110547 0.000000
0.086215 0.109974 0.000000
0.122003 0.109401 0.000000
0.157793 0.108829 0.000000
0.193595 0.108256 0.000000
0.229410 0.107683 0.000000
0.265238 0.107109 0.000000
0.301077 0.106536 0.000000
0.336926 0.105962 0.000000
0.372779 0.105389 0.000000
0.408632 0.104815 0.000000
0.444480 0.104242 0.000000
0.480319 0.103668 0.000000
0.516141 0.103095 0.000000
0.551943 0.102522 0.000000
0.587717 0.101950 0.000000
0.623459 0.101378 0.000000
0.659160 0.100807 0.000000
0.694816 0.100236 0.000000
0.730420 0.099666 0.000000
0.765965 0.099098 0.000000
0.801446 0.098530 0.000000
0.836854 0.097964 0.000000
0.872185 0.097398 0.000000
0.907431 0.096834 0.000000
0.942585 0.096272 0.000000
0.977642 0.095711 0.000000
1.000000 0.095152 0.000000
1.000000 0.094594 0.000000
1.000000 0.094445 0.000000
1.000000 0.094445 0.000000
0.000000 0.144730 0.000000
0.012692 0.144397 0.000000
0.048550 0.143824 0.000000
0.084353 0.143251 0.000000
0.120141 0.142678 0.000000
0.155932 0.142106 0.000000
0.191733 0.141533 0.000000
0.227548 0.140960 0.000000
0.263376 0.140386 0.000000
0.299216 0.139813 0.000000
0.335064 0.139239 0.000000
0.370917 0.138666 0.000000
0.406770 0.138092 0.000000
0.442619 0.137519 0.000000
0.478457 0.136945 0.000000
0.514280 0.136372 0.000000
0.550081 0.135799 0.000000
0.585856 0.135227 0.000000
0.621597 0.134655 0.000000
0.657299 0.134084 0.000000
0.692955 0.133513 0.000000
0.728559 0.132943 0.000000
0.764104 0.132375 0.000000
0.799584 0.131807 0.000000
0.834993 0.131241 0.000000
0.870323 0.130675 0.000000
0.905569 0.130111 0.000000
0.940724 0.129549 0.000000
0.975780 0.128988 0.000000
1.000000 0.128429 0.000000
1.000000 0.127871 0.000000
1.000000 0.127722 0.000000
1.000000 0.127722 0.000000
0.000000 0.178080 0.000000
0.010826 0.177747 0.000000
0.046685 0.177173 0.000000
0.082487 0.176600 0.000000
0.118275 0.176028 0.000000
0.154066 0.175455 0.000000
0.189868 0.174882 0.000000
0.225682 0.174309 0.000000
0.261511 0.173736 0.000000
0.297350 0.173163 0.000000
0.333198 0.172589 0.000000
0.369051 0.172015 0.000000
0.404905 0.171442 0.000000
0.440753 0.170868 0.000000
0.476591 0.170295 0.000000
0.512414 0.169721 0.000000
0.548216 0.169149 0.000000
0.583990 0.168576 0.000000
0.619731 0.168004 0.000000
0.655433 0.167433 0.000000
0.691089 0.166863 0.000000
0.726693 0.166293 0.000000
0.762238 0.165724 0.000000
0.797719 0.165157 0.000000
0.833127 0.164590 0.000000
0.868458 0.164025 0.000000
0.903704 0.163461 0.000000
0.938858 0.162898 0.000000
0.973915 0.162337 0.000000
1.000000 0.161778 0.000000
1.000000 0.161221 0.000000
1.000000 0.161072 0.000000
1.000000 0.161072 0.000000
0.000000 0.211495 0.000000
0.008957 0.211162 0.000000
0.044816 0.210589 0.000000
0.080618 0.210016 0.000000
0.116406 0.209443 0.000000
0.152197 0.208871 0.000000
0.187998 0.208298 0.000000
0.223813 0.207725 0.000000
0.259641 0.207151 0.000000
0.295481 0.206578 0.000000
0.331329 0.206004 0.000000
0.367182 0.205431 0.000000
0.403035 0.204857 0.000000
0.438884 0.204283 0.000000
0.474722 0.203710 0.000000
0.510545 0.203137 0.000000
0.546347 0.202564 0.000000
0.582121 0.201992 0.000000
0.617862 0.201420 0.000000
0.653564 0.200849 0.000000
0.689220 0.200278 0.000000
0.724824 0.199708 0.000000
0.760369 0.199140 0.000000
0.795849 0.198572 0.000000
0.831258 0.198005 0.000000
0.866589 0.197440 0.000000
0.901834 0.196876 0.000000
0.936989 0.196314 0.000000
0.972045 0.195753 0.000000
1.000000 0.195194 0.000000
1.000000 0.194636 0.000000
1.000000 0.194487 0.000000
1.000000 0.194487 0.000000
0.000000 0.244970 0.000000
0.007085 0.244637 0.000000
0.042943 0.244063 0.000000
0.078746 0.243490 0.000000
0.114534 0.242918 0.000000
0.150324 0.242345 0.000000
0.186126 0.241772 0.000000
0.221940 0.241199 0.000000
0.257769 0.240626 0.000000
0.293608 0.240053 0.000000
0.329457 0.239479 0.000000
0.365309 0.238905 0.000000
0.401163 0.238332 0.000000
0.437011 0.237758 0.000000
0.472849 0.237185 0.000000
0.508672 0.236612 0.000000
0.544474 0.236039 0.000000
0.580248 0.235466 0.000000
0.615989 0.234894 0.000000
0.651691 0.234323 0.000000
0.687347 0.233753 0.000000
0.722951 0.233183 0.000000
0.758496 0.232614 0.000000
0.793977 0.232047 0.000000
0.829385 0.231480 0.000000
0.864716 0.230915 0.000000
0.899962 0.230351 0.000000
0.935116 0.229788 0.000000
0.970173 0.229227 0.000000
1.000000 0.228668 0.000000
1.000000 0.228111 0.000000
1.000000 0.227962 0.000000
1.000000 0.227962 0.000000
0.000000 0.278497 0.000000
0.005209 0.278164 0.000000
0.041067 0.277591 0.000000
0.076870 0.277018 0.000000
0.112658 0.276445 0.000000
0.148449 0.275872 0.000000
0.184250 0.275300 0.000000
0.220065 0.274727 0.000000
0.255893 0.274153 0.000000
0.291733 0.273580 0.000000
0.327581 0.273006 0.000000
0.363434 0.272433 0.000000
0.399287 0.271859 0.000000
0.435135 0.271285 0.000000
0.470974 0.270712 0.000000
0.506797 0.270139 0.000000
0.542598 0.269566 0.000000
0.578373 0.268994 0.000000
0.614114 0.268422 0.000000
0.649816 0.267850 0.000000
0.685472 0.267280 0.000000
0.721075 0.266710 0.000000
0.756621 0.266142 0.000000
0.792101 0.265574 0.000000
0.827510 0.265007 0.000000
0.862840 0.264442 0.000000
0.898086 0.263878 0.000000
0.933241 0.263316 0.000000
0.968297 0.262755 0.000000
1.000000 0.262195 0.000000
1.000000 0.261638 0.000000
1.000000 0.261489 0.000000
1.000000 0.261489 0.000000
0.000000 0.312070 0.000000
0.003331 0.311737 0.000000
0.039189 0.311164 0.000000
0.074992 0.310591 0.000000
0.110780 0.310018 0.000000
0.146571 0.309446 0.000000
0.182372 0.308873 0.000000
0.218187 0.308300 0.000000
0.254015 0.307726 0.000000
0.289855 0.307153 0.000000
0.325703 0.306579 0.000000
0.361556 0.306006 0.000000
0.397409 0.305432 0.000000
0.433257 0.304859 0.000000
0.469096 0.304285 0.000000
0.504919 0.303712 0.000000
0.540720 0.303139 0.000000
0.576495 0.302567 0.000000
0.612236 0.301995 0.000000
0.647937 0.301424 0.000000
0.683593 0.300853 0.000000
0.719197 0.300283 0.000000
0.754743 0.299715 0.000000
0.790223 0.299147 0.000000
0.825632 0.298581 0.000000
0.860962 0.298015 0.000000
0.896208 0.297451 0.000000
0.931363 0.296889 0.000000
0.966419 0.296328 0.000000
1.000000 0.295769 0.000000
1.000000 0.295211 0.000000
1.000000 0.295062 0.000000
1.000000 0.295062 0.000000
0.000000 0.345683 0.000000
0.001451 0.345350 0.000000
0.037309 0.344776 0.000000
0.073112 0.344203 0.000000
0.108900 0.343631 0.000000
0.144690 0.343058 0.000000
0.180492 0.342485 0.000000
0.216306 0.341912 0.000000
0.252135 0.341339 0.000000
0.287974 0.340766 0.000000
0.323823 0.340192 0.000000
0.359675 0.339618 0.000000
0.395529 0.339045 0.000000
0.431377 0.338471 0.000000
0.467215 0.337898 0.000000
0.503038 0.337324 0.000000
0.538840 0.336752 0.000000
0.574614 0.336179 0.000000
0.610355 0.335607 0.000000
0.646057 0.335036 0.000000
0.681713 0.334466 0.000000
0.717317 0.333896 0.000000
0.752862 0.333327 0.000000
0.788343 0.332760 0.000000
0.823751 0.332193 0.000000
0.859082 0.331628 0.000000
0.894328 0.331064 0.000000
0.929482 0.330501 0.000000
0.964539 0.329940 0.000000
0.999490 0.329381 0.000000
1.000000 0.328824 0.000000
1.000000 0.328675 0.000000
1.000000 0.328675 0.000000
0.000000 0.379328 0.000000
0.000000 0.378995 0.000000
0.035427 0.378421 0.000000
0.071229 0.377849 0.000000
0.107017 0.377276 0.000000
0.142808 0.376703 0.000000
0.178610 0.376130 0.000000
0.214424 0.375557 0.000000
0.250252 0.374984 0.000000
0.286092 0.374411 0.000000
0.321940 0.373837 0.000000
0.357793 0.373263 0.000000
0.393646 0.372690 0.000000
0.429495 0.372116 0.000000
0.465333 0.371543 0.000000
0.501156 0.370970 0.000000
0.536958 0.370397 0.000000
0.572732 0.369824 0.000000
0.608473 0.369253 0.000000
0.644175 0.368681 0.000000
0.679831 0.368111 0.000000
0.715435 0.367541 0.000000
0.750980 0.366972 0.000000
0.786460 0.366405 0.000000
0.821869 0.365838 0.000000
0.857200 0.365273 0.000000
0.892446 0.364709 0.000000
0.927600 0.364147 0.000000
0.962657 0.363586 0.000000
0.997608 0.363026 0.000000
1.000000 0.362469 0.000000
1.000000 0.362320 0.000000
1.000000 0.362320 0.000000
0.000000 0.412999 0.000000
0.000000 0.412666 0.000000
0.033543 0.412093 0.000000
0.069346 0.411520 0.000000
0.105134 0.410947 0.000000
0.140925 0.410374 0.000000
0.176726 0.409802 0.000000
0.212541 0.409229 0.000000
0.248369 0.408655 0.000000
0.284209 0.408082 0.000000
0.320057 0.407508 0.000000
0.355910 0.406935 0.000000
0.391763 0.406361 0.000000
0.427611 0.405787 0.000000
0.463450 0.405214 0.000000
0.499273 0.404641 0.000000
0.535074 0.404068 0.000000
0.570849 0.403496 0.000000
0.606590 0.402924 0.000000
0.642291 0.402353 0.000000
0.677947 0.401782 0.000000
0.713551 0.401212 0.000000
0.749096 0.400644 0.000000
0.784577 0.400076 0.000000
0.819986 0.399509 0.000000
0.855316 0.398944 0.000000
0.890562 0.398380 0.000000
0.925717 0.397818 0.000000
0.960773 0.397257 0.000000
0.995725 0.396698 0.000000
1.000000 0.396140 0.000000
1.000000 0.395991 0.000000
1.000000 0.395991 0.000000
0.000000 0.446690 0.000000
0.000000 0.446357 0.000000
0.031658 0.445783 0.000000
0.067461 0.445210 0.000000
0.103249 0.444638 0.000000
0.139040 0.444065 0.000000
0.174841 0.443492 0.000000
0.210656 0.442919 0.000000
0.246484 0.442346 0.000000
0.282324 0.441773 0.000000
0.318172 0.441199 0.000000
0.354025 0.440625 0.000000
0.389878 0.440052 0.000000
0.425726 0.439478 0.000000
0.461565 0.438905 0.000000
0.497388 0.438331 0.000000
0.533189 0.437759 0.000000
0.568964 0.437186 0.000000
0.604705 0.436614 0.000000
0.640407 0.436043 0.000000
0.676063 0.435473 0.000000
0.711666 0.434903 0.000000
0.747212 0.434334 0.000000
0.782692 0.433767 0.000000
0.818101 0.433200 0.000000
0.853431 0.432635 0.000000
0.888677 0.432071 0.000000
0.923832 0.431508 0.000000
0.958888 0.430947 0.000000
0.993840 0.430388 0.000000
1.000000 0.429831 0.000000
1.000000 0.429682 0.000000
1.000000 0.429682 0.000000
0.000000 0.480393 0.000000
0.000000 0.480060 0.000000
0.029773 0.479487 0.000000
0.065576 0.478914 0.000000
0.101364 0.478341 0.000000
0.137154 0.477768 0.000000
0.172956 0.477196 0.000000
0.208771 0.476623 0.000000
0.244599 0.476049 0.000000
0.280438 0.475476 0.000000
0.316287 0.474902 0.000000
0.352140 0.474329 0.000000
0.387993 0.473755 0.000000
0.423841 0.473181 0.000000
0.459679 0.472608 0.000000
0.495502 0.472035 0.000000
0.531304 0.471462 0.000000
0.567078 0.470890 0.000000
0.602820 0.470318 0.000000
0.638521 0.469747 0.000000
0.674177 0.469176 0.000000
0.709781 0.468606 0.000000
0.745326 0.468038 0.000000
0.780807 0.467470 0.000000
0.816215 0.466903 0.000000
0.851546 0.466338 0.000000
0.886792 0.465774 0.000000
0.921946 0.465212 0.000000
0.957003 0.464651 0.000000
0.991955 0.464092 0.000000
1.000000 0.463534 0.000000
1.000000 0.463385 0.000000
1.000000 0.463385 0.000000
0.000000 0.514102 0.000000
0.000000 0.513770 0.000000
0.027887 0.513196 0.000000
0.063690 0.512623 0.000000
0.099478 0.512051 0.000000
0.135269 0.511478 0.000000
0.171070 0.510905 0.000000
0.206885 0.510332 0.000000
0.242713 0.509759 0.000000
0.278553 0.509185 0.000000
0.314401 0.508612 0.000000
0.350254 0.508038 0.000000
0.386107 0.507464 0.000000
0.421955 0.506891 0.000000
0.457794 0.506317 0.000000
0.493617 0.505744 0.000000
0.529418 0.505171 0.000000
0.565193 0.504599 0.000000
0.600934 0.504027 0.000000
0.636636 0.503456 0.000000
0.672291 0.502885 0.000000
0.707895 0.502316 0.000000
0.743441 0.501747 0.000000
0.778921 0.501179 0.000000
0.814330 0.500613 0.000000
0.849660 0.500048 0.000000
0.884906 0.499484 0.000000
0.920061 0.498921 0.000000
0.955117 0.498360 0.000000
0.990069 0.497801 0.000000
1.000000 0.497244 0.000000
1.000000 0.497094 0.000000
1.000000 0.497094 0.000000
0.000000 0.547811 0.000000
0.000000 0.547479 0.000000
0.026001 0.546905 0.000000
0.061804 0.546332 0.000000
0.097592 0.545759 0.000000
0.133383 0.545187 0.000000
0.169184 0.544614 0.000000
0.204999 0.544041 0.000000
0.240827 0.543468 0.000000
0.276667 0.542894 0.000000
0.312515 0.542321 0.000000
0.348368 0.541747 0.000000
0.384221 0.541173 0.000000
0.420070 0.540600 0.000000
0.455908 0.540026 0.000000
0.491731 0.539453 0.000000
0.527533 0.538880 0.000000
0.563307 0.538308 0.000000
0.599048 0.537736 0.000000
0.634750 0.537165 0.000000
0.670406 0.536594 0.000000
0.706010 0.536025 0.000000
0.741555 0.535456 0.000000
0.777035 0.534888 0.000000
0.812444 0.534322 0.000000
0.847775 0.533756 0.000000
0.883020 0.533193 0.000000
0.918175 0.532630 0.000000
0.953231 0.532069 0.000000
0.988183 0.531510 0.000000
1.000000 0.530952 0.000000
1.000000 0.530803 0.000000
1.000000 0.530803 0.000000
0.000000 0.581513 0.000000
0.000000 0.581180 0.000000
0.024116 0.580607 0.000000
0.059919 0.580034 0.000000
0.095707 0.579461 0.000000
0.131498 0.578889 0.000000
0.167299 0.578316 0.000000
0.203114 0.577743 0.000000
0.238942 0.577169 0.000000
0.274782 0.576596 0.000000
0.310630 0.576022 0.000000
0.346483 0.575449 0.000000
0.382336 0.574875 0.000000
0.418184 0.574302 0.000000
0.454023 0.573728 0.000000
0.489846 0.573155 0.000000
0.525647 0.572582 0.000000
0.561422 0.572010 0.000000
0.597163 0.571438 0.000000
0.632864 0.570867 0.000000
0.668520 0.570296 0.000000
0.704124 0.569726 0.000000
0.739670 0.569158 0.000000
0.775150 0.568590 0.000000
0.810559 0.568024 0.000000
0.845889 0.567458 0.000000
0.881135 0.566894 0.000000
0.916290 0.566332 0.000000
0.951346 0.565771 0.000000
0.986298 0.565212 0.000000
1.000000 0.564654 0.000000
1.000000 0.564505 0.000000
1.000000 0.564505 0.000000
0.000000 0.615201 0.000000
0.000000 0.614868 0.000000
0.022232 0.614295 0.000000
0.058034 0.613722 0.000000
0.093822 0.613149 0.000000
0.129613 0.612577 0.000000
0.165414 0.612004 0.000000
0.201229 0.611431 0.000000
0.237057 0.610857 0.000000
0.272897 0.610284 0.000000
0.308745 0.609710 0.000000
0.344598 0.609137 0.000000
0.380451 0.608563 0.000000
0.416300 0.607989 0.000000
0.452138 0.607416 0.000000
0.487961 0.606843 0.000000
0.523763 0.606270 0.000000
0.559537 0.605698 0.000000
0.595278 0.605126 0.000000
0.630980 0.604555 0.000000
0.666636 0.603984 0.000000
0.702240 0.603414 0.000000
0.737785 0.602846 0.000000
0.773265 0.602278 0.000000
0.808674 0.601711 0.000000
0.844005 0.601146 0.000000
0.879251 0.600582 0.000000
0.914405 0.600020 0.000000
0.949461 0.599459 0.000000
0.984413 0.598900 0.000000
1.000000 0.598342 0.000000
1.000000 0.598193 0.000000
1.000000 0.598193 0.000000
0.000000 0.648868 0.000000
0.000000 0.648536 0.000000
0.020348 0.647962 0.000000
0.056151 0.647389 0.000000
0.091939 0.646817 0.000000
0.127730 0.646244 0.000000
0.163531 0.645671 0.000000
0.199346 0.645098 0.000000
0.235174 0.644525 0.000000
0.271014 0.643951 0.000000
0.306862 0.643378 0.000000
0.342715 0.642804 0.000000
0.378568 0.642231 0.000000
0.414416 0.641657 0.000000
0.450255 0.641084 0.000000
0.486078 0.640510 0.000000
0.521879 0.639938 0.000000
0.557654 0.639365 0.000000
0.593395 0.638793 0.000000
0.629096 0.638222 0.000000
0.664752 0.637652 0.000000
0.700356 0.637082 0.000000
0.735902 0.636513 0.000000
0.771382 0.635945 0.000000
0.806791 0.635379 0.000000
0.842121 0.634814 0.000000
0.877367 0.634250 0.000000
0.912522 0.633687 0.000000
0.947578 0.633126 0.000000
0.982530 0.632567 0.000000
1.000000 0.632010 0.000000
1.000000 0.631860 0.000000
1.000000 0.631860 0.000000
0.000000 0.682509 0.000000
0.000000 0.682176 0.000000
0.018466 0.681602 0.000000
0.054269 0.681030 0.000000
0.090057 0.680457 0.000000
0.125848 0.679884 0.000000
0.161649 0.679312 0.000000
0.197464 0.678739 0.000000
0.233292 0.678165 0.000000
0.269132 0.677592 0.000000
0.304980 0.677018 0.000000
0.340833 0.676445 0.000000
0.376686 0.675871 0.000000
0.412534 0.675297 0.000000
0.448373 0.674724 0.000000
0.484196 0.674151 0.000000
0.519997 0.673578 0.000000
0.555772 0.673006 0.000000
0.591513 0.672434 0.000000
0.627215 0.671862 0.000000
0.662871 0.671292 0.000000
0.698474 0.670722 0.000000
0.734020 0.670154 0.000000
0.769500 0.669586 0.000000
0.804909 0.669019 0.000000
0.840239 0.668454 0.000000
0.875485 0.667890 0.000000
0.910640 0.667328 0.000000
0.945696 0.666767 0.000000
0.980648 0.666207 0.000000
1.000000 0.665650 0.000000
1.000000 0.665501 0.000000
1.000000 0.665501 0.000000
0.000000 0.716115 0.000000
0.000000 0.715783 0.000000
0.016586 0.715209 0.000000
0.052389 0.714636 0.000000
0.088177 0.714064 0.000000
0.123968 0.713491 0.000000
0.159769 0.712918 0.000000
0.195584 0.712345 0.000000
0.231412 0.711772 0.000000
0.267252 0.711198 0.000000
0.303100 0.710625 0.000000
0.338953 0.710051 0.000000
0.374806 0.709478 0.000000
0.410654 0.708904 0.000000
0.446493 0.708331 0.000000
0.482316 0.707757 0.000000
0.518117 0.707185 0.000000
0.553892 0.706612 0.000000
0.589633 0.706040 0.000000
0.625335 0.705469 0.000000
0.660991 0.704899 0.000000
0.696594 0.704329 0.000000
0.732140 0.703760 0.000000
0.767620 0.703192 0.000000
0.803029 0.702626 0.000000
0.838359 0.702061 0.000000
0.873605 0.701497 0.000000
0.908760 0.700934 0.000000
0.943816 0.700373 0.000000
0.978768 0.699814 0.000000
1.000000 0.699257 0.000000
1.000000 0.699107 0.000000
1.000000 0.699107 0.000000
0.000000 0.749682 0.000000
0.000000 0.749349 0.000000
0.014709 0.748775 0.000000
0.050511 0.748203 0.000000
0.086299 0.747630 0.000000
0.122090 0.747057 0.000000
0.157891 0.746484 0.000000
0.193706 0.745911 0.000000
0.229534 0.745338 0.000000
0.265374 0.744765 0.000000
0.301222 0.744191 0.000000
0.337075 0.743617 0.000000
0.372928 0.743044 0.000000
0.408777 0.742470 0.000000
0.444615 0.741897 0.000000
0.480438 0.741324 0.000000
0.516240 0.740751 0.000000
0.552014 0.740178 0.000000
0.587755 0.739607 0.000000
0.623457 0.739035 0.000000
0.659113 0.738465 0.000000
0.694717 0.737895 0.000000
0.730262 0.737326 0.000000
0.765742 0.736759 0.000000
0.801151 0.736192 0.000000
0.836482 0.735627 0.000000
0.871728 0.735063 0.000000
0.906882 0.734500 0.000000
0.941938 0.733940 0.000000
0.976890 0.733380 0.000000
1.000000 0.732823 0.000000
1.000000 0.732674 0.000000
1.000000 0.732674 0.000000
0.000000 0.783201 0.000000
0.000000 0.782868 0.000000
0.012833 0.782295 0.000000
0.048636 0.781722 0.000000
0.084424 0.781149 0.000000
0.120215 0.780576 0.000000
0.156016 0.780004 0.000000
0.191831 0.779431 0.000000
0.227659 0.778857 0.000000
0.263499 0.778284 0.000000
0.299347 0.777710 0.000000
0.335200 0.777137 0.000000
0.371053 0.776563 0.000000
0.406902 0.775989 0.000000
0.442740 0.775416 0.000000
0.478563 0.774843 0.000000
0.514364 0.774270 0.000000
0.550139 0.773698 0.000000
0.585880 0.773126 0.000000
0.621582 0.772555 0.000000
0.657238 0.771984 0.000000
0.692842 0.771414 0.000000
0.728387 0.770846 0.000000
0.763867 0.770278 0.000000
0.799276 0.769711 0.000000
0.834607 0.769146 0.000000
0.869852 0.768582 0.000000
0.905007 0.768020 0.000000
0.940063 0.767459 0.000000
0.975015 0.766900 0.000000
1.000000 0.766342 0.000000
1.000000 0.766193 0.000000
1.000000 0.766193 0.000000
0.000000 0.816667 0.000000
0.000000 0.816334 0.000000
0.010961 0.815760 0.000000
0.046764 0.815187 0.000000
0.082552 0.814615 0.000000
0.118343 0.814042 0.000000
0.154144 0.813469 0.000000
0.189959 0.812896 0.000000
0.225787 0.812323 0.000000
0.261627 0.811749 0.000000
0.297475 0.811176 0.000000
0.333328 0.810602 0.000000
0.369181 0.810029 0.000000
0.405029 0.809455 0.000000
0.440868 0.808882 0.000000
0.476691 0.808308 0.000000
0.512492 0.807736 0.000000
0.548267 0.807163 0.000000
0.584008 0.806591 0.000000
0.619710 0.806020 0.000000
0.655366 0.805450 0.000000
0.690969 0.804880 0.000000
0.726515 0.804311 0.000000
0.761995 0.803744 0.000000
0.797404 0.803177 0.000000
0.832734 0.802612 0.000000
0.867980 0.802048 0.000000
0.903135 0.801485 0.000000
0.938191 0.800924 0.000000
0.973143 0.800365 0.000000
1.000000 0.799808 0.000000
1.000000 0.799659 0.000000
1.000000 0.799659 0.000000
0.000000 0.850072 0.000000
0.000000 0.849739 0.000000
0.009093 0.849165 0.000000
0.044895 0.848593 0.000000
0.080683 0.848020 0.000000
0.116474 0.847447 0.000000
0.152275 0.846874 0.000000
0.188090 0.846301 0.000000
0.223918 0.845728 0.000000
0.259758 0.845155 0.000000
0.295606 0.844581 0.000000
0.331459 0.844008 0.000000
0.367312 0.843434 0.000000
0.403161 0.842860 0.000000
0.438999 0.842287 0.000000
0.474822 0.841714 0.000000
0.510624 0.841141 0.000000
0.546398 0.840568 0.000000
0.582139 0.839997 0.000000
0.617841 0.839425 0.000000
0.653497 0.838855 0.000000
0.689101 0.838285 0.000000
0.724646 0.837716 0.000000
0.760126 0.837149 0.000000
0.795535 0.836582 0.000000
0.830866 0.836017 0.000000
0.866112 0.835453 0.000000
