assets/preview/luts/warm_golden_hour.cube
TITLE "Warm Golden Hour"
LUT_3D_SIZE 33
DOMAIN_MIN 0.0 0.0 0.0
DOMAIN_MAX 1.0 1.0 1.0
0.032092 0.010549 0.000000
0.071385 0.009633 0.000000
0.109481 0.008745 0.000000
0.146882 0.007873 0.000000
0.183792 0.007013 0.000000
0.220323 0.006162 0.000000
0.256547 0.005317 0.000000
0.292510 0.004479 0.000000
0.328250 0.003646 0.000000
0.363794 0.002817 0.000000
0.399162 0.001993 0.000000
0.434373 0.001172 0.000000
0.469439 0.000355 0.000000
0.504374 0.000000 0.000000
0.539187 0.000000 0.000000
0.573887 0.000000 0.000000
0.608481 0.000000 0.000000
0.642977 0.000000 0.000000
0.677379 0.000000 0.000000
0.711694 0.000000 0.000000
0.745926 0.000000 0.000000
0.780079 0.000000 0.000000
0.814157 0.000000 0.000000
0.848163 0.000000 0.000000
0.882101 0.000000 0.000000
0.915973 0.000000 0.000000
0.949783 0.000000 0.000000
0.983532 0.000000 0.000000
1.000000 0.000000 0.000000
1.000000 0.000000 0.000000
1.000000 0.000000 0.000000
1.000000 0.000000 0.000000
1.000000 0.000000 0.000000
0.029059 0.044310 0.000000
0.068352 0.043394 0.000000
0.106448 0.042506 0.000000
0.143848 0.041634 0.000000
0.180759 0.040774 0.000000
0.217290 0.039922 0.000000
0.253513 0.039078 0.000000
0.289477 0.038240 0.000000
0.325217 0.037406 0.000000
0.360760 0.036578 0.000000
0.396129 0.035754 0.000000
0.431339 0.034933 0.000000
0.466406 0.034115 0.000000
0.501340 0.033301 0.000000
0.536153 0.032490 0.000000
0.570853 0.031681 0.000000
0.605448 0.030874 0.000000
0.639943 0.030070 0.000000
0.674346 0.029268 0.000000
0.708661 0.028469 0.000000
0.742892 0.027671 0.000000
0.777045 0.026875 0.000000
0.811123 0.026080 0.000000
0.845129 0.025288 0.000000
0.879067 0.024496 0.000000
0.912939 0.023707 0.000000
0.946749 0.022919 0.000000
0.980498 0.022132 0.000000
1.000000 0.021347 0.000000
1.000000 0.020563 0.000000
1.000000 0.019780 0.000000
1.000000 0.019562 0.000000
1.000000 0.019562 0.000000
0.026076 0.077510 0.000000
0.065369 0.076594 0.000000
0.103464 0.075706 0.000000
0.140865 0.074835 0.000000
0.177775 0.073974 0.000000
0.214307 0.073123 0.000000
0.250530 0.072278 0.000000
0.286494 0.071440 0.000000
0.322234 0.070607 0.000000
0.357777 0.069778 0.000000
0.393146 0.068954 0.000000
0.428356 0.068133 0.000000
0.463422 0.067316 0.000000
0.498357 0.066502 0.000000
0.533170 0.065690 0.000000
0.567870 0.064881 0.000000
0.602464 0.064075 0.000000
0.636960 0.063271 0.000000
0.671362 0.062469 0.000000
0.705677 0.061669 0.000000
0.739909 0.060871 0.000000
0.774062 0.060075 0.000000
0.808140 0.059281 0.000000
0.842146 0.058488 0.000000
0.876084 0.057697 0.000000
0.909956 0.056907 0.000000
0.943766 0.056119 0.000000
0.977515 0.055333 0.000000
1.000000 0.054547 0.000000
1.000000 0.053763 0.000000
1.000000 0.052981 0.000000
1.000000 0.052757 0.000000
1.000000 0.052757 0.000000
0.023118 0.110422 0.000000
0.062411 0.109506 0.000000
0.100507 0.108618 0.000000
0.137908 0.107747 0.000000
0.174818 0.106886 0.000000
0.211349 0.106035 0.000000
0.247572 0.105190 0.000000
0.283536 0.104352 0.000000
0.319276 0.103519 0.000000
0.354820 0.102691 0.000000
0.390188 0.101866 0.000000
0.425399 0.101045 0.000000
0.460465 0.100228 0.000000
0.495400 0.099414 0.000000
0.530213 0.098602 0.000000
0.564913 0.097793 0.000000
0.599507 0.096987 0.000000
0.634003 0.096183 0.000000
0.668405 0.095381 0.000000
0.702720 0.094581 0.000000
0.736952 0.093783 0.000000
0.771105 0.092987 0.000000
0.805183 0.092193 0.000000
0.839189 0.091400 0.000000
0.873127 0.090609 0.000000
0.906999 0.089819 0.000000
0.940808 0.089031 0.000000
0.974558 0.088245 0.000000
1.000000 0.087459 0.000000
1.000000 0.086675 0.000000
1.000000 0.085893 0.000000
1.000000 0.085664 0.000000
1.000000 0.085664 0.000000
0.020179 0.143138 0.000000
0.059472 0.142222 0.000000
0.097568 0.141334 0.000000
0.134968 0.140462 0.000000
0.171878 0.139602 0.000000
0.208410 0.138750 0.000000
0.244633 0.137906 0.000000
0.280597 0.137067 0.000000
0.316337 0.136234 0.000000
0.351880 0.135406 0.000000
0.387249 0.134581 0.000000
0.422459 0.133761 0.000000
0.457525 0.132943 0.000000
0.492460 0.132129 0.000000
0.527273 0.131318 0.000000
0.561973 0.130509 0.000000
0.596567 0.129702 0.000000
0.631063 0.128898 0.000000
0.665466 0.128096 0.000000
0.699780 0.127297 0.000000
0.734012 0.126499 0.000000
0.768165 0.125702 0.000000
0.802243 0.124908 0.000000
0.836249 0.124115 0.000000
0.870187 0.123324 0.000000
0.904059 0.122535 0.000000
0.937869 0.121747 0.000000
0.971618 0.120960 0.000000
1.000000 0.120175 0.000000
1.000000 0.119391 0.000000
1.000000 0.118608 0.000000
1.000000 0.118374 0.000000
1.000000 0.118374 0.000000
0.017253 0.175704 0.000000
0.056546 0.174788 0.000000
0.094641 0.173900 0.000000
0.132042 0.173028 0.000000
0.168952 0.172168 0.000000
0.205483 0.171316 0.000000
0.241707 0.170472 0.000000
0.277670 0.169633 0.000000
0.313411 0.168800 0.000000
0.348954 0.167972 0.000000
0.384322 0.167147 0.000000
0.419533 0.166327 0.000000
0.454599 0.165509 0.000000
0.489534 0.164695 0.000000
0.524347 0.163884 0.000000
0.559047 0.163075 0.000000
0.593641 0.162268 0.000000
0.628137 0.161464 0.000000
0.662539 0.160662 0.000000
0.696854 0.159863 0.000000
0.731086 0.159065 0.000000
0.765239 0.158268 0.000000
0.799317 0.157474 0.000000
0.833323 0.156681 0.000000
0.867261 0.155890 0.000000
0.901133 0.155101 0.000000
0.934943 0.154313 0.000000
0.968692 0.153526 0.000000
1.000000 0.152741 0.000000
1.000000 0.151957 0.000000
1.000000 0.151174 0.000000
1.000000 0.150935 0.000000
1.000000 0.150935 0.000000
0.014337 0.208149 0.000000
0.053630 0.207233 0.000000
0.091726 0.206345 0.000000
0.129127 0.205474 0.000000
0.166037 0.204613 0.000000
0.202568 0.203762 0.000000
0.238791 0.202917 0.000000
0.274755 0.202079 0.000000
0.310495 0.201246 0.000000
0.346039 0.200417 0.000000
0.381407 0.199593 0.000000
0.416617 0.198772 0.000000
0.451684 0.197955 0.000000
0.486619 0.197141 0.000000
0.521432 0.196329 0.000000
0.556131 0.195520 0.000000
0.590726 0.194714 0.000000
0.625221 0.193910 0.000000
0.659624 0.193108 0.000000
0.693939 0.192308 0.000000
0.728171 0.191510 0.000000
0.762324 0.190714 0.000000
0.796401 0.189920 0.000000
0.830408 0.189127 0.000000
0.864345 0.188336 0.000000
0.898218 0.187546 0.000000
0.932027 0.186758 0.000000
0.965776 0.185972 0.000000
0.999467 0.185186 0.000000
1.000000 0.184402 0.000000
1.000000 0.183620 0.000000
1.000000 0.183375 0.000000
1.000000 0.183375 0.000000
0.011431 0.240494 0.000000
0.050724 0.239578 0.000000
0.088820 0.238690 0.000000
0.126220 0.237818 0.000000
0.163131 0.236958 0.000000
0.199662 0.236106 0.000000
0.235885 0.235262 0.000000
0.271849 0.234424 0.000000
0.307589 0.233591 0.000000
0.343132 0.232762 0.000000
0.378501 0.231938 0.000000
0.413711 0.231117 0.000000
0.448778 0.230300 0.000000
0.483712 0.229485 0.000000
0.518525 0.228674 0.000000
0.553225 0.227865 0.000000
0.587820 0.227059 0.000000
0.622315 0.226254 0.000000
0.656718 0.225453 0.000000
0.691033 0.224653 0.000000
0.725264 0.223855 0.000000
0.759417 0.223059 0.000000
0.793495 0.222264 0.000000
0.827501 0.221472 0.000000
0.861439 0.220681 0.000000
0.895311 0.219891 0.000000
0.929121 0.219103 0.000000
0.962870 0.218316 0.000000
0.996561 0.217531 0.000000
1.000000 0.216747 0.000000
1.000000 0.215964 0.000000
1.000000 0.215715 0.000000
1.000000 0.215715 0.000000
0.008532 0.272752 0.000000
0.047825 0.271836 0.000000
0.085921 0.270948 0.000000
0.123322 0.270076 0.000000
0.160232 0.269216 0.000000
0.196763 0.268364 0.000000
0.232986 0.267520 0.000000
0.268950 0.266682 0.000000
0.304690 0.265848 0.000000
0.340234 0.265020 0.000000
0.375602 0.264196 0.000000
0.410813 0.263375 0.000000
0.445879 0.262557 0.000000
0.480814 0.261743 0.000000
0.515627 0.260932 0.000000
0.550327 0.260123 0.000000
0.584921 0.259316 0.000000
0.619417 0.258512 0.000000
0.653819 0.257710 0.000000
0.688134 0.256911 0.000000
0.722366 0.256113 0.000000
0.756519 0.255317 0.000000
0.790597 0.254522 0.000000
0.824603 0.253730 0.000000
0.858541 0.252938 0.000000
0.892413 0.252149 0.000000
0.926222 0.251361 0.000000
0.959972 0.250574 0.000000
0.993663 0.249789 0.000000
1.000000 0.249005 0.000000
1.000000 0.248222 0.000000
1.000000 0.247968 0.000000
1.000000 0.247968 0.000000
0.005641 0.304934 0.000000
0.044934 0.304018 0.000000
0.083029 0.303130 0.000000
0.120430 0.302258 0.000000
0.157340 0.301398 0.000000
0.193872 0.300546 0.000000
0.230095 0.299702 0.000000
0.266059 0.298863 0.000000
0.301799 0.298030 0.000000
0.337342 0.297202 0.000000
0.372711 0.296377 0.000000
0.407921 0.295557 0.000000
0.442987 0.294739 0.000000
0.477922 0.293925 0.000000
0.512735 0.293113 0.000000
0.547435 0.292305 0.000000
0.582029 0.291498 0.000000
0.616525 0.290694 0.000000
0.650927 0.289892 0.000000
0.685242 0.289092 0.000000
0.719474 0.288294 0.000000
0.753627 0.287498 0.000000
0.787705 0.286704 0.000000
0.821711 0.285911 0.000000
0.855649 0.285120 0.000000
0.889521 0.284331 0.000000
0.923331 0.283543 0.000000
0.957080 0.282756 0.000000
0.990771 0.281971 0.000000
1.000000 0.281187 0.000000
1.000000 0.280404 0.000000
1.000000 0.280144 0.000000
1.000000 0.280144 0.000000
0.002755 0.337048 0.000000
0.042048 0.336132 0.000000
0.080144 0.335244 0.000000
0.117545 0.334372 0.000000
0.154455 0.333512 0.000000
0.190986 0.332660 0.000000
0.227209 0.331816 0.000000
0.263173 0.330977 0.000000
0.298913 0.330144 0.000000
0.334457 0.329316 0.000000
0.369825 0.328491 0.000000
0.405035 0.327671 0.000000
0.440102 0.326853 0.000000
0.475036 0.326039 0.000000
0.509849 0.325228 0.000000
0.544549 0.324419 0.000000
0.579144 0.323612 0.000000
0.613639 0.322808 0.000000
0.648042 0.322006 0.000000
0.682357 0.321206 0.000000
0.716589 0.320409 0.000000
0.750741 0.319612 0.000000
0.784819 0.318818 0.000000
0.818826 0.318025 0.000000
0.852763 0.317234 0.000000
0.886636 0.316445 0.000000
0.920445 0.315657 0.000000
0.954194 0.314870 0.000000
0.987885 0.314085 0.000000
1.000000 0.313301 0.000000
1.000000 0.312518 0.000000
1.000000 0.312253 0.000000
1.000000 0.312253 0.000000
0.000000 0.369101 0.000000
0.039168 0.368185 0.000000
0.077264 0.367297 0.000000
0.114665 0.366425 0.000000
0.151575 0.365565 0.000000
0.188106 0.364713 0.000000
0.224329 0.363869 0.000000
0.260293 0.363030 0.000000
0.296033 0.362197 0.000000
0.331577 0.361369 0.000000
0.366945 0.360544 0.000000
0.402155 0.359724 0.000000
0.437222 0.358906 0.000000
0.472156 0.358092 0.000000
0.506969 0.357281 0.000000
0.541669 0.356472 0.000000
0.576264 0.355665 0.000000
0.610759 0.354861 0.000000
0.645162 0.354059 0.000000
0.679477 0.353259 0.000000
0.713708 0.352462 0.000000
0.747861 0.351665 0.000000
0.781939 0.350871 0.000000
0.815945 0.350078 0.000000
0.849883 0.349287 0.000000
0.883756 0.348498 0.000000
0.917565 0.347710 0.000000
0.951314 0.346923 0.000000
0.985005 0.346138 0.000000
1.000000 0.345354 0.000000
1.000000 0.344571 0.000000
1.000000 0.344301 0.000000
1.000000 0.344301 0.000000
0.000000 0.401098 0.000000
0.036293 0.400182 0.000000
0.074389 0.399294 0.000000
0.111789 0.398422 0.000000
0.148699 0.397562 0.000000
0.185231 0.396711 0.000000
0.221454 0.395866 0.000000
0.257418 0.395028 0.000000
0.293158 0.394195 0.000000
0.328701 0.393366 0.000000
0.364070 0.392542 0.000000
0.399280 0.391721 0.000000
0.434347 0.390904 0.000000
0.469281 0.390090 0.000000
0.504094 0.389278 0.000000
0.538794 0.388469 0.000000
0.573389 0.387663 0.000000
0.607884 0.386859 0.000000
0.642287 0.386057 0.000000
0.676602 0.385257 0.000000
0.710833 0.384459 0.000000
0.744986 0.383663 0.000000
0.779064 0.382869 0.000000
0.813070 0.382076 0.000000
0.847008 0.381285 0.000000
0.880880 0.380495 0.000000
0.914690 0.379707 0.000000
0.948439 0.378921 0.000000
0.982130 0.378135 0.000000
1.000000 0.377351 0.000000
1.000000 0.376568 0.000000
1.000000 0.376294 0.000000
1.000000 0.376294 0.000000
0.000000 0.433045 0.000000
0.033422 0.432129 0.000000
0.071518 0.431241 0.000000
0.108919 0.430369 0.000000
0.145829 0.429509 0.000000
0.182360 0.428657 0.000000
0.218583 0.427813 0.000000
0.254547 0.426975 0.000000
0.290287 0.426141 0.000000
0.325831 0.425313 0.000000
0.361199 0.424489 0.000000
0.396409 0.423668 0.000000
0.431476 0.422850 0.000000
0.466411 0.422036 0.000000
0.501224 0.421225 0.000000
0.535924 0.420416 0.000000
0.570518 0.419609 0.000000
0.605014 0.418805 0.000000
0.639416 0.418003 0.000000
0.673731 0.417204 0.000000
0.707963 0.416406 0.000000
0.742116 0.415610 0.000000
0.776193 0.414815 0.000000
0.810200 0.414023 0.000000
0.844138 0.413231 0.000000
0.878010 0.412442 0.000000
0.911819 0.411654 0.000000
0.945569 0.410867 0.000000
0.979260 0.410082 0.000000
1.000000 0.409298 0.000000
1.000000 0.408515 0.000000
1.000000 0.408235 0.000000
1.000000 0.408235 0.000000
0.000000 0.464944 0.000000
0.030556 0.464028 0.000000
0.068652 0.463140 0.000000
0.106053 0.462269 0.000000
0.142963 0.461408 0.000000
0.179494 0.460557 0.000000
0.215717 0.459712 0.000000
0.251681 0.458874 0.000000
0.287421 0.458041 0.000000
0.322965 0.457212 0.000000
0.358333 0.456388 0.000000
0.393543 0.455567 0.000000
0.428610 0.454750 0.000000
0.463544 0.453936 0.000000
0.498357 0.453124 0.000000
0.533057 0.452315 0.000000
0.567652 0.451509 0.000000
0.602147 0.450705 0.000000
0.636550 0.449903 0.000000
0.670865 0.449103 0.000000
0.705096 0.448305 0.000000
0.739249 0.447509 0.000000
0.773327 0.446715 0.000000
0.807333 0.445922 0.000000
0.841271 0.445131 0.000000
0.875144 0.444341 0.000000
0.908953 0.443553 0.000000
0.942702 0.442767 0.000000
0.976393 0.441981 0.000000
1.000000 0.441197 0.000000
1.000000 0.440415 0.000000
1.000000 0.440129 0.000000
1.000000 0.440129 0.000000
0.000000 0.496800 0.000000
0.027694 0.495884 0.000000
0.065789 0.494996 0.000000
0.103190 0.494124 0.000000
0.140100 0.493264 0.000000
0.176632 0.492413 0.000000
0.212855 0.491568 0.000000
0.248819 0.490730 0.000000
0.284559 0.489897 0.000000
0.320102 0.489068 0.000000
0.355470 0.488244 0.000000
0.390681 0.487423 0.000000
0.425747 0.486606 0.000000
0.460682 0.485792 0.000000
0.495495 0.484980 0.000000
0.530195 0.484171 0.000000
0.564789 0.483365 0.000000
0.599285 0.482561 0.000000
0.633687 0.481759 0.000000
0.668002 0.480959 0.000000
0.702234 0.480161 0.000000
0.736387 0.479365 0.000000
0.770465 0.478571 0.000000
0.804471 0.477778 0.000000
0.838409 0.476987 0.000000
0.872281 0.476197 0.000000
0.906091 0.475409 0.000000
0.939840 0.474623 0.000000
0.973531 0.473837 0.000000
1.000000 0.473053 0.000000
1.000000 0.472362 0.000000
1.000000 0.472133 0.000000
1.000000 0.472133 0.000000
0.000000 0.528615 0.000000
0.024835 0.527699 0.000000
0.062931 0.526811 0.000000
0.100331 0.525940 0.000000
0.137242 0.525079 0.000000
0.173773 0.524228 0.000000
0.209996 0.523383 0.000000
0.245960 0.522545 0.000000
0.281700 0.521712 0.000000
0.317243 0.520883 0.000000
0.352612 0.520059 0.000000
0.387822 0.519238 0.000000
0.422889 0.518421 0.000000
0.457823 0.517607 0.000000
0.492636 0.516795 0.000000
0.527336 0.515986 0.000000
0.561931 0.515180 0.000000
0.596426 0.514376 0.000000
0.630829 0.513574 0.000000
0.665144 0.512774 0.000000
0.699375 0.511976 0.000000
0.733528 0.511180 0.000000
0.767606 0.510386 0.000000
0.801612 0.509593 0.000000
0.835550 0.508802 0.000000
0.869423 0.508012 0.000000
0.903234 0.507225 0.000000
0.937355 0.506580 0.000000
0.971418 0.505937 0.000000
1.000000 0.505294 0.000000
1.000000 0.504653 0.000000
1.000000 0.504448 0.000000
1.000000 0.504448 0.000000
0.000000 0.560392 0.000000
0.021980 0.559476 0.000000
0.060075 0.558588 0.000000
0.097476 0.557716 0.000000
0.134386 0.556856 0.000000
0.170918 0.556005 0.000000
0.207141 0.555160 0.000000
0.243105 0.554322 0.000000
0.278845 0.553489 0.000000
0.314388 0.552660 0.000000
0.349756 0.551836 0.000000
0.384967 0.551015 0.000000
0.420033 0.550198 0.000000
0.454968 0.549383 0.000000
0.489781 0.548572 0.000000
0.524481 0.547763 0.000000
0.559075 0.546957 0.000000
0.593571 0.546153 0.000000
0.627973 0.545351 0.000000
0.662288 0.544551 0.000000
0.696520 0.543753 0.000000
0.730673 0.542957 0.000000
0.764751 0.542163 0.000000
0.798883 0.541418 0.000000
0.833195 0.540770 0.000000
0.867441 0.540123 0.000000
0.901624 0.539477 0.000000
0.935745 0.538832 0.000000
0.969808 0.538189 0.000000
1.000000 0.537546 0.000000
1.000000 0.536905 0.000000
1.000000 0.536725 0.000000
1.000000 0.536725 0.000000
0.000000 0.592133 0.000000
0.019128 0.591217 0.000000
0.057223 0.590329 0.000000
0.094624 0.589457 0.000000
0.131534 0.588597 0.000000
0.168065 0.587745 0.000000
0.204289 0.586901 0.000000
0.240252 0.586063 0.000000
0.275993 0.585230 0.000000
0.311536 0.584401 0.000000
0.346904 0.583577 0.000000
0.382115 0.582756 0.000000
0.417181 0.581939 0.000000
0.452116 0.581124 0.000000
0.486929 0.580313 0.000000
0.521629 0.579504 0.000000
0.556223 0.578698 0.000000
0.590719 0.577894 0.000000
0.625121 0.577092 0.000000
0.659436 0.576292 0.000000
0.693910 0.575586 0.000000
0.728440 0.574934 0.000000
0.762894 0.574283 0.000000
0.797275 0.573633 0.000000
0.831587 0.572985 0.000000
0.865833 0.572338 0.000000
0.900016 0.571692 0.000000
0.934137 0.571047 0.000000
0.968200 0.570404 0.000000
1.000000 0.569761 0.000000
1.000000 0.569120 0.000000
1.000000 0.568965 0.000000
1.000000 0.568965 0.000000
0.000000 0.623840 0.000000
0.016279 0.622924 0.000000
0.054374 0.622036 0.000000
0.091775 0.621164 0.000000
0.128685 0.620304 0.000000
0.165216 0.619452 0.000000
0.201440 0.618608 0.000000
0.237403 0.617770 0.000000
0.273144 0.616937 0.000000
0.308687 0.616108 0.000000
0.344055 0.615284 0.000000
0.379266 0.614463 0.000000
0.414332 0.613646 0.000000
0.449267 0.612831 0.000000
0.484080 0.612020 0.000000
0.518780 0.611211 0.000000
0.553374 0.610405 0.000000
0.588219 0.609734 0.000000
0.623001 0.609077 0.000000
0.657695 0.608421 0.000000
0.692304 0.607767 0.000000
0.726834 0.607115 0.000000
0.761287 0.606464 0.000000
0.795669 0.605814 0.000000
0.829981 0.605166 0.000000
0.864227 0.604519 0.000000
0.898410 0.603873 0.000000
0.932531 0.603228 0.000000
0.966594 0.602585 0.000000
1.000000 0.601942 0.000000
1.000000 0.601301 0.000000
1.000000 0.601171 0.000000
1.000000 0.601171 0.000000
0.000000 0.655515 0.000000
0.013432 0.654599 0.000000
0.051528 0.653711 0.000000
0.088929 0.652839 0.000000
0.125839 0.651979 0.000000
0.162370 0.651127 0.000000
0.198594 0.650283 0.000000
0.234557 0.649445 0.000000
0.270297 0.648611 0.000000
0.305841 0.647783 0.000000
0.341209 0.646959 0.000000
0.376420 0.646138 0.000000
0.411486 0.645320 0.000000
0.446482 0.644530 0.000000
0.481679 0.643865 0.000000
0.516762 0.643202 0.000000
0.551738 0.642541 0.000000
0.586614 0.641882 0.000000
0.621397 0.641225 0.000000
0.656090 0.640569 0.000000
0.690699 0.639915 0.000000
0.725229 0.639263 0.000000
0.759683 0.638612 0.000000
0.794064 0.637962 0.000000
0.828377 0.637314 0.000000
0.862623 0.636667 0.000000
0.896805 0.636021 0.000000
0.930927 0.635376 0.000000
0.964989 0.634733 0.000000
0.998996 0.634090 0.000000
1.000000 0.633449 0.000000
1.000000 0.633344 0.000000
1.000000 0.633344 0.000000
0.000000 0.687159 0.000000
0.010589 0.686243 0.000000
0.048685 0.685355 0.000000
0.086086 0.684483 0.000000
0.122996 0.683623 0.000000
0.159527 0.682771 0.000000
0.195750 0.681927 0.000000
0.231714 0.681089 0.000000
0.267454 0.680256 0.000000
0.302998 0.679427 0.000000
0.338507 0.678657 0.000000
0.374106 0.677984 0.000000
0.409559 0.677314 0.000000
0.444879 0.676647 0.000000
0.480076 0.675982 0.000000
0.515159 0.675319 0.000000
0.550135 0.674658 0.000000
0.585011 0.673999 0.000000
0.619794 0.673342 0.000000
0.654487 0.672686 0.000000
0.689096 0.672033 0.000000
0.723626 0.671380 0.000000
0.758080 0.670729 0.000000
0.792461 0.670080 0.000000
0.826774 0.669431 0.000000
0.861020 0.668784 0.000000
0.895202 0.668138 0.000000
0.929324 0.667494 0.000000
0.963386 0.666850 0.000000
0.997392 0.666208 0.000000
1.000000 0.665566 0.000000
1.000000 0.665486 0.000000
1.000000 0.665486 0.000000
0.000000 0.718774 0.000000
0.007748 0.717858 0.000000
0.045844 0.716970 0.000000
0.083245 0.716098 0.000000
0.120155 0.715238 0.000000
0.156686 0.714387 0.000000
0.192909 0.713542 0.000000
0.229077 0.712782 0.000000
0.265211 0.712099 0.000000
0.301147 0.711420 0.000000
0.336906 0.710744 0.000000
0.372504 0.710072 0.000000
0.407958 0.709402 0.000000
0.443278 0.708734 0.000000
0.478475 0.708069 0.000000
0.513558 0.707407 0.000000
0.548534 0.706746 0.000000
0.583410 0.706087 0.000000
0.618192 0.705430 0.000000
0.652885 0.704774 0.000000
0.687495 0.704120 0.000000
0.722024 0.703468 0.000000
0.756478 0.702817 0.000000
0.790860 0.702167 0.000000
0.825172 0.701519 0.000000
0.859418 0.700872 0.000000
0.893601 0.700226 0.000000
0.927722 0.699581 0.000000
0.961785 0.698938 0.000000
0.995791 0.698295 0.000000
1.000000 0.697654 0.000000
1.000000 0.697599 0.000000
1.000000 0.697599 0.000000
0.000000 0.750362 0.000000
0.004910 0.749446 0.000000
0.043006 0.748558 0.000000
0.080407 0.747686 0.000000
0.117559 0.746918 0.000000
0.154493 0.746220 0.000000
0.191116 0.745528 0.000000
0.227477 0.744841 0.000000
0.263611 0.744158 0.000000
0.299547 0.743479 0.000000
0.335305 0.742804 0.000000
0.370904 0.742131 0.000000
0.406358 0.741461 0.000000
0.441678 0.740794 0.000000
0.476875 0.740129 0.000000
0.511957 0.739466 0.000000
0.546933 0.738805 0.000000
0.581810 0.738146 0.000000
0.616592 0.737489 0.000000
0.651285 0.736834 0.000000
0.685895 0.736180 0.000000
0.720424 0.735527 0.000000
0.754878 0.734876 0.000000
0.789260 0.734227 0.000000
0.823572 0.733578 0.000000
0.857818 0.732931 0.000000
0.892000 0.732286 0.000000
0.926122 0.731641 0.000000
0.960185 0.730997 0.000000
0.994191 0.730355 0.000000
1.000000 0.729713 0.000000
1.000000 0.729683 0.000000
1.000000 0.729683 0.000000
0.000000 0.781922 0.000000
0.002314 0.781098 0.000000
0.040830 0.780370 0.000000
0.078643 0.779656 0.000000
0.115960 0.778950 0.000000
0.152895 0.778253 0.000000
0.189517 0.777561 0.000000
0.225878 0.776874 0.000000
0.262012 0.776191 0.000000
0.297948 0.775512 0.000000
0.333707 0.774836 0.000000
0.369305 0.774164 0.000000
0.404759 0.773494 0.000000
0.440079 0.772827 0.000000
0.475276 0.772161 0.000000
0.510359 0.771499 0.000000
0.545335 0.770838 0.000000
0.580211 0.770179 0.000000
0.614993 0.769522 0.000000
0.649686 0.768866 0.000000
0.684296 0.768212 0.000000
0.718826 0.767560 0.000000
0.753279 0.766909 0.000000
0.787661 0.766259 0.000000
0.821973 0.765611 0.000000
0.856219 0.764964 0.000000
0.890402 0.764318 0.000000
0.924523 0.763673 0.000000
0.958586 0.763030 0.000000
0.992592 0.762387 0.000000
1.000000 0.761746 0.000000
1.000000 0.761740 0.000000
1.000000 0.761740 0.000000
0.000000 0.813855 0.000000
0.000716 0.813104 0.000000
0.039232 0.812377 0.000000
0.077045 0.811662 0.000000
0.114363 0.810957 0.000000
0.151297 0.810259 0.000000
0.187920 0.809567 0.000000
0.224281 0.808880 0.000000
0.260415 0.808198 0.000000
0.296351 0.807519 0.000000
0.332109 0.806843 0.000000
0.367708 0.806170 0.000000
0.403161 0.805501 0.000000
0.438481 0.804833 0.000000
0.473678 0.804168 0.000000
0.508761 0.803505 0.000000
0.543737 0.802844 0.000000
0.578613 0.802186 0.000000
0.613395 0.801528 0.000000
0.648089 0.800873 0.000000
0.682698 0.800219 0.000000
0.717228 0.799567 0.000000
0.751682 0.798916 0.000000
0.786063 0.798266 0.000000
0.820375 0.797618 0.000000
0.854622 0.796971 0.000000
0.888804 0.796325 0.000000
0.922925 0.795680 0.000000
0.956988 0.795036 0.000000
0.990994 0.794394 0.000000
1.000000 0.793752 0.000000
1.000000 0.793772 0.000000
1.000000 0.793772 0.000000
0.000000 0.845837 0.000000
0.000000 0.845086 0.000000
0.037636 0.844359 0.000000
0.075449 0.843644 0.000000
0.112766 0.842939 0.000000
0.149701 0.842241 0.000000
0.186324 0.841549 0.000000
0.222684 0.840862 0.000000
0.258819 0.840180 0.000000
0.294754 0.839501 0.000000
0.330513 0.838825 0.000000
0.366112 0.838152 0.000000
0.401565 0.837482 0.000000
0.436885 0.836815 0.000000
0.472082 0.836150 0.000000
0.507165 0.835487 0.000000
0.542141 0.834826 0.000000
0.577017 0.834167 0.000000
0.611799 0.833510 0.000000
0.646493 0.832855 0.000000
0.681102 0.832201 0.000000
0.715632 0.831548 0.000000
0.750086 0.830897 0.000000
0.784467 0.830248 0.000000
0.818779 0.829600 0.000000
0.853025 0.828953 0.000000
0.887208 0.828307 0.000000
