assets/preview/luts/warm_golden_hour.cube
TITLE "Warm Golden Hour"
LUT_3D_SIZE 5
DOMAIN_MIN 0.0 0.0 0.0
DOMAIN_MAX 1.0 1.0 1.0
0.032092 0.010549 0.000000
0.328250 0.003646 0.000000
0.608481 0.000000 0.000000
0.882101 0.000000 0.000000
1.000000 0.000000 0.000000
0.008532 0.272752 0.000000
0.304690 0.265848 0.000000
0.584921 0.259316 0.000000
0.858541 0.252938 0.000000
1.000000 0.247968 0.000000
0.000000 0.528615 0.000000
0.281700 0.521712 0.000000
0.561931 0.515180 0.000000
0.835550 0.508802 0.000000
1.000000 0.504448 0.000000
0.000000 0.781922 0.000000
0.262012 0.776191 0.000000
0.545335 0.770838 0.000000
0.821973 0.765611 0.000000
1.000000 0.761740 0.000000
0.000000 1.000000 0.000000
0.249700 1.000000 0.000000
0.533126 1.000000 0.000000
0.809866 1.000000 0.000000
1.000000 1.000000 0.000000
0.030253 0.008859 0.215502
0.326405 0.001949 0.209472
0.606629 0.000000 0.203767
0.880242 0.000000 0.198196
1.000000 0.000000 0.193897
0.006672 0.271040 0.196535
0.302823 0.264130 0.190506
0.583047 0.257592 0.184800
0.856661 0.251208 0.179229
1.000000 0.246228 0.174888
0.000000 0.526883 0.178027
0.279812 0.519973 0.171998
0.560036 0.513434 0.166292
0.833734 0.507083 0.160639
1.000000 0.503042 0.153998
0.000000 0.780416 0.159083
0.260961 0.774775 0.149856
0.544299 0.769438 0.141125
0.820953 0.764226 0.132600
1.000000 0.760384 0.126157
0.000000 1.000000 0.131581
0.248726 1.000000 0.122464
0.532168 1.000000 0.113837
0.808923 1.000000 0.105413
1.000000 1.000000 0.099248
0.028124 0.006896 0.467744
0.324275 0.000000 0.461714
0.604500 0.000000 0.456009
0.878113 0.000000 0.450438
1.000000 0.000000 0.446135
0.004543 0.269078 0.448777
0.300694 0.262168 0.442748
0.580918 0.255629 0.437042
0.854531 0.249245 0.431471
1.000000 0.244262 0.427127
0.000000 0.524920 0.430269
0.277683 0.518010 0.424240
0.557907 0.511472 0.418534
0.832539 0.505481 0.411973
1.000000 0.501458 0.405350
0.000000 0.778814 0.410417
0.259766 0.773173 0.401190
0.543104 0.767836 0.392459
0.819758 0.762624 0.383934
1.000000 0.758801 0.377510
0.000000 1.000000 0.382946
0.247563 1.000000 0.373829
0.531005 1.000000 0.365202
0.807760 1.000000 0.356778
1.000000 1.000000 0.350632
0.025934 0.004878 0.727179
0.322085 0.000000 0.721149
0.602310 0.000000 0.715443
0.875923 0.000000 0.709872
1.000000 0.000000 0.705566
0.002353 0.267059 0.708212
0.298504 0.260149 0.702182
0.578728 0.253611 0.696477
0.852341 0.247226 0.690906
1.000000 0.242239 0.686557
0.000000 0.522902 0.689704
0.275493 0.515992 0.683674
0.555717 0.509453 0.677969
0.831311 0.503833 0.670474
1.000000 0.499830 0.663870
0.000000 0.777166 0.668918
0.258537 0.771525 0.659690
0.541875 0.766188 0.650959
0.818529 0.760977 0.642434
1.000000 0.757172 0.636030
0.000000 1.000000 0.641479
0.246366 1.000000 0.632362
0.529808 1.000000 0.623735
0.806563 1.000000 0.615311
1.000000 1.000000 0.609183
0.023704 0.002822 0.991358
0.319855 0.000000 0.985328
0.600079 0.000000 0.979623
0.873693 0.000000 0.974052
1.000000 0.000000 0.969741
0.000122 0.265004 0.972391
0.296274 0.258093 0.966362
0.576498 0.251555 0.960656
0.850111 0.245171 0.955085
1.000000 0.240180 0.950733
0.000000 0.520846 0.953883
0.273262 0.513936 0.947854
0.553487 0.507398 0.942148
0.830059 0.502155 0.933702
1.000000 0.498171 0.927118
0.000000 0.775488 0.932146
0.257286 0.769847 0.922919
0.540624 0.764510 0.914188
0.817278 0.759299 0.905663
1.000000 0.755514 0.899277
0.000000 1.000000 0.904740
0.245148 1.000000 0.895622
0.528590 1.000000 0.886996
0.805345 1.000000 0.878572
1.000000 1.000000 0.872464
