assets/preview/luts/warm_allpurpose.cube
TITLE "Warm All-Purpose"
LUT_3D_SIZE 5
DOMAIN_MIN 0.0 0.0 0.0
DOMAIN_MAX 1.0 1.0 1.0
0.000000 0.000000 0.000000
0.271473 0.000000 0.000000
0.558178 0.000000 0.000000
0.843089 0.000000 0.000000
1.000000 0.000000 0.000000
0.000000 0.244970 0.000000
0.257769 0.240626 0.000000
0.544474 0.236039 0.000000
0.829385 0.231480 0.000000
1.000000 0.227962 0.000000
0.000000 0.514102 0.000000
0.242713 0.509759 0.000000
0.529418 0.505171 0.000000
0.814330 0.500613 0.000000
1.000000 0.497094 0.000000
0.000000 0.783201 0.000000
0.227659 0.778857 0.000000
0.514364 0.774270 0.000000
0.799276 0.769711 0.000000
1.000000 0.766193 0.000000
0.000000 1.000000 0.000000
0.214257 1.000000 0.000000
0.500962 1.000000 0.000000
0.785873 1.000000 0.000000
1.000000 1.000000 0.000000
0.000000 0.000000 0.236653
0.270200 0.000000 0.232310
0.556905 0.000000 0.227722
0.841817 0.000000 0.223164
1.000000 0.000000 0.219645
0.000000 0.243697 0.222949
0.256496 0.239354 0.218606
0.543201 0.234766 0.214018
0.828113 0.230208 0.209460
1.000000 0.226689 0.205941
0.000000 0.512830 0.207894
0.241441 0.508486 0.203550
0.528146 0.503899 0.198963
0.813057 0.499340 0.194404
1.000000 0.495822 0.190886
0.000000 0.781928 0.192840
0.226387 0.777585 0.188496
0.513092 0.772998 0.183909
0.798003 0.768439 0.179350
1.000000 0.764920 0.175832
0.000000 1.000000 0.179437
0.212984 1.000000 0.175094
0.499689 1.000000 0.170506
0.784601 1.000000 0.165948
1.000000 1.000000 0.162429
0.000000 0.000000 0.508061
0.268741 0.000000 0.503718
0.555446 0.000000 0.499130
0.840357 0.000000 0.494572
1.000000 0.000000 0.491053
0.000000 0.242238 0.494357
0.255037 0.237894 0.490014
0.541742 0.233307 0.485426
0.826654 0.228748 0.480868
1.000000 0.225230 0.477349
0.000000 0.511371 0.479302
0.239981 0.507027 0.474958
0.526686 0.502440 0.470371
0.811598 0.497881 0.465812
1.000000 0.494363 0.462294
0.000000 0.780469 0.464248
0.224927 0.776126 0.459904
0.511633 0.771538 0.455317
0.796544 0.766980 0.450758
1.000000 0.763461 0.447240
0.000000 1.000000 0.450845
0.211525 1.000000 0.446502
0.498230 1.000000 0.441914
0.783141 1.000000 0.437356
1.000000 1.000000 0.433837
0.000000 0.000000 0.781210
0.267272 0.000000 0.776867
0.553977 0.000000 0.772279
0.838889 0.000000 0.767721
1.000000 0.000000 0.764202
0.000000 0.240769 0.767506
0.253568 0.236426 0.763163
0.540273 0.231838 0.758575
0.825185 0.227280 0.754017
1.000000 0.223761 0.750498
0.000000 0.509902 0.752450
0.238512 0.505558 0.748107
0.525218 0.500971 0.743520
0.810129 0.496412 0.738961
1.000000 0.492894 0.735442
0.000000 0.779000 0.737397
0.223459 0.774657 0.733053
0.510164 0.770070 0.728466
0.795075 0.765511 0.723907
1.000000 0.761992 0.720389
0.000000 1.000000 0.723994
0.210056 1.000000 0.719651
0.496761 1.000000 0.715063
0.781673 1.000000 0.710505
1.000000 1.000000 0.706986
0.000000 0.000000 1.000000
0.265812 0.000000 1.000000
0.552517 0.000000 1.000000
0.837428 0.000000 1.000000
1.000000 0.000000 1.000000
0.000000 0.239309 1.000000
0.252108 0.234965 1.000000
0.538813 0.230378 1.000000
0.823724 0.225819 1.000000
1.000000 0.222301 1.000000
0.000000 0.508441 1.000000
0.237052 0.504098 1.000000
0.523757 0.499511 1.000000
0.808669 0.494952 1.000000
1.000000 0.491433 1.000000
0.000000 0.777540 1.000000
0.221998 0.773196 1.000000
0.508704 0.768609 1.000000
0.793615 0.764050 0.995522
1.000000 0.760532 0.992004
0.000000 1.000000 0.995609
0.208596 1.000000 0.991266
0.495301 1.000000 0.986678
0.780212 1.000000 0.982120
1.000000 1.000000 0.978601
