assets/preview/luts/warm_golden_hour.cube
TITLE "Warm Golden Hour"
LUT_3D_SIZE 9
DOMAIN_MIN 0.0 0.0 0.0
DOMAIN_MAX 1.0 1.0 1.0
0.032092 0.010549 0.000000
0.183792 0.007013 0.000000
0.328250 0.003646 0.000000
0.469439 0.000355 0.000000
0.608481 0.000000 0.000000
0.745926 0.000000 0.000000
0.882101 0.000000 0.000000
1.000000 0.000000 0.000000
1.000000 0.000000 0.000000
0.020179 0.143138 0.000000
0.171878 0.139602 0.000000
0.316337 0.136234 0.000000
0.457525 0.132943 0.000000
0.596567 0.129702 0.000000
0.734012 0.126499 0.000000
0.870187 0.123324 0.000000
1.000000 0.120175 0.000000
1.000000 0.118374 0.000000
0.008532 0.272752 0.000000
0.160232 0.269216 0.000000
0.304690 0.265848 0.000000
0.445879 0.262557 0.000000
0.584921 0.259316 0.000000
0.722366 0.256113 0.000000
0.858541 0.252938 0.000000
0.993663 0.249789 0.000000
1.000000 0.247968 0.000000
0.000000 0.401098 0.000000
0.148699 0.397562 0.000000
0.293158 0.394195 0.000000
0.434347 0.390904 0.000000
0.573389 0.387663 0.000000
0.710833 0.384459 0.000000
0.847008 0.381285 0.000000
0.982130 0.378135 0.000000
1.000000 0.376294 0.000000
0.000000 0.528615 0.000000
0.137242 0.525079 0.000000
0.281700 0.521712 0.000000
0.422889 0.518421 0.000000
0.561931 0.515180 0.000000
0.699375 0.511976 0.000000
0.835550 0.508802 0.000000
0.971418 0.505937 0.000000
1.000000 0.504448 0.000000
0.000000 0.655515 0.000000
0.125839 0.651979 0.000000
0.270297 0.648611 0.000000
0.411486 0.645320 0.000000
0.551738 0.642541 0.000000
0.690699 0.639915 0.000000
0.828377 0.637314 0.000000
0.964989 0.634733 0.000000
1.000000 0.633344 0.000000
0.000000 0.781922 0.000000
0.115960 0.778950 0.000000
0.262012 0.776191 0.000000
0.404759 0.773494 0.000000
0.545335 0.770838 0.000000
0.684296 0.768212 0.000000
0.821973 0.765611 0.000000
0.958586 0.763030 0.000000
1.000000 0.761740 0.000000
0.000000 0.909730 0.000000
0.109577 0.906832 0.000000
0.255630 0.904073 0.000000
0.398376 0.901376 0.000000
0.538952 0.898720 0.000000
0.677913 0.896094 0.000000
0.815590 0.893493 0.000000
0.952203 0.890912 0.000000
1.000000 0.889721 0.000000
0.000000 1.000000 0.000000
0.103594 1.000000 0.000000
0.249700 1.000000 0.000000
0.392498 1.000000 0.000000
0.533126 1.000000 0.000000
0.672138 1.000000 0.000000
0.809866 1.000000 0.000000
0.946529 1.000000 0.000000
1.000000 1.000000 0.000000
0.031278 0.009804 0.094082
0.182975 0.006264 0.090993
0.327430 0.002894 0.088052
0.468615 0.000000 0.085178
0.607654 0.000000 0.082347
0.745096 0.000000 0.079548
0.881267 0.000000 0.076776
1.000000 0.000000 0.074025
1.000000 0.000000 0.072479
0.019354 0.142382 0.084491
0.171050 0.138842 0.081403
0.315505 0.135472 0.078461
0.456691 0.132177 0.075587
0.595729 0.128933 0.072756
0.733171 0.125726 0.069957
0.869343 0.122549 0.067185
1.000000 0.119396 0.064434
1.000000 0.117592 0.062867
0.007697 0.271985 0.075115
0.159393 0.268446 0.072027
0.303848 0.265075 0.069086
0.445034 0.261781 0.066211
0.584072 0.258537 0.063380
0.721514 0.255330 0.060582
0.857686 0.252152 0.057809
0.992805 0.249000 0.055058
1.000000 0.247175 0.053470
0.000000 0.400321 0.065831
0.147850 0.396782 0.062743
0.292305 0.393411 0.059802
0.433491 0.390117 0.056927
0.572529 0.386872 0.054096
0.709971 0.383666 0.051298
0.846143 0.380488 0.048525
0.981262 0.377335 0.045774
1.000000 0.375490 0.044166
0.000000 0.527828 0.056607
0.136382 0.524288 0.053519
0.280837 0.520918 0.050578
0.422022 0.517623 0.047703
0.561061 0.514379 0.044872
0.698503 0.511172 0.042074
0.834674 0.507995 0.039301
0.970929 0.505280 0.035446
1.000000 0.503804 0.033006
0.000000 0.654717 0.047428
0.124969 0.651177 0.044339
0.269424 0.647807 0.041398
0.410668 0.644535 0.038466
0.551252 0.641887 0.034134
0.690221 0.639269 0.029852
0.827906 0.636676 0.025609
0.964526 0.634102 0.021400
1.000000 0.632725 0.019059
0.000000 0.781187 0.038100
0.115476 0.778298 0.033374
0.261536 0.775546 0.028873
0.404290 0.772857 0.024474
0.544874 0.770209 0.020142
0.683843 0.767591 0.015860
0.821528 0.764998 0.011617
0.958148 0.762424 0.007407
1.000000 0.761147 0.005166
0.000000 0.909094 0.024153
0.109118 0.906205 0.019427
0.255178 0.903454 0.014926
0.397932 0.900764 0.010527
0.538516 0.898116 0.006195
0.677485 0.895498 0.001913
0.815170 0.892905 0.000000
0.951790 0.890331 0.000000
1.000000 0.889152 0.000000
0.000000 1.000000 0.010583
0.103172 1.000000 0.005913
0.249286 1.000000 0.001466
0.392093 1.000000 0.000000
0.532728 1.000000 0.000000
0.671748 1.000000 0.000000
0.809484 1.000000 0.000000
0.946154 1.000000 0.000000
1.000000 1.000000 0.000000
0.030253 0.008859 0.215502
0.181950 0.005320 0.212413
0.326405 0.001949 0.209472
0.467590 0.000000 0.206597
0.606629 0.000000 0.203767
0.744071 0.000000 0.200968
0.880242 0.000000 0.198196
1.000000 0.000000 0.195445
1.000000 0.000000 0.193897
0.018329 0.141437 0.205911
0.170025 0.137897 0.202822
0.314480 0.134527 0.199881
0.455666 0.131233 0.197007
0.594704 0.127988 0.194176
0.732146 0.124781 0.191377
0.868318 0.121604 0.188605
1.000000 0.118451 0.185854
1.000000 0.116646 0.184285
0.006672 0.271040 0.196535
0.158368 0.267501 0.193447
0.302823 0.264130 0.190506
0.444009 0.260836 0.187631
0.583047 0.257592 0.184800
0.720489 0.254385 0.182002
0.856661 0.251208 0.179229
0.991780 0.248055 0.176478
1.000000 0.246228 0.174888
0.000000 0.399376 0.187251
0.146825 0.395837 0.184163
0.291280 0.392466 0.181222
0.432466 0.389172 0.178347
0.571504 0.385928 0.175516
0.708946 0.382721 0.172718
0.845118 0.379543 0.169945
0.980237 0.376391 0.167194
1.000000 0.374544 0.165584
0.000000 0.526883 0.178027
0.135357 0.523343 0.174939
0.279812 0.519973 0.171998
0.420997 0.516679 0.169123
0.560036 0.513434 0.166292
0.697478 0.510227 0.163494
0.833734 0.507083 0.160639
0.970354 0.504509 0.156429
1.000000 0.503042 0.153998
0.000000 0.653772 0.168848
0.123944 0.650233 0.165759
0.268399 0.646862 0.162818
0.410093 0.643764 0.159449
0.550677 0.641116 0.155117
0.689646 0.638498 0.150835
0.827331 0.635904 0.146592
0.963951 0.633331 0.142382
1.000000 0.631963 0.140051
0.000000 0.780416 0.159083
0.114901 0.777527 0.154357
0.260961 0.774775 0.149856
0.403715 0.772086 0.145457
0.544299 0.769438 0.141125
0.683268 0.766820 0.136843
0.820953 0.764226 0.132600
0.957573 0.761653 0.128390
1.000000 0.760384 0.126157
0.000000 0.908323 0.145136
0.108543 0.905434 0.140409
0.254603 0.902682 0.135909
0.397357 0.899993 0.131510
0.537941 0.897345 0.127178
0.676910 0.894727 0.122896
0.814595 0.892134 0.118653
0.951215 0.889560 0.114443
1.000000 0.888390 0.112309
0.000000 1.000000 0.131581
0.102612 1.000000 0.126911
0.248726 1.000000 0.122464
0.391533 1.000000 0.118117
0.532168 1.000000 0.113837
0.671188 1.000000 0.109605
0.808923 1.000000 0.105413
0.945594 1.000000 0.101253
1.000000 1.000000 0.099248
0.029199 0.007887 0.340464
0.180895 0.004347 0.337375
0.325350 0.000977 0.334434
0.466535 0.000000 0.331560
0.605574 0.000000 0.328729
0.743016 0.000000 0.325930
0.879187 0.000000 0.323158
1.000000 0.000000 0.320407
1.000000 0.000000 0.318857
0.017274 0.140465 0.330873
0.168970 0.136925 0.327785
0.313425 0.133554 0.324843
0.454611 0.130260 0.321969
0.593650 0.127016 0.319138
0.731091 0.123809 0.316339
0.867263 0.120632 0.313567
1.000000 0.117479 0.310816
1.000000 0.115672 0.309245
0.005617 0.270068 0.321497
0.157313 0.266529 0.318409
0.301768 0.263158 0.315468
0.442954 0.259864 0.312593
0.581993 0.256619 0.309762
0.719434 0.253413 0.306964
0.855606 0.250235 0.304191
0.990725 0.247083 0.301440
1.000000 0.245254 0.299848
0.000000 0.398404 0.312213
0.145770 0.394864 0.309125
0.290225 0.391494 0.306184
0.431411 0.388200 0.303309
0.570450 0.384955 0.300478
0.707891 0.381748 0.297680
0.844063 0.378571 0.294907
0.979182 0.375418 0.292156
1.000000 0.373570 0.290544
0.000000 0.525911 0.302989
0.134302 0.522371 0.299901
0.278757 0.519001 0.296960
0.419942 0.515706 0.294085
0.558981 0.512462 0.291254
0.696423 0.509255 0.288456
0.833142 0.506289 0.285151
0.969763 0.503715 0.280941
1.000000 0.502258 0.278519
0.000000 0.652800 0.293810
0.122889 0.649260 0.290721
0.267344 0.645890 0.287780
0.409502 0.642970 0.283961
0.550085 0.640322 0.279629
0.689054 0.637704 0.275347
0.826739 0.635111 0.271104
0.963359 0.632537 0.266894
1.000000 0.631179 0.264572
0.000000 0.779622 0.283595
0.114309 0.776733 0.278869
0.260369 0.773982 0.274368
0.403123 0.771292 0.269969
0.543707 0.768644 0.265637
0.682676 0.766026 0.261355
0.820361 0.763433 0.257112
0.956981 0.760859 0.252902
1.000000 0.759600 0.250679
0.000000 0.907529 0.269648
0.107951 0.904640 0.264922
0.254011 0.901889 0.260421
0.396766 0.899200 0.256022
0.537349 0.896551 0.251690
0.676318 0.893933 0.247408
0.814003 0.891340 0.243165
0.950623 0.888766 0.238955
1.000000 0.887606 0.236831
0.000000 1.000000 0.256108
0.102036 1.000000 0.251438
0.248150 1.000000 0.246991
0.390956 1.000000 0.242645
0.531592 1.000000 0.238364
0.670612 1.000000 0.234133
0.808347 1.000000 0.229941
0.945018 1.000000 0.225781
1.000000 1.000000 0.223785
0.028124 0.006896 0.467744
0.179820 0.003357 0.464655
0.324275 0.000000 0.461714
0.465461 0.000000 0.458840
0.604500 0.000000 0.456009
0.741941 0.000000 0.453210
0.878113 0.000000 0.450438
1.000000 0.000000 0.447687
1.000000 0.000000 0.446135
0.016200 0.139474 0.458153
0.167896 0.135935 0.455065
0.312351 0.132564 0.452123
0.453536 0.129270 0.449249
0.592575 0.126026 0.446418
0.730017 0.122819 0.443619
0.866188 0.119641 0.440847
1.000000 0.116489 0.438096
1.000000 0.114679 0.436523
0.004543 0.269078 0.448777
0.156239 0.265538 0.445689
0.300694 0.262168 0.442748
0.441879 0.258873 0.439873
0.580918 0.255629 0.437042
0.718360 0.252422 0.434244
0.854531 0.249245 0.431471
0.989650 0.246092 0.428720
1.000000 0.244262 0.427127
0.000000 0.397414 0.439493
0.144696 0.393874 0.436405
0.289151 0.390504 0.433464
0.430336 0.387209 0.430589
0.569375 0.383965 0.427758
0.706817 0.380758 0.424960
0.842988 0.377581 0.422187
0.978107 0.374428 0.419436
1.000000 0.372577 0.417822
0.000000 0.524920 0.430269
0.133227 0.521381 0.427181
0.277683 0.518010 0.424240
0.418868 0.514716 0.421365
0.557907 0.511472 0.418534
0.695348 0.508265 0.415736
0.832539 0.505481 0.411973
0.969160 0.502907 0.407763
1.000000 0.501458 0.405350
0.000000 0.651809 0.421090
0.121815 0.648270 0.418002
0.266270 0.644899 0.415060
0.408899 0.642162 0.410783
0.549482 0.639514 0.406451
0.688451 0.636896 0.402169
0.826136 0.634302 0.397926
0.962757 0.631729 0.393716
1.000000 0.630380 0.391403
0.000000 0.778814 0.410417
0.113706 0.775925 0.405691
0.259766 0.773173 0.401190
0.402520 0.770484 0.396791
0.543104 0.767836 0.392459
0.682073 0.765218 0.388177
0.819758 0.762624 0.383934
0.956378 0.760051 0.379724
1.000000 0.758801 0.377510
0.000000 0.906721 0.396470
0.107348 0.903832 0.391743
0.253408 0.901080 0.387243
0.396163 0.898391 0.382844
0.536746 0.895743 0.378512
0.675715 0.893125 0.374230
0.813400 0.890531 0.369987
0.950020 0.887958 0.365777
1.000000 0.886807 0.363662
0.000000 1.000000 0.382946
0.101449 1.000000 0.378276
0.247563 1.000000 0.373829
0.390369 1.000000 0.369482
0.531005 1.000000 0.365202
0.670025 1.000000 0.360971
0.807760 1.000000 0.356778
0.944431 1.000000 0.352619
1.000000 1.000000 0.350632
0.027035 0.005893 0.596763
0.178731 0.002353 0.593674
0.323186 0.000000 0.590733
0.464372 0.000000 0.587858
0.603410 0.000000 0.585028
0.740852 0.000000 0.582229
0.877024 0.000000 0.579457
1.000000 0.000000 0.576706
1.000000 0.000000 0.575152
0.015111 0.138470 0.587172
0.166807 0.134931 0.584083
0.311262 0.131560 0.581142
0.452447 0.128266 0.578268
0.591486 0.125022 0.575437
0.728928 0.121815 0.572638
0.865099 0.118638 0.569866
1.000000 0.115485 0.567115
1.000000 0.113673 0.565540
0.003454 0.268074 0.577796
0.155150 0.264534 0.574708
0.299605 0.261164 0.571767
0.440790 0.257869 0.568892
0.579829 0.254625 0.566061
0.717271 0.251418 0.563263
0.853442 0.248241 0.560490
0.988561 0.245088 0.557739
1.000000 0.243256 0.556144
0.000000 0.396410 0.568512
0.143607 0.392870 0.565424
0.288062 0.389500 0.562483
0.429247 0.386205 0.559608
0.568286 0.382961 0.556777
0.705728 0.379754 0.553979
0.841899 0.376577 0.551206
0.977018 0.373424 0.548455
1.000000 0.371571 0.546839
0.000000 0.523916 0.559288
0.132138 0.520377 0.556200
0.276593 0.517006 0.553259
0.417779 0.513712 0.550384
0.556818 0.510468 0.547553
0.694259 0.507261 0.544755
0.831928 0.504661 0.540527
0.968549 0.502088 0.536317
1.000000 0.500649 0.533914
0.000000 0.650806 0.550109
0.120726 0.647266 0.547020
0.265533 0.644032 0.543736
0.408288 0.641342 0.539338
0.548871 0.638694 0.535006
0.687840 0.636076 0.530723
0.825525 0.633483 0.526481
0.962145 0.630909 0.522271
1.000000 0.629570 0.519967
0.000000 0.777994 0.538971
0.113095 0.775105 0.534245
0.259155 0.772354 0.529744
0.401909 0.769665 0.525345
0.542493 0.767016 0.521013
0.681462 0.764398 0.516731
0.819147 0.761805 0.512488
0.955767 0.759231 0.508278
1.000000 0.757991 0.506074
0.000000 0.905902 0.525024
0.106737 0.903012 0.520298
0.252797 0.900261 0.515797
0.395552 0.897572 0.511398
0.536135 0.894923 0.507066
0.675104 0.892306 0.502784
0.812789 0.889712 0.498541
0.949409 0.887138 0.494331
1.000000 0.885997 0.492226
0.000000 1.000000 0.511516
0.100854 1.000000 0.506846
0.246968 1.000000 0.502399
0.389774 1.000000 0.498053
0.530410 1.000000 0.493772
0.669430 1.000000 0.489541
0.807165 1.000000 0.485349
0.943835 1.000000 0.481189
1.000000 1.000000 0.479211
0.025934 0.004878 0.727179
0.177630 0.001338 0.724090
0.322085 0.000000 0.721149
0.463271 0.000000 0.718274
0.602310 0.000000 0.715443
0.739751 0.000000 0.712645
0.875923 0.000000 0.709872
1.000000 0.000000 0.707121
1.000000 0.000000 0.705566
0.014010 0.137456 0.717588
0.165706 0.133916 0.714499
0.310161 0.130546 0.711558
0.451346 0.127251 0.708683
0.590385 0.124007 0.705852
0.727827 0.120800 0.703054
0.863998 0.117623 0.700282
0.999117 0.114470 0.697530
1.000000 0.112657 0.695954
0.002353 0.267059 0.708212
0.154049 0.263520 0.705124
0.298504 0.260149 0.702182
0.439689 0.256855 0.699308
0.578728 0.253611 0.696477
0.716170 0.250404 0.693678
0.852341 0.247226 0.690906
0.987460 0.244074 0.688155
1.000000 0.242239 0.686557
0.000000 0.395395 0.698928
0.142506 0.391855 0.695840
0.286961 0.388485 0.692898
0.428146 0.385191 0.690024
0.567185 0.381946 0.687193
0.704627 0.378739 0.684394
0.840798 0.375562 0.681622
0.975917 0.372409 0.678871
1.000000 0.370555 0.677253
0.000000 0.522902 0.689704
0.131037 0.519362 0.686616
0.275493 0.515992 0.683674
0.416678 0.512697 0.680800
0.555717 0.509453 0.677969
0.693626 0.506426 0.674716
0.831311 0.503833 0.670474
0.967931 0.501259 0.666264
1.000000 0.499830 0.663870
0.000000 0.649791 0.680525
0.119625 0.646251 0.677436
0.264916 0.643203 0.673683
0.407670 0.640514 0.669284
0.548254 0.637866 0.664952
0.687223 0.635248 0.660669
0.824907 0.632654 0.656427
0.961528 0.630081 0.652217
1.000000 0.628751 0.649923
0.000000 0.777166 0.668918
0.112477 0.774277 0.664191
0.258537 0.771525 0.659690
0.401292 0.768836 0.655291
0.541875 0.766188 0.650959
0.680844 0.763570 0.646677
0.818529 0.760977 0.642434
0.955149 0.758403 0.638225
1.000000 0.757172 0.636030
0.000000 0.905073 0.654971
0.106119 0.902184 0.650244
0.252180 0.899432 0.645743
0.394934 0.896743 0.641344
0.535518 0.894095 0.637012
0.674487 0.891477 0.632730
0.812171 0.888884 0.628487
0.948792 0.886310 0.624278
1.000000 0.885178 0.622181
0.000000 1.000000 0.641479
0.100252 1.000000 0.636809
0.246366 1.000000 0.632362
0.389173 1.000000 0.628015
0.529808 1.000000 0.623735
0.668828 1.000000 0.619503
0.806563 1.000000 0.615311
0.943234 1.000000 0.611151
1.000000 1.000000 0.609183
0.024823 0.003854 0.858764
0.176519 0.000314 0.855676
0.320975 0.000000 0.852735
0.462160 0.000000 0.849860
0.601199 0.000000 0.847029
0.738640 0.000000 0.844231
0.874812 0.000000 0.841458
1.000000 0.000000 0.838707
1.000000 0.000000 0.837150
0.012899 0.136432 0.849174
0.164595 0.132892 0.846085
0.309050 0.129522 0.843144
0.450235 0.126227 0.840269
0.589274 0.122983 0.837438
0.726716 0.119776 0.834640
0.862888 0.116599 0.831867
0.998006 0.113446 0.829116
1.000000 0.111631 0.827537
0.001242 0.266035 0.839798
0.152938 0.262496 0.836709
0.297393 0.259125 0.833768
0.438579 0.255831 0.830893
0.577617 0.252587 0.828063
0.715059 0.249380 0.825264
0.851231 0.246202 0.822492
0.986349 0.243050 0.819740
1.000000 0.241214 0.818141
0.000000 0.394371 0.830514
0.141395 0.390832 0.827425
0.285850 0.387461 0.824484
0.427036 0.384167 0.821609
0.566074 0.380923 0.818779
0.703516 0.377716 0.815980
0.839688 0.374538 0.813208
0.974807 0.371386 0.810456
1.000000 0.369529 0.808836
0.000000 0.521878 0.821290
0.129927 0.518338 0.818201
0.274382 0.514968 0.815260
0.415567 0.511673 0.812385
0.554606 0.508429 0.809555
0.693003 0.505591 0.805828
0.830687 0.502997 0.801585
0.967308 0.500423 0.797376
1.000000 0.499004 0.794992
0.000000 0.648767 0.812111
0.118514 0.645227 0.809022
0.264293 0.642367 0.804795
0.407047 0.639678 0.800396
0.547631 0.637030 0.796064
0.686599 0.634412 0.791781
0.824284 0.631819 0.787539
0.960905 0.629245 0.783329
1.000000 0.627925 0.781045
0.000000 0.776330 0.800030
0.111854 0.773441 0.795303
0.257914 0.770690 0.790802
0.400668 0.768000 0.786403
0.541252 0.765352 0.782071
0.680221 0.762734 0.777789
0.817906 0.760141 0.773546
0.954526 0.757567 0.769337
1.000000 0.756346 0.767151
0.000000 0.904237 0.786082
0.105496 0.901348 0.781356
0.251556 0.898597 0.776855
0.394311 0.895908 0.772456
0.534894 0.893259 0.768124
0.673863 0.890641 0.763842
0.811548 0.888048 0.759599
0.948169 0.885474 0.755390
1.000000 0.884352 0.753303
0.000000 1.000000 0.772607
0.099645 1.000000 0.767937
0.245759 1.000000 0.763490
0.388566 1.000000 0.759143
0.529201 1.000000 0.754863
0.668221 1.000000 0.750632
0.805956 1.000000 0.746439
0.942627 1.000000 0.742280
1.000000 1.000000 0.740321
0.023704 0.002822 0.991358
0.175400 0.000000 0.988269
0.319855 0.000000 0.985328
0.461041 0.000000 0.982454
0.600079 0.000000 0.979623
0.737521 0.000000 0.976824
0.873693 0.000000 0.974052
1.000000 0.000000 0.971301
1.000000 0.000000 0.969741
0.011779 0.135400 0.981767
0.163476 0.131861 0.978679
0.307931 0.128490 0.975737
0.449116 0.125196 0.972863
0.588155 0.121951 0.970032
0.725597 0.118745 0.967233
0.861768 0.115567 0.964461
0.996887 0.112415 0.961710
1.000000 0.110597 0.960129
0.000122 0.265004 0.972391
0.151819 0.261464 0.969303
0.296274 0.258093 0.966362
0.437459 0.254799 0.963487
0.576498 0.251555 0.960656
0.713940 0.248348 0.957858
0.850111 0.245171 0.955085
0.985230 0.242018 0.952334
1.000000 0.240180 0.950733
0.000000 0.393339 0.963108
0.140276 0.389800 0.960019
0.284731 0.386429 0.957078
0.425916 0.383135 0.954203
0.564955 0.379891 0.951372
0.702397 0.376684 0.948574
0.838568 0.373507 0.945801
0.973687 0.370354 0.943050
1.000000 0.368623 0.941133
0.000000 0.520846 0.953883
0.128807 0.517307 0.950795
0.273262 0.513936 0.947854
0.414448 0.510642 0.944979
0.553487 0.507398 0.942148
0.692375 0.504749 0.937944
0.830059 0.502155 0.933702
0.966680 0.499581 0.929492
1.000000 0.498171 0.927118
0.000000 0.647735 0.944704
0.117604 0.644277 0.941412
0.263665 0.641525 0.936911
0.406419 0.638836 0.932512
0.547003 0.636188 0.928180
0.685971 0.633570 0.923898
0.823656 0.630976 0.919655
0.960277 0.628403 0.915445
1.000000 0.627092 0.913171
0.000000 0.775488 0.932146
0.111226 0.772599 0.927419
0.257286 0.769847 0.922919
0.400040 0.767158 0.918520
0.540624 0.764510 0.914188
0.679593 0.761892 0.909905
0.817278 0.759299 0.905663
0.953898 0.756725 0.901453
1.000000 0.755514 0.899277
0.000000 0.903395 0.918199
0.104868 0.900506 0.913472
0.250929 0.897754 0.908972
0.393683 0.895065 0.904573
0.534266 0.892417 0.900241
0.673235 0.889799 0.895958
0.810920 0.887206 0.891716
0.947541 0.884632 0.887506
1.000000 0.883519 0.885429
0.000000 1.000000 0.904740
0.099034 1.000000 0.900070
0.245148 1.000000 0.895622
0.387954 1.000000 0.891276
0.528590 1.000000 0.886996
0.667610 1.000000 0.882764
0.805345 1.000000 0.878572
0.942015 1.000000 0.874412
1.000000 1.000000 0.872464
